; HEADER_BLOCK_START
; generated by OrcaSlicer 1.9.1 on 2024-04-13 at 12:50:09
; total layer number: 110
; filament_density: 1.24
; filament_diameter: 1.75
; max_z_height: 17.60
; HEADER_BLOCK_END

; THUMBNAIL_BLOCK_START

;
; THUMBNAIL_BLOCK_END

; external perimeters extrusion width = 0.40mm
; perimeters extrusion width = 0.45mm
; infill extrusion width = 0.45mm
; solid infill extrusion width = 0.40mm
; top infill extrusion width = 0.40mm
; support material extrusion width = 0.40mm
; first layer extrusion width = 0.50mm

; EXECUTABLE_BLOCK_START


; Pre-Processed for Cancel-Object support by preprocess_cancellation v0.2.0
; 1 known objects
EXCLUDE_OBJECT_DEFINE NAME=3D_printed_Antenna_base_L_R_stl_id_2577664861368_copy_0 CENTER=117.280,114.938 POLYGON=[[101.255,103.017],[101.255,130.036],[133.745,130.036],[133.745,103.017]]
M73 P0 R26
;TYPE:Custom
M104 S0 ; Stops OrcaSlicer from sending temp waits separately
M140 S0
print_start EXTRUDER=210 BED=35 CHAMBER=0
G90
G21
M83 ; use relative distances for extrusion
; filament start gcode
M106 S0
;LAYER_CHANGE
;Z:0.2
;HEIGHT:0.2
;BEFORE_LAYER_CHANGE
;0.2
G92 E0

G1 E-.8 F1800
;_SET_FAN_SPEED_CHANGING_LAYER
SET_VELOCITY_LIMIT ACCEL=500 ACCEL_TO_DECEL=250
G1 X100.815 Y103.066 F9000
G1 Z.2
G1 E.8 F1800
;TYPE:Skirt
;WIDTH:0.5
G1 F2100.29
G1 X101.948 Y102.048 E.05786
G1 X103.149 Y101.326 E.05327
G1 X104.422 Y100.844 E.05176
G1 X105.823 Y100.587 E.05412
G1 X128.495 Y100.556 E.86169
G1 X129.931 Y100.691 E.05479
G1 X131.149 Y101.028 E.04805
G1 X132.415 Y101.628 E.05326
G1 X133.636 Y102.521 E.05748
G1 X134.511 Y103.447 E.04842
G1 X135.284 Y104.616 E.05327
G1 X135.868 Y106.019 E.05777
G1 X136.136 Y107.257 E.04812
G1 X136.201 Y108.398 E.04343
G1 X136.096 Y109.535 E.04342
G1 X132.911 Y126.734 E.66476
G1 X132.283 Y127.971 E.05274
G1 X130.495 Y128.743 E.07403
G1 X104.505 Y128.743 E.98779
G1 X103.174 Y128.351 E.05274
G1 X102.089 Y126.733 E.07402
G1 X98.837 Y109.038 E.68378
G1 X98.834 Y107.516 E.05786
G1 X99 Y106.508 E.03881
G1 X99.211 Y105.775 E.02897
G1 X99.904 Y104.286 E.06243
G1 X100.791 Y103.098 E.05637
; printing object 3D printed Antenna base L+R.stl id:2577664861368 copy 0
EXCLUDE_OBJECT_START NAME=3D_printed_Antenna_base_L_R_stl_id_2577664861368_copy_0
G1 E-.56 F1800
;WIPE_START
G1 F2100.29
G1 X101.531 Y102.426 E-.24
;WIPE_END
G1 X106.776 Y103.02 F9000
G1 E.8 F1800
;TYPE:Support
G1 F900
G1 X107.145 Y103.054 E.01409
G1 X107.55 Y103.118 E.01559
G1 X107.917 Y103.208 E.01438
G1 X108.299 Y103.329 E.01522
G1 X108.68 Y103.486 E.01565
G1 X109.009 Y103.649 E.01395
G1 X109.452 Y103.918 E.01973
G1 X109.867 Y104.231 E.01975
G1 X110.063 Y104.402 E.00987
G1 X110.426 Y104.772 E.01971
G1 X110.595 Y104.971 E.00989
G1 X110.9 Y105.39 E.01973
G1 X111.118 Y105.759 E.01629
G1 X111.276 Y106.072 E.01331
G1 X111.469 Y106.554 E.01973
G1 X111.613 Y107.051 E.01966
G1 X111.709 Y107.563 E.01981
G1 X111.737 Y107.821 E.00987
G1 X111.755 Y108.34 E.01973
G1 X111.722 Y108.858 E.01973
G1 X111.686 Y109.116 E.00988
G1 X111.577 Y109.623 E.01973
G1 X111.503 Y109.872 E.00987
G1 X111.417 Y110.117 E.00988
G1 X111.21 Y110.594 E.01974
G1 X110.957 Y111.047 E.01974
G1 X110.759 Y111.339 E.01343
G1 X110.497 Y111.675 E.01618
G1 X109.986 Y112.231 E.02872
G1 X109.868 Y112.437 E.009
G1 X109.791 Y112.66 E.00898
G1 X109.755 Y112.97 E.01186
G1 X109.755 Y115.274 E.08755
G1 X102.755 Y115.274 E.26604
G1 X102.751 Y112.935 E.08892
G1 X102.723 Y112.635 E.01143
G1 X102.668 Y112.338 E.01147
G1 X102.533 Y111.907 E.01717
G1 X102.411 Y111.631 E.01146
G1 X101.908 Y110.801 E.0369
G1 X101.68 Y110.334 E.01974
G1 X101.499 Y109.848 E.01974
G1 X101.367 Y109.345 E.01973
G1 X101.32 Y109.09 E.00987
G1 X101.264 Y108.574 E.01973
G1 X101.255 Y108.314 E.0099
G1 X101.275 Y107.796 E.01971
G1 X101.335 Y107.354 E.01693
G1 X101.402 Y107.027 E.01268
G1 X101.549 Y106.529 E.01974
G1 X101.641 Y106.286 E.00988
G1 X101.859 Y105.818 E.01964
G1 X101.986 Y105.59 E.00993
G1 X102.273 Y105.156 E.01976
G1 X102.601 Y104.753 E.01973
G1 X102.779 Y104.564 E.00988
G1 X103.163 Y104.214 E.01972
G1 X103.579 Y103.904 E.01973
G1 X103.922 Y103.694 E.01529
G1 X104.256 Y103.519 E.01432
G1 X104.735 Y103.32 E.01973
G1 X104.982 Y103.239 E.00986
G1 X105.232 Y103.17 E.00988
G1 X105.742 Y103.069 E.01974
G1 X106.258 Y103.019 E.01973
G1 X106.707 Y103.018 E.01706
G1 X106.491 Y107.714 F9000
G1 F900
G1 X106.28 Y107.763 E.00824
G1 X106.102 Y107.89 E.00828
G1 X105.999 Y108.05 E.00726
G1 X105.956 Y108.263 E.00827
G1 X105.998 Y108.476 E.00823
G1 X106.121 Y108.657 E.00831
G1 X106.279 Y108.764 E.00726
G1 X106.491 Y108.813 E.00828
G1 X106.705 Y108.775 E.00826
G1 X106.888 Y108.657 E.00827
G1 X107.011 Y108.477 E.00828
G1 X107.054 Y108.292 E.00724
G1 X107.022 Y108.076 E.00827
G1 X106.926 Y107.911 E.00726
G1 X106.756 Y107.775 E.00827
G1 X106.559 Y107.717 E.00779
G1 E-.56 F1800
;WIPE_START
G1 F900
G1 X106.756 Y107.775 E-.04919
G1 X106.926 Y107.911 E-.05223
G1 X107.022 Y108.076 E-.04586
G1 X107.054 Y108.292 E-.05225
G1 X107.016 Y108.456 E-.04047
;WIPE_END
G1 X109.343 Y114.863 F9000
G1 E.8 F1800
G1 F900
G1 X103.166 Y114.863 E.23477
G1 X103.162 Y112.916 E.07401
G1 X103.103 Y112.41 E.01934
G1 X102.975 Y111.918 E.01934
G1 X102.852 Y111.601 E.01291
G1 X102.7 Y111.297 E.0129
G1 X102.389 Y110.809 E.02199
G1 X102.158 Y110.389 E.01821
G1 X101.969 Y109.95 E.01817
G1 X101.825 Y109.493 E.01821
G1 X101.726 Y109.025 E.01818
G1 X101.674 Y108.55 E.01818
G1 X101.67 Y108.071 E.01818
G1 X101.713 Y107.594 E.0182
G1 X101.802 Y107.124 E.01818
G1 X102.022 Y106.441 E.02728
G1 X102.341 Y105.799 E.02724
G1 X102.605 Y105.399 E.01821
G1 X103.071 Y104.854 E.02728
G1 X103.613 Y104.384 E.02726
G1 X104.125 Y104.052 E.02321
G1 X104.651 Y103.794 E.02224
G1 X105.101 Y103.633 E.01818
G1 X105.566 Y103.517 E.0182
G1 X106.039 Y103.447 E.01818
G1 X106.517 Y103.425 E.01821
G1 X106.994 Y103.449 E.01814
G1 X107.468 Y103.521 E.01822
G1 X107.932 Y103.64 E.01818
G1 X108.381 Y103.803 E.01818
G1 X108.813 Y104.01 E.01819
G1 X109.221 Y104.259 E.01818
G1 X109.604 Y104.547 E.0182
G1 X109.954 Y104.87 E.0181
G1 X110.274 Y105.229 E.01827
G1 X110.555 Y105.616 E.01818
G1 X110.797 Y106.029 E.01819
G1 X110.997 Y106.464 E.01819
G1 X111.213 Y107.146 E.02719
G1 X111.327 Y107.856 E.02734
G1 X111.334 Y108.573 E.02727
G1 X111.235 Y109.284 E.02726
G1 X111.032 Y109.972 E.02727
G1 X110.73 Y110.622 E.02725
G1 X110.335 Y111.222 E.02729
G1 X109.65 Y111.993 E.03922
G1 X109.529 Y112.192 E.00882
G1 X109.435 Y112.412 E.00913
G1 X109.374 Y112.64 E.00896
G1 X109.346 Y112.875 E.00898
G1 X109.343 Y114.863 E.07555
G1 X108.836 Y114.355 F9000
G1 F900
G1 X103.674 Y114.355 E.19617
G1 X103.67 Y112.892 E.05559
G1 X103.634 Y112.508 E.01468
G1 X103.562 Y112.127 E.01471
G1 X103.456 Y111.756 E.01469
G1 X103.316 Y111.395 E.01471
G1 X103.143 Y111.049 E.01469
G1 X102.821 Y110.542 E.02284
G1 X102.614 Y110.166 E.01629
G1 X102.376 Y109.57 E.0244
G1 X102.267 Y109.156 E.01628
G1 X102.199 Y108.733 E.01628
G1 X102.174 Y108.305 E.0163
G1 X102.216 Y107.664 E.02439
G1 X102.296 Y107.244 E.01627
G1 X102.493 Y106.633 E.02441
G1 X102.778 Y106.058 E.02439
G1 X103.145 Y105.531 E.02442
G1 X103.586 Y105.064 E.0244
G1 X104.091 Y104.668 E.0244
G1 X104.458 Y104.447 E.01628
G1 X105.045 Y104.186 E.0244
G1 X105.455 Y104.062 E.01628
G1 X105.875 Y103.979 E.01628
G1 X106.301 Y103.937 E.01627
G1 X106.728 Y103.938 E.01622
G1 X107.156 Y103.982 E.01635
G1 X107.576 Y104.067 E.01628
G1 X107.985 Y104.193 E.01628
G1 X108.302 Y104.325 E.01306
G1 X108.57 Y104.457 E.01136
G1 X108.936 Y104.679 E.01627
G1 X109.279 Y104.937 E.01629
G1 X109.592 Y105.226 E.0162
G1 X109.878 Y105.547 E.01636
G1 X110.13 Y105.894 E.01627
G1 X110.346 Y106.263 E.01628
G1 X110.525 Y106.653 E.01628
G1 X110.719 Y107.263 E.02433
G1 X110.821 Y107.899 E.02447
G1 X110.827 Y108.541 E.02441
G1 X110.739 Y109.177 E.0244
G1 X110.557 Y109.793 E.02441
G1 X110.287 Y110.375 E.0244
G1 X109.933 Y110.911 E.02442
G1 X109.654 Y111.237 E.01629
G1 X109.362 Y111.538 E.01593
G1 X109.235 Y111.7 E.00782
G1 X109.078 Y111.959 E.01154
G1 X108.955 Y112.247 E.01189
G1 X108.875 Y112.544 E.0117
G1 X108.838 Y112.851 E.01173
G1 X108.836 Y114.355 E.05717
G1 X108.328 Y113.847 F9000
G1 F900
G1 X104.182 Y113.847 E.15757
G1 X104.177 Y112.869 E.03718
G1 X104.137 Y112.437 E.01647
G1 X104.057 Y112.01 E.0165
G1 X103.938 Y111.593 E.01648
G1 X103.78 Y111.189 E.0165
G1 X103.586 Y110.801 E.01648
G1 X103.253 Y110.274 E.02368
G1 X103.071 Y109.943 E.01437
G1 X102.86 Y109.417 E.02154
G1 X102.764 Y109.051 E.01437
G1 X102.705 Y108.678 E.01437
G1 X102.682 Y108.3 E.01439
G1 X102.719 Y107.735 E.02153
G1 X102.839 Y107.181 E.02154
G1 X103.039 Y106.651 E.02154
G1 X103.315 Y106.156 E.02154
G1 X103.662 Y105.708 E.02154
G1 X104.071 Y105.315 E.02154
G1 X104.534 Y104.988 E.02154
G1 X104.867 Y104.809 E.01437
G1 X105.396 Y104.605 E.02153
G1 X105.763 Y104.513 E.01438
G1 X106.137 Y104.458 E.01436
G1 X106.515 Y104.441 E.01438
G1 X106.892 Y104.46 E.01434
G1 X107.266 Y104.517 E.01439
G1 X107.632 Y104.611 E.01437
G1 X107.987 Y104.74 E.01437
G1 X108.223 Y104.85 E.00988
G1 X108.492 Y104.998 E.01168
G1 X108.805 Y105.21 E.01437
G1 X109.095 Y105.452 E.01437
G1 X109.36 Y105.721 E.01436
G1 X109.598 Y106.016 E.01438
G1 X109.804 Y106.332 E.01436
G1 X109.979 Y106.668 E.01437
G1 X110.12 Y107.019 E.01437
G1 X110.264 Y107.567 E.02154
G1 X110.326 Y108.13 E.02155
G1 X110.303 Y108.697 E.02153
G1 X110.198 Y109.253 E.02155
G1 X110.011 Y109.789 E.02154
G1 X109.747 Y110.29 E.02155
G1 X109.411 Y110.747 E.02154
G1 X108.977 Y111.206 E.024
G1 X108.821 Y111.406 E.00965
G1 X108.626 Y111.727 E.01426
G1 X108.519 Y111.962 E.00984
G1 X108.403 Y112.325 E.01446
G1 X108.34 Y112.7 E.01447
G1 X108.328 Y113.847 E.04359
G1 X107.82 Y113.339 F9000
G1 F900
G1 X104.69 Y113.339 E.11896
G1 X104.684 Y112.845 E.01878
G1 X104.64 Y112.367 E.01826
G1 X104.551 Y111.894 E.01829
G1 X104.419 Y111.431 E.01827
G1 X104.142 Y110.765 E.02742
G1 X103.527 Y109.72 E.0461
G1 X103.398 Y109.419 E.01246
G1 X103.299 Y109.106 E.01246
G1 X103.231 Y108.785 E.01245
G1 X103.196 Y108.46 E.01245
G1 X103.193 Y108.132 E.01246
G1 X103.222 Y107.805 E.01247
G1 X103.283 Y107.483 E.01246
G1 X103.376 Y107.169 E.01246
G1 X103.5 Y106.865 E.01246
G1 X103.652 Y106.575 E.01246
G1 X103.833 Y106.301 E.01246
G1 X104.04 Y106.047 E.01246
G1 X104.271 Y105.815 E.01246
G1 X104.524 Y105.606 E.01246
G1 X104.796 Y105.423 E.01245
G1 X105.085 Y105.268 E.01247
G1 X105.388 Y105.143 E.01246
G1 X105.701 Y105.047 E.01246
G1 X106.023 Y104.984 E.01246
G1 X106.349 Y104.952 E.01246
G1 X106.676 Y104.953 E.0124
G1 X107.003 Y104.986 E.01252
G1 X107.324 Y105.051 E.01246
G1 X107.638 Y105.148 E.01246
M73 P1 R26
G1 X107.94 Y105.275 E.01245
G1 X108.228 Y105.432 E.01247
G1 X108.499 Y105.616 E.01246
G1 X108.751 Y105.826 E.01246
G1 X108.981 Y106.059 E.01246
G1 X109.187 Y106.315 E.01246
G1 X109.366 Y106.589 E.01245
G1 X109.517 Y106.88 E.01246
G1 X109.639 Y107.184 E.01246
G1 X109.73 Y107.497 E.0124
G1 X109.79 Y107.821 E.01252
G1 X109.82 Y108.312 E.01868
G1 X109.776 Y108.802 E.01869
G1 X109.661 Y109.279 E.01867
G1 X109.476 Y109.735 E.01869
G1 X109.316 Y110.021 E.01246
G1 X109.025 Y110.417 E.01868
G1 X108.497 Y110.991 E.02964
G1 X108.322 Y111.237 E.01148
G1 X108.107 Y111.633 E.01713
G1 X107.994 Y111.916 E.01156
G1 X107.877 Y112.352 E.01718
G1 X107.824 Y112.802 E.01722
G1 X107.82 Y113.339 E.0204
G1 X107.312 Y112.831 F9000
G1 F900
G1 X105.193 Y112.831 E.08057
G1 X105.143 Y112.296 E.02042
G1 X105.046 Y111.777 E.02008
G1 X104.901 Y111.269 E.02006
G1 X104.699 Y110.714 E.02244
G1 X105.272 Y110.991 E.02418
G1 X105.549 Y111.1 E.01131
G1 X105.983 Y111.211 E.01701
G1 X106.28 Y111.248 E.01138
G1 X106.727 Y111.248 E.017
G1 X107.022 Y111.212 E.0113
G1 X107.313 Y111.145 E.01136
G1 X107.831 Y110.986 E.02057
G1 X107.575 Y111.586 E.02477
G1 X107.461 Y111.917 E.01331
G1 X107.349 Y112.429 E.01993
G1 X107.312 Y112.831 E.01534
G1 X106.844 Y112.323 F9000
G1 F900
G1 X105.662 Y112.323 E.04493
G1 X105.55 Y111.641 E.02628
G1 X105.894 Y111.711 E.01332
G1 X106.241 Y111.755 E.01331
G1 X106.59 Y111.764 E.01326
G1 X106.97 Y111.745 E.01445
G1 X106.844 Y112.323 E.02249
G1 X106.689 Y110.742 F9000
G1 F900
G1 X106.442 Y110.748 E.0094
G1 X106.194 Y110.729 E.00944
G1 X105.83 Y110.655 E.01413
G1 X105.596 Y110.576 E.00938
G1 X105.369 Y110.474 E.00946
G1 X105.156 Y110.35 E.00937
G1 X104.954 Y110.205 E.00945
G1 X104.769 Y110.041 E.00939
G1 X104.6 Y109.859 E.00945
G1 X104.451 Y109.662 E.0094
G1 X104.322 Y109.451 E.0094
G1 X104.21 Y109.218 E.00978
G1 X104.13 Y108.994 E.00908
G1 X104.069 Y108.754 E.00939
G1 X104.032 Y108.509 E.0094
G1 X104.02 Y108.262 E.00941
G1 X104.032 Y108.015 E.00942
G1 X104.07 Y107.77 E.00942
G1 X104.131 Y107.529 E.00945
G1 X104.215 Y107.298 E.00935
G1 X104.324 Y107.073 E.00946
G1 X104.453 Y106.862 E.0094
G1 X104.602 Y106.665 E.00942
G1 X104.771 Y106.484 E.0094
G1 X104.957 Y106.32 E.00943
G1 X105.159 Y106.175 E.00945
G1 X105.373 Y106.051 E.00939
G1 X105.599 Y105.95 E.0094
G1 X105.834 Y105.871 E.00944
G1 X106.076 Y105.816 E.00943
G1 X106.32 Y105.785 E.00937
G1 X106.568 Y105.779 E.00941
G1 X106.816 Y105.798 E.00945
G1 X107.06 Y105.841 E.00941
G1 X107.298 Y105.909 E.00941
G1 X107.529 Y105.999 E.00943
G1 X107.749 Y106.112 E.0094
G1 X107.958 Y106.247 E.00946
G1 X108.15 Y106.401 E.00936
G1 X108.41 Y106.668 E.01414
G1 X108.559 Y106.865 E.00941
G1 X108.688 Y107.076 E.0094
G1 X108.796 Y107.3 E.00943
G1 X108.88 Y107.533 E.00944
G1 X108.941 Y107.773 E.00938
G1 X108.978 Y108.017 E.00941
G1 X108.99 Y108.272 E.00967
G1 X108.978 Y108.512 E.00915
G1 X108.94 Y108.758 E.00945
G1 X108.879 Y108.998 E.00943
G1 X108.794 Y109.231 E.00939
G1 X108.686 Y109.454 E.00944
G1 X108.43 Y109.837 E.01749
G1 X108.238 Y110.044 E.01074
G1 X108.053 Y110.208 E.0094
G1 X107.851 Y110.352 E.00942
G1 X107.637 Y110.476 E.0094
G1 X107.411 Y110.578 E.00943
G1 X107.176 Y110.656 E.00941
G1 X106.934 Y110.711 E.00943
G1 X106.689 Y110.742 E.00938
G1 X106.652 Y110.235 F9000
G1 F900
G1 X106.258 Y110.225 E.01497
G1 X105.968 Y110.166 E.01124
G1 X105.601 Y110.022 E.01497
G1 X105.271 Y109.808 E.01496
G1 X104.989 Y109.533 E.01497
G1 X104.768 Y109.208 E.01494
G1 X104.615 Y108.844 E.01498
G1 X104.538 Y108.459 E.01494
G1 X104.538 Y108.066 E.01496
G1 X104.616 Y107.679 E.01499
G1 X104.77 Y107.317 E.01495
G1 X104.991 Y106.992 E.01495
G1 X105.273 Y106.717 E.01497
G1 X105.605 Y106.504 E.01498
G1 X105.971 Y106.36 E.01496
G1 X106.358 Y106.292 E.01494
G1 X106.752 Y106.302 E.01499
G1 X107.136 Y106.39 E.01495
G1 X107.495 Y106.552 E.01496
G1 X107.814 Y106.782 E.01495
G1 X108.02 Y106.994 E.01125
G1 X108.242 Y107.319 E.01495
G1 X108.395 Y107.683 E.01499
G1 X108.472 Y108.068 E.01493
G1 X108.472 Y108.461 E.01496
G1 X108.394 Y108.848 E.015
G1 X108.24 Y109.211 E.01497
G1 X108.036 Y109.516 E.01395
G1 X107.736 Y109.81 E.01596
G1 X107.406 Y110.023 E.01496
G1 X107.039 Y110.167 E.01497
G1 X106.652 Y110.235 E.01495
G1 X106.614 Y109.729 F9000
G1 F900
G1 X106.321 Y109.721 E.01112
G1 X106.036 Y109.656 E.01113
G1 X105.77 Y109.535 E.0111
G1 X105.532 Y109.364 E.01113
G1 X105.333 Y109.149 E.01113
G1 X105.181 Y108.9 E.0111
G1 X105.081 Y108.625 E.01113
G1 X105.038 Y108.336 E.0111
G1 X105.053 Y108.044 E.01112
G1 X105.125 Y107.76 E.01113
G1 X105.252 Y107.497 E.01112
G1 X105.429 Y107.264 E.0111
G1 X105.59 Y107.114 E.00835
G1 X105.836 Y106.956 E.01113
G1 X106.108 Y106.849 E.01112
G1 X106.396 Y106.799 E.0111
G1 X106.689 Y106.806 E.01114
G1 X106.974 Y106.871 E.01111
G1 X107.24 Y106.992 E.01111
G1 X107.477 Y107.163 E.01111
G1 X107.631 Y107.32 E.00836
G1 X107.795 Y107.562 E.01111
G1 X107.909 Y107.832 E.01114
G1 X107.967 Y108.118 E.01109
G1 X107.967 Y108.411 E.01112
G1 X107.908 Y108.698 E.01114
G1 X107.794 Y108.967 E.01112
G1 X107.642 Y109.195 E.01041
G1 X107.42 Y109.413 E.01182
G1 X107.174 Y109.571 E.01111
G1 X106.902 Y109.678 E.01113
G1 X106.614 Y109.729 E.01111
G1 X106.576 Y109.222 F9000
G1 F900
G1 X106.385 Y109.217 E.00728
G1 X106.198 Y109.174 E.00728
G1 X106.024 Y109.096 E.00726
G1 X105.869 Y108.984 E.00728
G1 X105.738 Y108.843 E.00728
G1 X105.639 Y108.68 E.00726
G1 X105.574 Y108.5 E.00728
G1 X105.545 Y108.311 E.00726
G1 X105.555 Y108.12 E.00727
G1 X105.602 Y107.934 E.00728
G1 X105.685 Y107.762 E.00727
G1 X105.801 Y107.61 E.00726
