; HEADER_BLOCK_START
; generated by OrcaSlicer 1.9.1 on 2024-04-14 at 10:06:02
; total layer number: 10
; filament_density: 1.24
; filament_diameter: 1.75
; max_z_height: 2.00
; HEADER_BLOCK_END

; THUMBNAIL_BLOCK_START

;
; THUMBNAIL_BLOCK_END

; external perimeters extrusion width = 0.40mm
; perimeters extrusion width = 0.45mm
; infill extrusion width = 0.45mm
; solid infill extrusion width = 0.40mm
; top infill extrusion width = 0.40mm
; support material extrusion width = 0.40mm
; first layer extrusion width = 0.50mm

; EXECUTABLE_BLOCK_START


; Pre-Processed for Cancel-Object support by preprocess_cancellation v0.2.0
; 1 known objects
EXCLUDE_OBJECT_DEFINE NAME=Camera_side_plate_L_R_stl_id_1116691497152_copy_0 CENTER=117.526,118.707 POLYGON=[[95.701,104.635],[95.701,130.365],[139.307,130.365],[139.307,104.635]]
M73 P0 R16
;TYPE:Custom
M104 S0 ; Stops OrcaSlicer from sending temp waits separately
M140 S0
print_start EXTRUDER=215 BED=35 CHAMBER=0
G90
G21
M83 ; use relative distances for extrusion
; filament start gcode
M106 S0
;LAYER_CHANGE
;Z:0.2
;HEIGHT:0.2
;BEFORE_LAYER_CHANGE
;0.2
G92 E0

G1 E-.8 F1800
;_SET_FAN_SPEED_CHANGING_LAYER
SET_VELOCITY_LIMIT ACCEL=500 ACCEL_TO_DECEL=250
G1 Z.4 F15000
G1 X94.611 Y107.729
G1 Z.4
G1 Z.2
G1 E.8 F1800
;TYPE:Skirt
;WIDTH:0.5
G1 F2100.29
G1 X103.489 Y102.654 E.38867
G1 X104.093 Y102.384 E.02513
G1 X104.947 Y102.169 E.03349
G1 X129.392 Y101.977 E.92908
G1 X130.464 Y102.106 E.04102
G1 X131.448 Y102.476 E.03998
G1 X140.026 Y107.342 E.3748
G1 X140.502 Y107.673 E.02204
G1 X141.059 Y108.227 E.02985
G1 X141.429 Y108.756 E.02456
G1 X141.748 Y109.454 E.02915
G1 X141.95 Y110.407 E.03704
G1 X141.945 Y111.141 E.02788
G1 X140.089 Y125.237 E.54036
G1 X139.895 Y125.974 E.02897
G1 X139.564 Y126.66 E.02895
G1 X139.138 Y127.235 E.02721
G1 X138.531 Y127.789 E.0312
G1 X130.628 Y132.38 E.34738
G1 X130.025 Y132.652 E.02513
G1 X129.33 Y132.829 E.02727
G1 X106.259 Y133.023 E.87686
G1 X105.342 Y132.906 E.03514
G1 X104.372 Y132.524 E.03962
G1 X96.736 Y128.113 E.33516
G1 X96.124 Y127.647 E.02924
G1 X95.623 Y127.083 E.02867
G1 X95.157 Y126.253 E.03618
G1 X94.911 Y125.381 E.03442
G1 X93.043 Y111.137 E.546
G1 X93.102 Y110.169 E.03687
G1 X93.417 Y109.194 E.03893
G1 X93.911 Y108.407 E.03531
G1 X94.582 Y107.757 E.03552
; printing object Camera side plate L+R.stl id:1116691497152 copy 0
EXCLUDE_OBJECT_START NAME=Camera_side_plate_L_R_stl_id_1116691497152_copy_0
G1 E-.8 F1800
;WIPE_START
G1 F2100.29
G1 X95.45 Y107.26
;WIPE_END
G1 Z.6 F15000
G1 X100.162 Y108.306 Z.6
G1 X100.239 Y108.235
G1 X100.328 Y108.168
G1 X100.423 Y108.109
G1 X100.524 Y108.061
G1 X100.63 Y108.022
G1 X100.738 Y107.995
G1 X100.849 Y107.978
G1 X100.953 Y107.973
G1 X101.019 Y107.974
G1 X101.128 Y107.985
G1 X101.238 Y108.007
G1 X101.345 Y108.04
G1 X101.448 Y108.084
G1 X101.547 Y108.137
G1 X101.639 Y108.2
G1 X101.701 Y108.253
G1 X109.85 Y109.546
G1 X109.842 Y109.545
G1 Z.2
G1 E.8 F1800
;TYPE:Outer wall
;WIDTH:0.499999
G1 F900
G1 X109.838 Y109.481 E.00244
G1 X109.989 Y109.011 E.01876
G1 X110.241 Y108.695 E.01539
G1 X110.666 Y108.443 E.01877
G1 X111.099 Y108.373 E.01668
G1 X111.594 Y108.497 E.01937
;WIDTH:0.498883
G1 X112.04 Y108.83 E.02111
;WIDTH:0.499999
G1 X112.271 Y109.266 E.01877
G1 X112.315 Y109.758 E.01877
G1 X112.164 Y110.228 E.01877
G1 X111.842 Y110.603 E.01877
G1 X111.4 Y110.823 E.01877
G1 X110.907 Y110.855 E.01877
G1 X110.441 Y110.692 E.01877
G1 X110.074 Y110.361 E.01877
G1 X109.864 Y109.907 E.01902
G1 X109.844 Y109.585 E.01225
G1 E-.8 F1800
;WIPE_START
G1 F900
G1 X109.838 Y109.481
G1 X109.989 Y109.011
G1 X110.239 Y108.697
;WIPE_END
G1 Z.6 F15000
G1 X110.112 Y108.363 Z.6
G1 X110.044 Y108.389
G1 X109.892 Y108.465
G1 X109.758 Y108.568
G1 X109.66 Y108.705
G1 X109.575 Y108.85
G1 X109.506 Y109.004
G1 X109.453 Y109.163
G1 X109.415 Y109.327
G1 X109.395 Y109.489
G1 X109.39 Y109.62
G1 X109.395 Y109.75
G1 X109.415 Y109.913
G1 X109.453 Y110.077
G1 X109.506 Y110.236
G1 X109.576 Y110.389
G1 X109.66 Y110.535
G1 X109.758 Y110.671
G1 X109.869 Y110.797
G1 X109.992 Y110.912
G1 X110.126 Y111.013
G1 X110.27 Y111.101
G1 X110.421 Y111.174
G1 X110.579 Y111.231
G1 X110.742 Y111.273
G1 X110.908 Y111.298
G1 X111.076 Y111.306
G1 X111.146 Y111.303
G1 X115.594 Y124.688
G1 X115.907 Y124.989
G1 Z.2
G1 E.8 F1800
G1 F900
G1 X115.611 Y125.218 E.01425
G1 X107.323 Y129.922 E.36218
G1 X106.764 Y130.214 E.02398
G1 X106.326 Y130.314 E.01706
G1 X105.959 Y130.268 E.01408
G1 X105.659 Y130.142 E.01235
G1 X98.52 Y126.02 E.31332
G1 X97.954 Y125.649 E.02571
G1 X97.728 Y125.36 E.01396
G1 X97.575 Y124.899 E.01845
G1 X95.766 Y111.105 E.52873
G1 X95.756 Y110.794 E.01183
G1 X95.832 Y110.466 E.01278
M73 P1 R16
G1 X95.998 Y110.149 E.0136
G1 X96.33 Y109.829 E.01752
G1 X99.313 Y108.136 E.13037
;WIDTH:0.525358
G1 X99.846 Y107.849 E.02429
;WIDTH:0.533836
G1 X100.765 Y107.312 E.04346
;WIDTH:0.499999
G1 X104.663 Y105.1 E.17035
G1 X105.219 Y104.871 E.02281
G1 X105.737 Y104.835 E.01977
G1 X106.059 Y104.909 E.01256
G1 X106.485 Y105.066 E.01723
G1 X111.775 Y108.107 E.23195
;WIDTH:0.497886
G1 X112.231 Y108.384 E.02016
;WIDTH:0.499999
G1 X115.307 Y110.162 E.13502
G1 X115.728 Y110.466 E.01973
G1 X116 Y110.808 E.01661
G1 X116.179 Y111.204 E.01652
G1 X116.256 Y111.807 E.02311
G1 X116.258 Y123.043 E.42704
G1 X116.238 Y124.279 E.04699
G1 X116.117 Y124.696 E.01651
G1 X115.93 Y124.956 E.01216
G1 E-.8 F1800
;WIPE_START
G1 F900
G1 X115.611 Y125.218
G1 X115.1 Y125.508
;WIPE_END
G1 Z.6 F15000
G1 X114.885 Y125.129 Z.6
G1 X108.169 Y118.489
G1 X108.04 Y118.381
G1 X107.901 Y118.286
G1 X107.812 Y118.238
G1 X107.603 Y118.622
G1 Z.2
G1 E.8 F1800
G1 F900
G1 X107.985 Y118.935 E.01877
G1 X108.217 Y119.371 E.01877
G1 X108.26 Y119.863 E.01877
G1 X108.109 Y120.333 E.01877
G1 X107.787 Y120.708 E.01877
G1 X107.345 Y120.929 E.01877
G1 X106.852 Y120.96 E.01877
;WIDTH:0.534502
G1 X106.686 Y120.919 E.00701
;WIDTH:0.569004
G1 X106.519 Y120.878 E.0075
;WIDTH:0.603506
G1 X106.353 Y120.837 E.008
G1 X106.242 Y120.713 E.00775
;WIDTH:0.569004
G1 X106.131 Y120.59 E.00727
;WIDTH:0.534502
G1 X106.019 Y120.466 E.00679
;WIDTH:0.499999
G1 X105.811 Y120.024 E.01857
G1 X105.783 Y119.586 E.01668
G1 X105.934 Y119.116 E.01876
G1 X106.256 Y118.742 E.01877
G1 X106.692 Y118.522 E.01857
G1 X107.129 Y118.483 E.01668
G1 X107.564 Y118.611 E.01724
G1 E-.8 F1800
;WIPE_START
G1 F900
G1 X107.985 Y118.935
G1 X108.205 Y119.349
;WIPE_END
G1 Z.6 F15000
G1 X108.632 Y119.229 Z.6
G1 X108.666 Y119.35
G1 X108.695 Y119.515
G1 X108.708 Y119.683
G1 X108.703 Y119.851
G1 X108.682 Y120.018
G1 X108.645 Y120.182
G1 X108.567 Y120.332
G1 X108.467 Y120.466
G1 X108.36 Y120.589
G1 X108.247 Y120.702
G1 X108.13 Y120.806
G1 X108.008 Y120.9
G1 X107.883 Y120.988
G1 X107.753 Y121.068
G1 X107.619 Y121.141
G1 X107.479 Y121.208
G1 X107.333 Y121.266
G1 X107.174 Y121.251
G1 X107.022 Y121.222
G1 X106.875 Y121.184
G1 X106.736 Y121.137
G1 X106.603 Y121.083
G1 X106.474 Y121.024
G1 X106.35 Y120.958
G1 X106.23 Y120.886
G1 X106.112 Y120.809
G1 X105.998 Y120.724
G1 X105.943 Y120.678
G1 X104.429 Y121.384
G1 X104.558 Y121.492
G1 Z.2
G1 E.8 F1800
;WIDTH:0.626756
G1 F900
G1 X104.426 Y121.67 E.01077
G1 E-.8 F1800
;WIPE_START
G1 F900
G1 X104.558 Y121.492
;WIPE_END
G1 Z.6 F15000
G1 X104.69 Y121.612 Z.6
G1 X104.717 Y121.582
G1 X104.801 Y121.498
G1 X104.888 Y121.417
G1 X104.984 Y121.338
G1 X105.136 Y121.231
G1 X105.259 Y121.164
G1 X105.442 Y121.084
G1 X105.595 Y121.043
G1 X105.802 Y121.064
G1 X105.991 Y121.151
G1 X106.124 Y121.22
G1 X106.294 Y121.324
G1 X106.414 Y121.408
G1 X106.531 Y121.501
G1 X106.688 Y121.641
G1 X106.797 Y121.764
G1 X107.317 Y122.396
G1 X107.309 Y122.487
G1 X107.303 Y122.604
G1 X107.303 Y122.721
G1 X107.31 Y122.871
G1 X107.327 Y123.025
G1 X107.353 Y123.181
G1 X107.39 Y123.339
G1 X107.494 Y123.463
G1 X107.607 Y123.574
G1 X107.725 Y123.675
G1 X107.848 Y123.767
G1 X107.973 Y123.851
G1 X108.103 Y123.928
G1 X108.236 Y123.998
G1 X108.374 Y124.061
G1 X108.518 Y124.117
G1 X108.667 Y124.165
G1 X108.824 Y124.203
G1 X108.986 Y124.23
G1 X109.155 Y124.245
G1 X109.321 Y124.216
G1 X109.479 Y124.158
G1 X109.63 Y124.085
G1 X109.774 Y123.998
G1 X109.908 Y123.896
G1 X110.031 Y123.782
G1 X110.142 Y123.656
G1 X110.24 Y123.519
G1 X110.274 Y123.461
G1 X109.889 Y123.239
G1 Z.2
G1 E.8 F1800
;WIDTH:0.499999
G1 F900
G1 X109.589 Y123.587 E.01746
G1 X109.147 Y123.808 E.01877
G1 X108.654 Y123.839 E.01877
G1 X108.188 Y123.676 E.01877
G1 X107.821 Y123.345 E.01877
G1 X107.613 Y122.903 E.01857
G1 X107.585 Y122.466 E.01668
G1 X107.736 Y121.996 E.01876
G1 X108.058 Y121.621 E.01877
G1 X108.494 Y121.401 E.01857
G1 X108.931 Y121.362 E.01668
G1 X109.405 Y121.501 E.01876
G1 X109.787 Y121.814 E.01877
G1 X110.019 Y122.25 E.01877
G1 X110.062 Y122.742 E.01877
G1 X109.913 Y123.207 E.01857
G1 E-.8 F1800
;WIPE_START
G1 F900
G1 X109.589 Y123.587
G1 X109.147 Y123.808
G1 X109.14 Y123.808
;WIPE_END
G1 Z.6 F15000
G1 X109.215 Y124.234 Z.6
G1 X109.155 Y124.245
G1 X108.986 Y124.23
G1 X108.824 Y124.203
G1 X108.667 Y124.165
G1 X108.518 Y124.117
G1 X108.374 Y124.061
G1 X108.236 Y123.998
G1 X108.103 Y123.928
G1 X107.973 Y123.851
G1 X107.848 Y123.767
G1 X107.725 Y123.675
G1 X107.607 Y123.574
G1 X107.494 Y123.463
G1 X107.39 Y123.339
G1 X107.353 Y123.181
G1 X107.327 Y123.025
G1 X107.31 Y122.871
G1 X107.303 Y122.721
G1 X107.303 Y122.604
G1 X107.309 Y122.487
G1 X107.321 Y122.339
G1 X107.343 Y122.188
G1 X107.375 Y122.035
G1 X107.416 Y121.882
G1 X107.485 Y121.74
G1 X107.598 Y121.627
G1 X107.715 Y121.523
G1 X107.837 Y121.429
G1 X107.839 Y121.428
G1 X107.731 Y121.275
G1 Z.2
G1 E.8 F1800
;TYPE:Inner wall
;WIDTH:0.546904
G1 F900
G1 X108.183 Y121.005 E.02204
G1 E-.8 F1800
G1 Z.6 F15000
G1 X106.046 Y124.892 Z.6
G1 Z.2
G1 E.8 F1800
;TYPE:Outer wall
;WIDTH:0.530018
G1 F900
G1 X106.377 Y124.528 E.01991
;WIDTH:0.499999
G1 X106.816 Y124.307 E.0187
G1 X107.253 Y124.268 E.01668
G1 X107.727 Y124.407 E.01876
G1 X108.11 Y124.72 E.01877
G1 X108.341 Y125.156 E.01877
G1 X108.385 Y125.648 E.01877
G1 X108.234 Y126.118 E.01877
G1 X107.912 Y126.493 E.01877
G1 X107.47 Y126.713 E.01877
G1 X106.977 Y126.745 E.01877
G1 X106.51 Y126.582 E.01877
G1 X106.144 Y126.251 E.01877
G1 X105.935 Y125.806 E.01868
G1 X105.912 Y125.356 E.01713
;WIDTH:0.530018
G1 X106.035 Y124.93 E.01795
G1 E-.8 F1800
;WIPE_START
G1 F900
G1 X106.377 Y124.528
G1 X106.799 Y124.316
;WIPE_END
G1 Z.6 F15000
G1 X106.646 Y124.103 Z.6
G1 X106.7 Y124.064
G1 X106.837 Y123.983
G1 X106.986 Y123.914
G1 X107.135 Y123.91
G1 X107.231 Y123.929
G1 X107.378 Y123.972
G1 X107.524 Y124.023
G1 X107.665 Y124.084
G1 X107.801 Y124.15
G1 X107.932 Y124.224
G1 X107.944 Y124.231
G1 X108.032 Y124.092
G1 Z.2
G1 E.8 F1800
;TYPE:Inner wall
;WIDTH:0.45647
G1 F900
G1 X107.909 Y124.009 E.00509
G1 E-.8 F1800
;WIPE_START
G1 F900
G1 X108.032 Y124.092
;WIPE_END
G1 Z.6 F15000
G1 X107.944 Y124.231 Z.6
G1 X106.951 Y122.712
G1 X106.967 Y122.492
G1 X106.968 Y122.333
G1 X106.96 Y122.171
G1 X106.933 Y121.949
G1 X106.797 Y121.764
G1 X106.688 Y121.641
G1 X106.531 Y121.501
G1 X106.414 Y121.408
G1 X106.294 Y121.324
G1 X106.124 Y121.22
G1 X105.991 Y121.151
G1 X105.802 Y121.064
G1 X105.595 Y121.043
G1 X105.442 Y121.084
G1 X105.259 Y121.164
G1 X105.136 Y121.231
G1 X104.984 Y121.338
G1 X104.888 Y121.417
G1 X104.801 Y121.498
G1 X104.717 Y121.582
G1 X104.607 Y121.703
G1 X104.541 Y121.781
G1 X104.419 Y121.678
G1 Z.2
G1 E.8 F1800
;TYPE:Outer wall
;WIDTH:0.621135
G1 F900
G1 X104.292 Y121.855 E.01047
;WIDTH:0.611803
G1 X104.186 Y122.214 E.01767
;WIDTH:0.60455
G1 X104.124 Y122.726 E.02411
G1 X103.756 Y123.01 E.02174
;WIDTH:0.555717
G1 X103.429 Y123.447 E.02326
;WIDTH:0.551743
G1 X103.325 Y123.723 E.0125
;WIDTH:0.577863
G1 X103.275 Y124.004 E.01269
;WIDTH:0.603982
G1 X103.225 Y124.285 E.01331
G1 X102.784 Y124.596 E.02518
G1 X102.452 Y125.061 E.02665
;WIDTH:0.600163
G1 X102.468 Y124.981 E.0038
;WIDTH:0.603982
G1 X102.582 Y124.414 E.02695
G1 X102.775 Y123.78 E.03095
;WIDTH:0.562035
G1 X102.891 Y123.509 E.01274
;WIDTH:0.536944
G1 X103.008 Y123.237 E.01213
;WIDTH:0.541518
G1 X103.275 Y122.804 E.0211
;WIDTH:0.555717
G1 X103.43 Y122.622 E.01019
;WIDTH:0.60455
G1 X103.949 Y122.069 E.03539
;WIDTH:0.621135
G1 X104.388 Y121.704 E.02748
G1 X104.558 Y121.492 F15000
;WIDTH:0.626756
G1 F900
G1 X104.71 Y121.422 E.00809
;WIDTH:0.584504
G1 X104.861 Y121.353 E.0075
;WIDTH:0.542252
G1 X105.012 Y121.283 E.00692
;WIDTH:0.499999
G1 X105.383 Y121.21 E.01437
;WIDTH:0.547884
G1 X105.907 Y121.265 E.02212
;WIDTH:0.575675
G1 X106.054 Y121.328 E.00708
;WIDTH:0.603465
G1 X106.201 Y121.391 E.00745
G1 X106.312 Y121.542 E.00872
;WIDTH:0.568977
G1 X106.424 Y121.692 E.00819
;WIDTH:0.534488
G1 X106.536 Y121.842 E.00765
;WIDTH:0.499999
G1 X106.681 Y122.251 E.01649
G1 X106.692 Y122.524 E.01039
G1 X106.566 Y123.001 E.01874
G1 X106.268 Y123.39 E.01864
G1 X105.825 Y123.708 E.02073
;WIDTH:0.501592
G1 X105.742 Y124.31 E.02318
;WIDTH:0.530018
G1 X105.658 Y124.598 E.01215
G1 X105.353 Y124.959 E.01913
;WIDTH:0.499999
G1 X104.925 Y125.267 E.02005
G1 X104.885 Y125.715 E.01711
G1 X104.743 Y126.167 E.01801
G1 X104.567 Y126.415 E.01155
G1 X104.356 Y126.593 E.01048
G1 X103.86 Y126.799 E.02043
G1 X103.489 Y126.807 E.01411
G1 X103.122 Y126.699 E.0145
G1 X102.725 Y126.406 E.01876
G1 X102.472 Y125.983 E.01873
M73 P2 R16
G1 X102.411 Y125.637 E.01338
;WIDTH:0.533855
G1 X102.419 Y125.464 E.00707
;WIDTH:0.567711
G1 X102.428 Y125.291 E.00756
;WIDTH:0.601566
G1 X102.437 Y125.117 E.00805
G1 X102.338 Y125.259 E.008
;WIDTH:0.567711
G1 X102.24 Y125.4 E.00752
;WIDTH:0.533855
G1 X102.142 Y125.542 E.00703
;WIDTH:0.499999
G1 X101.773 Y125.829 E.01776
G1 X101.396 Y125.96 E.01519
G1 X100.966 Y125.956 E.01631
G1 X100.619 Y125.838 E.01393
G1 X100.359 Y125.657 E.01206
G1 X100.122 Y125.369 E.01416
G1 X99.981 Y125.03 E.01395
G1 X99.944 Y124.717 E.01201
G1 X100.01 Y124.2 E.0198
G1 X100.166 Y123.528 E.02621
G1 X100.531 Y122.531 E.04036
G1 X100.857 Y121.892 E.02725
G1 X101.242 Y121.293 E.02708
G1 X101.684 Y120.735 E.02705
G1 X102.178 Y120.222 E.02706
G1 X102.721 Y119.76 E.02709
G1 X103.093 Y119.567 E.01592
G1 X103.326 Y119.507 E.00914
G1 X103.643 Y119.506 E.01205
G1 X103.996 Y119.602 E.01394
G1 X104.259 Y119.758 E.01162
G1 X104.452 Y119.949 E.01032
G1 X104.684 Y120.369 E.01821
G1 X104.741 Y120.675 E.01183
G1 X104.714 Y121.005 E.01262
;WIDTH:0.542252
G1 X104.662 Y121.168 E.00707
;WIDTH:0.584504
G1 X104.61 Y121.33 E.00767
;WIDTH:0.626756
G1 X104.57 Y121.454 E.00633
G1 E-.8 F1800
;WIPE_START
G1 F900
G1 X104.71 Y121.422
G1 X104.861 Y121.353
G1 X105.012 Y121.283
G1 X105.383 Y121.21
G1 X105.528 Y121.225
;WIPE_END
G1 Z.6 F15000
G1 X105.487 Y121.072 Z.6
G1 X105.595 Y121.043
G1 X105.802 Y121.064
G1 X105.991 Y121.151
G1 X106.124 Y121.22
G1 X106.294 Y121.324
G1 X106.414 Y121.408
G1 X106.531 Y121.501
G1 X106.688 Y121.641
G1 X106.797 Y121.764
G1 X106.933 Y121.949
G1 X106.96 Y122.171
G1 X106.968 Y122.333
G1 X106.967 Y122.492
G1 X106.951 Y122.712
G1 X106.917 Y122.932
G1 X106.879 Y123.091
G1 X106.832 Y123.244
G1 X106.773 Y123.397
G1 X105.225 Y125.694
G1 X105.407 Y125.704
G1 Z.2
G1 E.8 F1800
;TYPE:Inner wall
;WIDTH:0.61536
G1 F900
G1 X105.399 Y125.528 E.0084
G1 X106.313 Y123.974 F15000
;WIDTH:0.64254
G1 F900
G1 X106.551 Y123.836 E.01371
G1 X107.135 Y122.559 F15000
;WIDTH:0.475148
G1 F900
G1 X107.14 Y122.421 E.00497
G1 X107.909 Y124.009 F15000
;WIDTH:0.495677
G1 F900
G1 X107.758 Y123.927 E.00647
;WIDTH:0.522659
G1 X107.565 Y123.864 E.00809
;WIDTH:0.54964
G1 X107.372 Y123.801 E.00854
G1 X107.109 Y123.785 E.01113
;WIDTH:0.59609
G1 X106.83 Y123.81 E.01288
;WIDTH:0.64254
G1 X106.551 Y123.836 E.01396
G1 X106.755 Y123.558 E.01717
;WIDTH:0.59609
G1 X106.959 Y123.28 E.01584
;WIDTH:0.54964
G1 X107.073 Y123.024 E.01185
G1 X107.104 Y122.791 E.00988
;WIDTH:0.510215
G1 X107.135 Y122.559 E.00911
G1 X107.139 Y122.792 E.00904
;WIDTH:0.54964
G1 X107.144 Y123.024 E.00981
G1 X107.393 Y123.565 E.02507
G1 X107.568 Y123.785 E.01186
G1 X107.739 Y123.897 E.00859
;WIDTH:0.501939
G1 X107.875 Y123.987 E.00625
G1 E-.8 F1800
;WIPE_START
G1 F900
G1 X107.758 Y123.927
G1 X107.565 Y123.864
G1 X107.372 Y123.801
G1 X107.109 Y123.785
G1 X106.911 Y123.803
;WIPE_END
G1 Z.6 F15000
G1 X107.731 Y121.275 Z.6
G1 Z.2
G1 E.8 F1800
;WIDTH:0.526956
G1 F900
G1 X107.627 Y121.391 E.0063
