; HEADER_BLOCK_START
; generated by OrcaSlicer 1.9.1 on 2024-04-23 at 08:59:22
; total layer number: 4
; filament_density: 1.24
; filament_diameter: 1.75
; max_z_height: 0.85
; HEADER_BLOCK_END

; THUMBNAIL_BLOCK_START

;
; THUMBNAIL_BLOCK_END

; external perimeters extrusion width = 0.40mm
; perimeters extrusion width = 0.45mm
; infill extrusion width = 0.45mm
; solid infill extrusion width = 0.40mm
; top infill extrusion width = 0.40mm
; support material extrusion width = 0.40mm
; first layer extrusion width = 0.56mm

; EXECUTABLE_BLOCK_START


; Pre-Processed for Cancel-Object support by preprocess_cancellation v0.2.0
; 1 known objects
EXCLUDE_OBJECT_DEFINE NAME=Cube_id_1116691497152_copy_0 CENTER=78.124,87.494 POLYGON=[[75.661,85.207],[75.661,89.807],[80.261,89.807],[80.261,85.207]]
M73 P0 R11
;TYPE:Custom
M104 S0 ; Stops OrcaSlicer from sending temp waits separately
M140 S0
print_start EXTRUDER=220 BED=35 CHAMBER=0
G90
G21
M83 ; use relative distances for extrusion
; filament start gcode
M106 S0
;LAYER_CHANGE
;Z:0.25
;HEIGHT:0.25
;BEFORE_LAYER_CHANGE
;0.25
G92 E0

;_SET_FAN_SPEED_CHANGING_LAYER
SET_VELOCITY_LIMIT ACCEL=500 ACCEL_TO_DECEL=250
;CUSTOM_GCODE
; start pressure advance pattern for layer
G1 E-.4 F300 ; retract
G1 X75.461 Y92.007 F15000 ; Move to start XY position
G1 E.4 F300 ;  ; unretract
G1 Z.25 F15000 ; Move to start Z position
SET_PRESSURE_ADVANCE ADVANCE=0.08; Override pressure advance value
G1 E-.4 F300 ; retract
G1 X75.461 Y92.007 F15000 ; Move to box start
G1 E.4 F300 ;  ; unretract
G1 F1800
G1 X75.461 Y134.433 E2.23286 ; Draw perimeter (up)

G1 X159.539 Y134.433 E4.42497 ; Draw perimeter (right)

G1 X159.539 Y92.007 E2.23286 ; Draw perimeter (down)

M73 P1 R11
G1 X75.461 Y92.007 E4.42497 ; Draw perimeter (left)
G1 E-.4 F300 ; retract
G1 X75.967 Y92.513 F15000 ; Step inwards to print next perimeter
G1 E.4 F300 ;  ; unretract
G1 F1800
G1 X75.967 Y133.927 E2.17956 ; Draw perimeter (up)

G1 X159.033 Y133.927 E4.37167 ; Draw perimeter (right)

M73 P2 R11
G1 X159.033 Y92.513 E2.17956 ; Draw perimeter (down)

G1 X75.967 Y92.513 E4.37167 ; Draw perimeter (left)
G1 E-.4 F300 ; retract
G1 X76.473 Y93.019 F15000 ; Step inwards to print next perimeter
G1 E.4 F300 ;  ; unretract
G1 F1800
G1 X76.473 Y133.421 E2.12626 ; Draw perimeter (up)

G1 X158.527 Y133.421 E4.31838 ; Draw perimeter (right)

M73 P3 R11
G1 X158.527 Y93.019 E2.12626 ; Draw perimeter (down)

G1 X76.473 Y93.019 E4.31838 ; Draw perimeter (left)
G1 E-.4 F300 ; retract
G1 X75.461 Y134.94 F15000 ; Move to box start
M73 P4 R11
G1 E.4 F300 ;  ; unretract
G1 F1800
G1 X75.461 Y148.446 E.71082 ; Draw perimeter (up)

G1 X139.73 Y148.446 E3.38245 ; Draw perimeter (right)

G1 X139.73 Y134.94 E.71082 ; Draw perimeter (down)

G1 X75.461 Y134.94 E3.38245 ; Draw perimeter (left)
M73 P4 R10
G1 E-.4 F300 ; retract
G1 X75.967 Y135.446 F15000 ; Step inwards to print next perimeter
G1 E.4 F300 ;  ; unretract
G1 F1800
G1 X75.967 Y147.94 E.65753 ; Draw perimeter (up)

G1 X139.224 Y147.94 E3.32915 ; Draw perimeter (right)

M73 P5 R10
G1 X139.224 Y135.446 E.65753 ; Draw perimeter (down)

G1 X75.967 Y135.446 E3.32915 ; Draw perimeter (left)
G1 E-.4 F300 ; retract
G1 X76.473 Y135.952 F15000 ; Step inwards to print next perimeter
G1 E.4 F300 ;  ; unretract
G1 F1800
G1 X76.473 Y147.433 E.60423 ; Draw perimeter (up)

G1 X138.718 Y147.433 E3.27586 ; Draw perimeter (right)

G1 X138.718 Y135.952 E.60423 ; Draw perimeter (down)

M73 P6 R10
G1 X76.473 Y135.952 E3.27586 ; Draw perimeter (left)
G1 E-.4 F300 ; retract
G1 X76.847 Y136.326 F15000 ; Move to fill start
G1 E.4 F300 ;  ; unretract
G1 E-.4 ; retract
G1 X77.563 Y136.326 F15000 ; Fill: Step right
G1 E.4 F300 ;  ; unretract
G1 F1800
G1 X76.847 Y137.042 E.0533 ; Fill: Print up/left
G1 E-.4 F300 ; retract
G1 X76.847 Y137.758 F15000 ; Fill: Step up
G1 E.4 F300 ;  ; unretract
G1 F1800
G1 X78.279 Y136.326 E.10659 ; Fill: Print down/right
G1 E-.4 F300 ; retract
G1 X78.995 Y136.326 F15000 ; Fill: Step right
G1 E.4 F300 ;  ; unretract
G1 F1800
G1 X76.847 Y138.474 E.15989 ; Fill: Print up/left
G1 E-.4 F300 ; retract
G1 X76.847 Y139.19 F15000 ; Fill: Step up
G1 E.4 F300 ;  ; unretract
G1 F1800
G1 X79.711 Y136.326 E.21319 ; Fill: Print down/right
G1 E-.4 F300 ; retract
G1 X80.427 Y136.326 F15000 ; Fill: Step right
G1 E.4 F300 ;  ; unretract
G1 F1800
G1 X76.847 Y139.906 E.26649 ; Fill: Print up/left
G1 E-.4 F300 ; retract
G1 X76.847 Y140.622 F15000 ; Fill: Step up
G1 E.4 F300 ;  ; unretract
G1 F1800
G1 X81.143 Y136.326 E.31978 ; Fill: Print down/right
G1 E-.4 F300 ; retract
G1 X81.859 Y136.326 F15000 ; Fill: Step right
G1 E.4 F300 ;  ; unretract
G1 F1800
G1 X76.847 Y141.338 E.37308 ; Fill: Print up/left
G1 E-.4 F300 ; retract
G1 X76.847 Y142.054 F15000 ; Fill: Step up
G1 E.4 F300 ;  ; unretract
G1 F1800
G1 X82.575 Y136.326 E.42638 ; Fill: Print down/right
G1 E-.4 F300 ; retract
G1 X83.291 Y136.326 F15000 ; Fill: Step right
G1 E.4 F300 ;  ; unretract
G1 F1800
G1 X76.847 Y142.77 E.47968 ; Fill: Print up/left
G1 E-.4 F300 ; retract
G1 X76.847 Y143.486 F15000 ; Fill: Step up
G1 E.4 F300 ;  ; unretract
G1 F1800
G1 X84.008 Y136.326 E.53297 ; Fill: Print down/right
G1 E-.4 F300 ; retract
M73 P7 R10
G1 X84.724 Y136.326 F15000 ; Fill: Step right
G1 E.4 F300 ;  ; unretract
G1 F1800
G1 X76.847 Y144.203 E.58627 ; Fill: Print up/left
G1 E-.4 F300 ; retract
G1 X76.847 Y144.919 F15000 ; Fill: Step up
G1 E.4 F300 ;  ; unretract
G1 F1800
G1 X85.44 Y136.326 E.63957 ; Fill: Print down/right
G1 E-.4 F300 ; retract
G1 X86.156 Y136.326 F15000 ; Fill: Step right
G1 E.4 F300 ;  ; unretract
G1 F1800
G1 X76.847 Y145.635 E.69286 ; Fill: Print up/left
G1 E-.4 F300 ; retract
G1 X76.847 Y146.351 F15000 ; Fill: Step up
G1 E.4 F300 ;  ; unretract
G1 F1800
G1 X86.872 Y136.326 E.74616 ; Fill: Print down/right
G1 E-.4 F300 ; retract
G1 X87.588 Y136.326 F15000 ; Fill: Step right
G1 E.4 F300 ;  ; unretract
G1 F1800
G1 X76.854 Y147.06 E.79894 ; Fill: Print up/left
G1 E-.4 F300 ; retract
G1 X77.57 Y147.06 F15000 ; Fill: Step right
G1 E.4 F300 ;  ; unretract
G1 F1800
G1 X88.304 Y136.326 E.79894 ; Fill: Print down/right
G1 E-.4 F300 ; retract
G1 X89.02 Y136.326 F15000 ; Fill: Step right
G1 E.4 F300 ;  ; unretract
G1 F1800
G1 X78.286 Y147.06 E.79894 ; Fill: Print up/left
G1 E-.4 F300 ; retract
G1 X79.002 Y147.06 F15000 ; Fill: Step right
G1 E.4 F300 ;  ; unretract
G1 F1800
G1 X89.736 Y136.326 E.79894 ; Fill: Print down/right
G1 E-.4 F300 ; retract
G1 X90.452 Y136.326 F15000 ; Fill: Step right
G1 E.4 F300 ;  ; unretract
G1 F1800
G1 X79.718 Y147.06 E.79894 ; Fill: Print up/left
G1 E-.4 F300 ; retract
G1 X80.434 Y147.06 F15000 ; Fill: Step right
G1 E.4 F300 ;  ; unretract
G1 F1800
G1 X91.168 Y136.326 E.79894 ; Fill: Print down/right
M73 P8 R10
G1 E-.4 F300 ; retract
G1 X91.885 Y136.326 F15000 ; Fill: Step right
G1 E.4 F300 ;  ; unretract
G1 F1800
G1 X81.15 Y147.06 E.79894 ; Fill: Print up/left
G1 E-.4 F300 ; retract
G1 X81.866 Y147.06 F15000 ; Fill: Step right
G1 E.4 F300 ;  ; unretract
G1 F1800
G1 X92.601 Y136.326 E.79894 ; Fill: Print down/right
G1 E-.4 F300 ; retract
G1 X93.317 Y136.326 F15000 ; Fill: Step right
G1 E.4 F300 ;  ; unretract
G1 F1800
G1 X82.582 Y147.06 E.79894 ; Fill: Print up/left
G1 E-.4 F300 ; retract
G1 X83.298 Y147.06 F15000 ; Fill: Step right
G1 E.4 F300 ;  ; unretract
G1 F1800
G1 X94.033 Y136.326 E.79894 ; Fill: Print down/right
G1 E-.4 F300 ; retract
G1 X94.749 Y136.326 F15000 ; Fill: Step right
G1 E.4 F300 ;  ; unretract
G1 F1800
G1 X84.015 Y147.06 E.79894 ; Fill: Print up/left
G1 E-.4 F300 ; retract
G1 X84.731 Y147.06 F15000 ; Fill: Step right
G1 E.4 F300 ;  ; unretract
G1 F1800
G1 X95.465 Y136.326 E.79894 ; Fill: Print down/right
G1 E-.4 F300 ; retract
G1 X96.181 Y136.326 F15000 ; Fill: Step right
G1 E.4 F300 ;  ; unretract
G1 F1800
G1 X85.447 Y147.06 E.79894 ; Fill: Print up/left
G1 E-.4 F300 ; retract
G1 X86.163 Y147.06 F15000 ; Fill: Step right
G1 E.4 F300 ;  ; unretract
G1 F1800
G1 X96.897 Y136.326 E.79894 ; Fill: Print down/right
G1 E-.4 F300 ; retract
G1 X97.613 Y136.326 F15000 ; Fill: Step right
G1 E.4 F300 ;  ; unretract
G1 F1800
G1 X86.879 Y147.06 E.79894 ; Fill: Print up/left
M73 P9 R10
G1 E-.4 F300 ; retract
G1 X87.595 Y147.06 F15000 ; Fill: Step right
G1 E.4 F300 ;  ; unretract
G1 F1800
G1 X98.329 Y136.326 E.79894 ; Fill: Print down/right
G1 E-.4 F300 ; retract
G1 X99.045 Y136.326 F15000 ; Fill: Step right
G1 E.4 F300 ;  ; unretract
G1 F1800
G1 X88.311 Y147.06 E.79894 ; Fill: Print up/left
G1 E-.4 F300 ; retract
G1 X89.027 Y147.06 F15000 ; Fill: Step right
G1 E.4 F300 ;  ; unretract
G1 F1800
G1 X99.761 Y136.326 E.79894 ; Fill: Print down/right
G1 E-.4 F300 ; retract
G1 X100.478 Y136.326 F15000 ; Fill: Step right
G1 E.4 F300 ;  ; unretract
G1 F1800
G1 X89.743 Y147.06 E.79894 ; Fill: Print up/left
G1 E-.4 F300 ; retract
G1 X90.459 Y147.06 F15000 ; Fill: Step right
G1 E.4 F300 ;  ; unretract
G1 F1800
G1 X101.194 Y136.326 E.79894 ; Fill: Print down/right
G1 E-.4 F300 ; retract
G1 X101.91 Y136.326 F15000 ; Fill: Step right
G1 E.4 F300 ;  ; unretract
G1 F1800
G1 X91.175 Y147.06 E.79894 ; Fill: Print up/left
G1 E-.4 F300 ; retract
G1 X91.892 Y147.06 F15000 ; Fill: Step right
G1 E.4 F300 ;  ; unretract
G1 F1800
G1 X102.626 Y136.326 E.79894 ; Fill: Print down/right
G1 E-.4 F300 ; retract
G1 X103.342 Y136.326 F15000 ; Fill: Step right
G1 E.4 F300 ;  ; unretract
G1 F1800
G1 X92.608 Y147.06 E.79894 ; Fill: Print up/left
G1 E-.4 F300 ; retract
G1 X93.324 Y147.06 F15000 ; Fill: Step right
G1 E.4 F300 ;  ; unretract
G1 F1800
G1 X104.058 Y136.326 E.79894 ; Fill: Print down/right
M73 P10 R10
G1 E-.4 F300 ; retract
G1 X104.774 Y136.326 F15000 ; Fill: Step right
G1 E.4 F300 ;  ; unretract
G1 F1800
G1 X94.04 Y147.06 E.79894 ; Fill: Print up/left
G1 E-.4 F300 ; retract
G1 X94.756 Y147.06 F15000 ; Fill: Step right
G1 E.4 F300 ;  ; unretract
G1 F1800
G1 X105.49 Y136.326 E.79894 ; Fill: Print down/right
G1 E-.4 F300 ; retract
G1 X106.206 Y136.326 F15000 ; Fill: Step right
G1 E.4 F300 ;  ; unretract
G1 F1800
G1 X95.472 Y147.06 E.79894 ; Fill: Print up/left
G1 E-.4 F300 ; retract
G1 X96.188 Y147.06 F15000 ; Fill: Step right
G1 E.4 F300 ;  ; unretract
G1 F1800
G1 X106.922 Y136.326 E.79894 ; Fill: Print down/right
G1 E-.4 F300 ; retract
G1 X107.638 Y136.326 F15000 ; Fill: Step right
G1 E.4 F300 ;  ; unretract
G1 F1800
G1 X96.904 Y147.06 E.79894 ; Fill: Print up/left
G1 E-.4 F300 ; retract
G1 X97.62 Y147.06 F15000 ; Fill: Step right
G1 E.4 F300 ;  ; unretract
G1 F1800
G1 X108.354 Y136.326 E.79894 ; Fill: Print down/right
G1 E-.4 F300 ; retract
G1 X109.071 Y136.326 F15000 ; Fill: Step right
G1 E.4 F300 ;  ; unretract
G1 F1800
G1 X98.336 Y147.06 E.79894 ; Fill: Print up/left
G1 E-.4 F300 ; retract
G1 X99.052 Y147.06 F15000 ; Fill: Step right
G1 E.4 F300 ;  ; unretract
G1 F1800
G1 X109.787 Y136.326 E.79894 ; Fill: Print down/right
G1 E-.4 F300 ; retract
G1 X110.503 Y136.326 F15000 ; Fill: Step right
G1 E.4 F300 ;  ; unretract
G1 F1800
G1 X99.768 Y147.06 E.79894 ; Fill: Print up/left
G1 E-.4 F300 ; retract
M73 P11 R10
G1 X100.485 Y147.06 F15000 ; Fill: Step right
G1 E.4 F300 ;  ; unretract
G1 F1800
G1 X111.219 Y136.326 E.79894 ; Fill: Print down/right
G1 E-.4 F300 ; retract
G1 X111.935 Y136.326 F15000 ; Fill: Step right
G1 E.4 F300 ;  ; unretract
G1 F1800
G1 X101.201 Y147.06 E.79894 ; Fill: Print up/left
G1 E-.4 F300 ; retract
G1 X101.917 Y147.06 F15000 ; Fill: Step right
G1 E.4 F300 ;  ; unretract
G1 F1800
G1 X112.651 Y136.326 E.79894 ; Fill: Print down/right
G1 E-.4 F300 ; retract
G1 X113.367 Y136.326 F15000 ; Fill: Step right
G1 E.4 F300 ;  ; unretract
G1 F1800
G1 X102.633 Y147.06 E.79894 ; Fill: Print up/left
G1 E-.4 F300 ; retract
G1 X103.349 Y147.06 F15000 ; Fill: Step right
G1 E.4 F300 ;  ; unretract
G1 F1800
G1 X114.083 Y136.326 E.79894 ; Fill: Print down/right
G1 E-.4 F300 ; retract
G1 X114.799 Y136.326 F15000 ; Fill: Step right
G1 E.4 F300 ;  ; unretract
G1 F1800
G1 X104.065 Y147.06 E.79894 ; Fill: Print up/left
G1 E-.4 F300 ; retract
G1 X104.781 Y147.06 F15000 ; Fill: Step right
G1 E.4 F300 ;  ; unretract
G1 F1800
G1 X115.515 Y136.326 E.79894 ; Fill: Print down/right
G1 E-.4 F300 ; retract
G1 X116.231 Y136.326 F15000 ; Fill: Step right
G1 E.4 F300 ;  ; unretract
G1 F1800
G1 X105.497 Y147.06 E.79894 ; Fill: Print up/left
G1 E-.4 F300 ; retract
G1 X106.213 Y147.06 F15000 ; Fill: Step right
G1 E.4 F300 ;  ; unretract
G1 F1800
G1 X116.948 Y136.326 E.79894 ; Fill: Print down/right
G1 E-.4 F300 ; retract
G1 X117.664 Y136.326 F15000 ; Fill: Step right
M73 P12 R10
G1 E.4 F300 ;  ; unretract
G1 F1800
G1 X106.929 Y147.06 E.79894 ; Fill: Print up/left
G1 E-.4 F300 ; retract
G1 X107.645 Y147.06 F15000 ; Fill: Step right
G1 E.4 F300 ;  ; unretract
G1 F1800
G1 X118.38 Y136.326 E.79894 ; Fill: Print down/right
G1 E-.4 F300 ; retract
G1 X119.096 Y136.326 F15000 ; Fill: Step right
G1 E.4 F300 ;  ; unretract
G1 F1800
G1 X108.362 Y147.06 E.79894 ; Fill: Print up/left
G1 E-.4 F300 ; retract
G1 X109.078 Y147.06 F15000 ; Fill: Step right
G1 E.4 F300 ;  ; unretract
G1 F1800
G1 X119.812 Y136.326 E.79894 ; Fill: Print down/right
G1 E-.4 F300 ; retract
G1 X120.528 Y136.326 F15000 ; Fill: Step right
G1 E.4 F300 ;  ; unretract
G1 F1800
G1 X109.794 Y147.06 E.79894 ; Fill: Print up/left
G1 E-.4 F300 ; retract
G1 X110.51 Y147.06 F15000 ; Fill: Step right
G1 E.4 F300 ;  ; unretract
G1 F1800
G1 X121.244 Y136.326 E.79894 ; Fill: Print down/right
G1 E-.4 F300 ; retract
G1 X121.96 Y136.326 F15000 ; Fill: Step right
G1 E.4 F300 ;  ; unretract
G1 F1800
G1 X111.226 Y147.06 E.79894 ; Fill: Print up/left
G1 E-.4 F300 ; retract
G1 X111.942 Y147.06 F15000 ; Fill: Step right
G1 E.4 F300 ;  ; unretract
G1 F1800
G1 X122.676 Y136.326 E.79894 ; Fill: Print down/right
G1 E-.4 F300 ; retract
G1 X123.392 Y136.326 F15000 ; Fill: Step right
G1 E.4 F300 ;  ; unretract
G1 F1800
G1 X112.658 Y147.06 E.79894 ; Fill: Print up/left
G1 E-.4 F300 ; retract
G1 X113.374 Y147.06 F15000 ; Fill: Step right
G1 E.4 F300 ;  ; unretract
M73 P13 R10
G1 F1800
G1 X124.108 Y136.326 E.79894 ; Fill: Print down/right
G1 E-.4 F300 ; retract
G1 X124.824 Y136.326 F15000 ; Fill: Step right
G1 E.4 F300 ;  ; unretract
G1 F1800
G1 X114.09 Y147.06 E.79894 ; Fill: Print up/left
G1 E-.4 F300 ; retract
G1 X114.806 Y147.06 F15000 ; Fill: Step right
G1 E.4 F300 ;  ; unretract
G1 F1800
G1 X125.541 Y136.326 E.79894 ; Fill: Print down/right
M73 P13 R9
G1 E-.4 F300 ; retract
G1 X126.257 Y136.326 F15000 ; Fill: Step right
G1 E.4 F300 ;  ; unretract
G1 F1800
G1 X115.522 Y147.06 E.79894 ; Fill: Print up/left
G1 E-.4 F300 ; retract
G1 X116.238 Y147.06 F15000 ; Fill: Step right
G1 E.4 F300 ;  ; unretract
G1 F1800
G1 X126.973 Y136.326 E.79894 ; Fill: Print down/right
G1 E-.4 F300 ; retract
G1 X127.689 Y136.326 F15000 ; Fill: Step right
G1 E.4 F300 ;  ; unretract
G1 F1800
G1 X116.955 Y147.06 E.79894 ; Fill: Print up/left
G1 E-.4 F300 ; retract
G1 X117.671 Y147.06 F15000 ; Fill: Step right
G1 E.4 F300 ;  ; unretract
G1 F1800
G1 X128.405 Y136.326 E.79894 ; Fill: Print down/right
G1 E-.4 F300 ; retract
G1 X129.121 Y136.326 F15000 ; Fill: Step right
G1 E.4 F300 ;  ; unretract
G1 F1800
G1 X118.387 Y147.06 E.79894 ; Fill: Print up/left
G1 E-.4 F300 ; retract
G1 X119.103 Y147.06 F15000 ; Fill: Step right
G1 E.4 F300 ;  ; unretract
G1 F1800
G1 X129.837 Y136.326 E.79894 ; Fill: Print down/right
G1 E-.4 F300 ; retract
G1 X130.553 Y136.326 F15000 ; Fill: Step right
G1 E.4 F300 ;  ; unretract
G1 F1800
G1 X119.819 Y147.06 E.79894 ; Fill: Print up/left
M73 P14 R9
G1 E-.4 F300 ; retract
G1 X120.535 Y147.06 F15000 ; Fill: Step right
G1 E.4 F300 ;  ; unretract
G1 F1800
G1 X131.269 Y136.326 E.79894 ; Fill: Print down/right
G1 E-.4 F300 ; retract
G1 X131.985 Y136.326 F15000 ; Fill: Step right
G1 E.4 F300 ;  ; unretract
G1 F1800
G1 X121.251 Y147.06 E.79894 ; Fill: Print up/left
G1 E-.4 F300 ; retract
G1 X121.967 Y147.06 F15000 ; Fill: Step right
G1 E.4 F300 ;  ; unretract
G1 F1800
G1 X132.701 Y136.326 E.79894 ; Fill: Print down/right
G1 E-.4 F300 ; retract
G1 X133.418 Y136.326 F15000 ; Fill: Step right
G1 E.4 F300 ;  ; unretract
G1 F1800
