; HEADER_BLOCK_START
; generated by OrcaSlicer 1.9.1 on 2024-04-21 at 17:40:06
; total layer number: 155
; filament_density: 1.24
; filament_diameter: 1.75
; max_z_height: 31.00
; HEADER_BLOCK_END

; THUMBNAIL_BLOCK_START

;
; THUMBNAIL_BLOCK_END

; external perimeters extrusion width = 0.40mm
; perimeters extrusion width = 0.45mm
; infill extrusion width = 0.45mm
; solid infill extrusion width = 0.40mm
; top infill extrusion width = 0.40mm
; support material extrusion width = 0.40mm
; first layer extrusion width = 0.50mm

; EXECUTABLE_BLOCK_START


; Pre-Processed for Cancel-Object support by preprocess_cancellation v0.2.0
; 1 known objects
EXCLUDE_OBJECT_DEFINE NAME=DJI_Goggle_Protector_stl_id_0_copy_0 CENTER=118.586,119.427 POLYGON=[[42.7,91.2],[42.7,143.8],[192.3,143.8],[192.3,91.2]]
M73 P0 R168
;TYPE:Custom
M104 S0 ; Stops OrcaSlicer from sending temp waits separately
M140 S0
print_start EXTRUDER=220 BED=35 CHAMBER=0
G90
G21
M83 ; use relative distances for extrusion
; filament start gcode
M106 S0
;LAYER_CHANGE
;Z:0.2
;HEIGHT:0.2
;BEFORE_LAYER_CHANGE
;0.2
G92 E0

G1 E-.8 F1800
;_SET_FAN_SPEED_CHANGING_LAYER
SET_VELOCITY_LIMIT ACCEL=500 ACCEL_TO_DECEL=250
G1 Z.4 F15000
G1 X51.96 Y91.701
G1 Z.4
G1 Z.2
G1 E.8 F1800
;TYPE:Skirt
;WIDTH:0.5
G1 F2100.29
G1 X53.712 Y91 E.07175
G1 X58.789 Y89.761 E.19861
G1 X60.933 Y89.329 E.08313
G1 X63.125 Y89.033 E.08406
G1 X65.288 Y88.86 E.08247
G1 X67.637 Y88.795 E.0893
G1 X137.667 Y88.543 E2.66162
G1 X167.71 Y88.544 E1.14182
G1 X170.065 Y88.61 E.08955
G1 X172.378 Y88.8 E.08819
G1 X174.592 Y89.115 E.08497
G1 X176.677 Y89.549 E.08096
G1 X178.548 Y90.093 E.07404
G1 X181.644 Y91.239 E.12548
G1 X183.351 Y91.979 E.07073
G1 X184.97 Y92.968 E.07208
G1 X186.486 Y94.186 E.07393
G1 X187.893 Y95.612 E.07614
G1 X189.189 Y97.232 E.07883
G1 X190.255 Y98.845 E.07348
G1 X191.33 Y100.804 E.08493
G1 X192.274 Y102.906 E.08759
G1 X193.133 Y105.293 E.0964
G1 X193.786 Y107.617 E.09177
G1 X194.299 Y110.028 E.09369
G1 X194.665 Y112.503 E.09508
G1 X194.885 Y115.021 E.09606
G1 X194.956 Y117.418 E.09114
G1 X194.885 Y119.961 E.09671
G1 X194.665 Y122.48 E.09609
G1 X194.271 Y125.105 E.10088
G1 X193.748 Y127.521 E.09395
G1 X193.081 Y129.851 E.09211
G1 X192.341 Y131.909 E.08312
G1 X191.417 Y134.004 E.08701
G1 X190.363 Y135.957 E.08437
G1 X189.188 Y137.751 E.08149
G1 X187.894 Y139.37 E.0788
G1 X186.271 Y140.988 E.0871
G1 X184.708 Y142.194 E.07504
G1 X183.04 Y143.161 E.07326
G1 X181.287 Y143.862 E.07175
G1 X179.727 Y144.243 E.06103
G1 X174.782 Y145.171 E.19122
G1 X171.493 Y145.633 E.12623
G1 X167.959 Y145.988 E.135
G1 X164.215 Y146.243 E.14263
G1 X160.139 Y146.404 E.15505
G1 X79.298 Y146.456 E3.07244
G1 X75.258 Y146.404 E.15356
G1 X71.253 Y146.247 E.15236
G1 X67.439 Y145.988 E.14528
G1 X63.905 Y145.633 E.135
G1 X60.604 Y145.169 E.12668
G1 X55.244 Y144.117 E.2076
G1 X53.712 Y143.741 E.05995
G1 X51.96 Y143.04 E.07175
G1 X50.03 Y141.894 E.08527
G1 X48.514 Y140.676 E.07393
G1 X47.28 Y139.442 E.06633
G1 X45.812 Y137.631 E.0886
G1 X44.635 Y135.836 E.08159
G1 X43.583 Y133.883 E.0843
G1 X42.659 Y131.789 E.08701
G1 X41.919 Y129.73 E.08316
G1 X41.214 Y127.245 E.09816
G1 X40.701 Y124.835 E.09365
G1 X40.334 Y122.359 E.09513
G1 X40.114 Y119.839 E.09613
G1 X40.044 Y117.441 E.09118
G1 X40.123 Y114.756 E.1021
G1 X40.351 Y112.234 E.09624
G1 X40.701 Y109.906 E.08947
G1 X41.214 Y107.496 E.09365
G1 X41.867 Y105.172 E.09174
G1 X42.659 Y102.952 E.08957
G1 X43.669 Y100.684 E.09438
G1 X44.745 Y98.721 E.0851
G1 X45.812 Y97.11 E.07344
G1 X47.106 Y95.492 E.07873
G1 X48.729 Y93.873 E.08713
G1 X50.294 Y92.666 E.07509
G1 X51.925 Y91.721 E.07165
; printing object DJI_Goggle_Protector.stl id:0 copy 0
EXCLUDE_OBJECT_START NAME=DJI_Goggle_Protector_stl_id_0_copy_0
G1 E-.8 F1800
;WIPE_START
G1 F2100.29
G1 X52.852 Y91.347
;WIPE_END
G1 Z.6 F15000
G1 X137.782 Y91.25 Z.6
G1 Z.2
G1 E.8 F1800
;TYPE:Outer wall
;WIDTH:0.499999
G1 F900
G1 X167.642 Y91.251 E1.13485
G1 X169.745 Y91.306 E.07997
G1 X172.011 Y91.482 E.08638
G1 X174.056 Y91.768 E.07846
G1 X175.94 Y92.154 E.07312
G1 X177.616 Y92.635 E.06624
G1 X179.039 Y93.193 E.05811
G1 X179.601 Y93.493 E.02422
G1 X180.618 Y93.745 E.03983
G1 X181.98 Y94.313 E.05609
G1 X183.306 Y95.104 E.05866
G1 X184.583 Y96.111 E.06179
G1 X185.797 Y97.325 E.06527
G1 X186.937 Y98.734 E.0689
G1 X187.991 Y100.328 E.07262
G1 X188.948 Y102.088 E.07614
G1 X189.797 Y103.998 E.07943
G1 X190.531 Y106.039 E.08244
G1 X191.141 Y108.193 E.08508
G1 X191.623 Y110.437 E.08725
G1 X191.97 Y112.75 E.08888
G1 X192.179 Y115.108 E.08998
G1 X192.25 Y117.491 E.09058
G1 X192.227 Y118.254 E.02904
G1 X192.179 Y119.874 E.06158
G1 X191.97 Y122.233 E.09002
G1 X191.623 Y124.545 E.08885
G1 X191.141 Y126.79 E.08728
G1 X190.531 Y128.943 E.08505
G1 X189.797 Y130.984 E.08245
G1 X188.948 Y132.895 E.07946
G1 X187.991 Y134.655 E.07613
G1 X186.937 Y136.248 E.07259
G1 X185.797 Y137.658 E.06893
G1 X184.583 Y138.871 E.06524
G1 X183.306 Y139.878 E.0618
G1 X181.98 Y140.67 E.05868
G1 X180.618 Y141.238 E.05609
G1 X179.233 Y141.581 E.05422
G1 X178.143 Y141.674 E.0416
G1 X176.904 Y142.006 E.04875
G1 X174.288 Y142.51 E.10125
G1 X171.217 Y142.94 E.11785
G1 X167.771 Y143.287 E.13163
G1 X164.035 Y143.542 E.14234
G1 X160.1 Y143.698 E.14964
G1 X156.066 Y143.75 E.15334
G1 X79.332 Y143.75 E2.9164
G1 X75.297 Y143.698 E.15337
G1 X71.363 Y143.542 E.1496
G1 X67.627 Y143.287 E.14234
G1 X64.181 Y142.94 E.13164
G1 X61.11 Y142.51 E.11786
G1 X58.493 Y142.006 E.10129
G1 X56.74 Y141.541 E.06893
G1 X55.767 Y141.46 E.03712
G1 X54.381 Y141.117 E.05426
G1 X53.02 Y140.549 E.05606
G1 X51.694 Y139.758 E.05867
G1 X50.417 Y138.751 E.06179
G1 X49.203 Y137.537 E.06526
G1 X48.063 Y136.127 E.06893
G1 X47.008 Y134.534 E.07261
G1 X46.052 Y132.774 E.07611
G1 X45.203 Y130.864 E.07943
G1 X44.469 Y128.822 E.08248
G1 X43.859 Y126.669 E.08505
G1 X43.377 Y124.425 E.08725
G1 X43.029 Y122.112 E.08889
G1 X42.82 Y119.753 E.09001
G1 X42.75 Y117.37 E.09062
G1 X42.82 Y114.988 E.09054
G1 X43.029 Y112.629 E.09001
G1 X43.377 Y110.316 E.08889
G1 X43.859 Y108.072 E.08725
G1 X44.469 Y105.919 E.08505
G1 X45.203 Y103.877 E.08248
G1 X46.052 Y101.967 E.07943
G1 X47.008 Y100.206 E.07614
G1 X48.063 Y98.614 E.07257
G1 X49.203 Y97.204 E.06893
G1 X50.417 Y95.99 E.06526
G1 X51.694 Y94.983 E.06179
G1 X53.02 Y94.192 E.05867
G1 X54.381 Y93.624 E.05606
G1 X55.767 Y93.281 E.05426
G1 X56.954 Y93.174 E.0453
G1 X57.757 Y92.864 E.03274
G1 X59.428 Y92.392 E.06599
G1 X61.308 Y92.01 E.0729
G1 X63.348 Y91.731 E.07826
G1 X65.497 Y91.559 E.08195
G1 X67.704 Y91.501 E.08391
G1 X98.111 Y91.501 E1.15564
G1 X105.387 Y98.53 E.38448
G1 X105.534 Y98.952 E.01699
G1 X106.249 Y100.588 E.06785
G1 X107.097 Y102.154 E.06768
G1 X108.044 Y103.583 E.06517
G1 X109.075 Y104.865 E.06252
G1 X110.226 Y106.034 E.06234
G1 X111.42 Y107.015 E.05874
G1 X112.699 Y107.846 E.05797
G1 X114.061 Y108.513 E.05762
G1 X115.411 Y108.976 E.05427
G1 X116.817 Y109.266 E.05457
G1 X118.269 Y109.363 E.0553
G1 X119.692 Y109.266 E.05419
G1 X121.069 Y108.984 E.05345
G1 X122.475 Y108.502 E.05647
G1 X123.81 Y107.846 E.05654
G1 X125.068 Y107.03 E.057
G1 X126.301 Y106.018 E.06063
G1 X127.434 Y104.865 E.06142
G1 X128.478 Y103.566 E.06333
G1 X129.412 Y102.154 E.06436
G1 X130.26 Y100.588 E.06768
G1 X130.975 Y98.952 E.06785
G1 X131.327 Y97.936 E.04085
G1 X137.754 Y91.279 E.35169
G1 X137.976 Y91.708 F15000
;TYPE:Inner wall
G1 F900
G1 X167.636 Y91.708 E1.12724
G1 X169.721 Y91.763 E.0793
G1 X171.962 Y91.937 E.0854
G1 X173.978 Y92.219 E.07738
G1 X175.831 Y92.599 E.07191
G1 X177.469 Y93.068 E.06474
G1 X178.845 Y93.608 E.05618
G1 X179.489 Y93.936 E.02747
G1 X180.475 Y94.18 E.0386
G1 X181.774 Y94.723 E.05352
G1 X183.046 Y95.481 E.0563
G1 X184.278 Y96.453 E.05964
G1 X185.457 Y97.631 E.06333
G1 X186.568 Y99.005 E.06715
G1 X187.598 Y100.564 E.07103
G1 X188.537 Y102.291 E.0747
G1 X189.372 Y104.168 E.0781
G1 X190.095 Y106.179 E.08121
G1 X190.697 Y108.303 E.08392
G1 X191.173 Y110.519 E.08614
G1 X191.516 Y112.804 E.08782
G1 X191.723 Y115.135 E.08894
G1 X191.793 Y117.491 E.08955
G1 X191.77 Y118.241 E.02853
G1 X191.723 Y119.847 E.06106
G1 X191.516 Y122.179 E.08898
G1 X191.173 Y124.463 E.08778
G1 X190.697 Y126.68 E.08617
G1 X190.095 Y128.803 E.08389
G1 X189.372 Y130.814 E.08121
G1 X188.537 Y132.692 E.07813
G1 X187.598 Y134.419 E.07469
G1 X186.568 Y135.977 E.07101
G1 X185.457 Y137.352 E.06718
G1 X184.279 Y138.529 E.0633
G1 X183.046 Y139.501 E.05965
G1 X181.774 Y140.26 E.05632
G1 X180.475 Y140.803 E.05352
G1 X179.159 Y141.128 E.05149
G1 X178.028 Y141.232 E.04317
G1 X176.801 Y141.56 E.04826
G1 X174.213 Y142.059 E.10019
G1 X171.162 Y142.486 E.11707
G1 X167.733 Y142.832 E.13102
G1 X164.01 Y143.085 E.14181
G1 X160.088 Y143.241 E.14916
G1 X156.063 Y143.292 E.15299
G1 X79.335 Y143.292 E2.91617
G1 X75.309 Y143.241 E.15303
G1 X71.388 Y143.085 E.14912
G1 X67.665 Y142.832 E.14181
G1 X64.236 Y142.486 E.13102
G1 X61.185 Y142.059 E.11707
G1 X58.595 Y141.56 E.10023
G1 X56.778 Y141.085 E.07138
G1 X55.841 Y141.008 E.03576
G1 X54.524 Y140.682 E.05153
G1 X53.226 Y140.139 E.05349
G1 X51.954 Y139.381 E.0563
G1 X50.722 Y138.409 E.05964
G1 X49.543 Y137.231 E.06332
G1 X48.432 Y135.856 E.06719
G1 X47.401 Y134.298 E.07102
G1 X46.463 Y132.572 E.07467
G1 X45.628 Y130.694 E.0781
G1 X44.905 Y128.682 E.08124
G1 X44.303 Y126.559 E.08389
G1 X43.827 Y124.343 E.08614
G1 X43.483 Y122.058 E.08782
G1 X43.276 Y119.726 E.08897
G1 X43.207 Y117.37 E.08959
G1 X43.276 Y115.015 E.08952
G1 X43.483 Y112.683 E.08897
G1 X43.827 Y110.398 E.08782
G1 X44.303 Y108.182 E.08614
G1 X44.905 Y106.059 E.08389
G1 X45.628 Y104.047 E.08124
G1 X46.463 Y102.169 E.07811
G1 X47.401 Y100.442 E.0747
G1 X48.432 Y98.885 E.07099
G1 X49.543 Y97.51 E.06719
G1 X50.722 Y96.332 E.06332
G1 X51.954 Y95.36 E.05964
G1 X53.226 Y94.602 E.0563
G1 X54.524 Y94.059 E.05349
G1 X55.841 Y93.734 E.05153
G1 X56.531 Y93.677 E.02631
G1 X57.116 Y93.602 E.02241
G1 X57.902 Y93.298 E.03205
G1 X59.536 Y92.836 E.06452
G1 X61.384 Y92.461 E.07169
G1 X63.397 Y92.186 E.07721
G1 X65.521 Y92.016 E.08099
G1 X67.71 Y91.959 E.08322
G1 X97.926 Y91.959 E1.1484
M73 P0 R167
G1 X104.991 Y98.782 E.3733
G1 X105.115 Y99.135 E.01422
G1 X105.831 Y100.771 E.06785
G1 X106.716 Y102.406 E.07066
G1 X107.687 Y103.87 E.06679
G1 X108.719 Y105.152 E.06252
G1 X109.936 Y106.387 E.06591
G1 X111.13 Y107.368 E.05874
G1 X112.45 Y108.229 E.0599
G1 X113.912 Y108.945 E.06186
G1 X115.263 Y109.409 E.05427
G1 X116.726 Y109.714 E.05681
G1 X118.3 Y109.819 E.05995
G1 X119.783 Y109.714 E.05652
G1 X121.161 Y109.432 E.05345
G1 X122.676 Y108.912 E.06087
G1 X124.059 Y108.229 E.05862
G1 X125.317 Y107.413 E.057
G1 X126.627 Y106.338 E.06441
G1 X127.79 Y105.152 E.06315
G1 X128.859 Y103.818 E.06495
G1 X129.793 Y102.406 E.06436
G1 X130.678 Y100.771 E.07066
G1 X131.394 Y99.135 E.06785
G1 X131.726 Y98.181 E.03839
G1 X137.948 Y91.736 E.34047
G1 X138.17 Y92.165 F15000
G1 F900
G1 X167.63 Y92.165 E1.11964
G1 X169.698 Y92.22 E.07862
G1 X171.912 Y92.391 E.08443
G1 X173.9 Y92.669 E.07629
G1 X175.722 Y93.043 E.07069
G1 X177.322 Y93.501 E.06325
G1 X178.65 Y94.023 E.05424
G1 X179.108 Y94.274 E.01983
G1 X179.377 Y94.379 E.01097
G1 X180.331 Y94.615 E.03736
G1 X181.568 Y95.132 E.05095
G1 X182.787 Y95.859 E.05393
G1 X183.974 Y96.795 E.05749
G1 X185.116 Y97.937 E.06139
G1 X186.199 Y99.275 E.0654
G1 X187.206 Y100.8 E.06945
G1 X188.127 Y102.493 E.07326
G1 X188.948 Y104.339 E.07677
G1 X189.66 Y106.319 E.07997
G1 X190.254 Y108.414 E.08276
G1 X190.723 Y110.601 E.08503
G1 X191.062 Y112.858 E.08675
G1 X191.266 Y115.162 E.08791
G1 X191.335 Y117.491 E.08852
G1 X191.314 Y118.227 E.02801
G1 X191.266 Y119.82 E.06055
G1 X191.062 Y122.125 E.08794
G1 X190.723 Y124.381 E.08672
G1 X190.254 Y126.569 E.08507
G1 X189.66 Y128.663 E.08272
G1 X188.948 Y130.644 E.07998
G1 X188.127 Y132.49 E.0768
G1 X187.206 Y134.183 E.07325
G1 X186.199 Y135.707 E.06943
G1 X185.116 Y137.046 E.06542
G1 X183.974 Y138.187 E.06136
G1 X182.786 Y139.124 E.05751
G1 X181.568 Y139.851 E.05395
G1 X180.331 Y140.368 E.05094
G1 X179.085 Y140.676 E.04876
G1 X177.905 Y140.791 E.04508
G1 X176.699 Y141.114 E.04744
G1 X174.138 Y141.608 E.09913
G1 X171.108 Y142.032 E.11629
G1 X167.694 Y142.376 E.1304
G1 X163.985 Y142.629 E.14128
G1 X160.076 Y142.784 E.14868
G1 X156.06 Y142.835 E.15265
G1 X79.338 Y142.835 E2.91595
G1 X75.321 Y142.784 E.15269
G1 X71.413 Y142.629 E.14864
G1 X67.704 Y142.376 E.14128
G1 X64.29 Y142.032 E.1304
G1 X61.26 Y141.608 E.11629
G1 X58.698 Y141.114 E.09917
G1 X56.817 Y140.63 E.07382
G1 X55.915 Y140.555 E.0344
G1 X54.668 Y140.247 E.0488
G1 X53.432 Y139.73 E.05092
G1 X52.213 Y139.003 E.05393
G1 X51.026 Y138.067 E.05749
G1 X49.884 Y136.925 E.06138
G1 X48.801 Y135.586 E.06544
G1 X47.793 Y134.062 E.06944
G1 X46.873 Y132.369 E.07322
G1 X46.052 Y130.523 E.07678
G1 X45.34 Y128.542 E.08001
G1 X44.746 Y126.448 E.08273
G1 X44.277 Y124.261 E.08504
G1 X43.937 Y122.003 E.08676
G1 X43.733 Y119.699 E.08793
G1 X43.665 Y117.37 E.08857
G1 X43.733 Y115.042 E.08849
G1 X43.937 Y112.738 E.08793
G1 X44.277 Y110.48 E.08676
G1 X44.746 Y108.293 E.08504
G1 X45.34 Y106.199 E.08273
G1 X46.052 Y104.218 E.08001
G1 X46.873 Y102.372 E.07678
G1 X47.793 Y100.678 E.07325
G1 X48.801 Y99.155 E.0694
G1 X49.884 Y97.816 E.06545
G1 X51.026 Y96.674 E.06138
G1 X52.213 Y95.738 E.05749
G1 X53.432 Y95.011 E.05393
G1 X54.668 Y94.494 E.05092
G1 X55.915 Y94.186 E.04879
G1 X56.837 Y94.11 E.03516
G1 X57.277 Y94.029 E.01703
G1 X58.047 Y93.732 E.03136
G1 X59.644 Y93.281 E.06306
G1 X61.461 Y92.912 E.07048
G1 X63.446 Y92.64 E.07617
G1 X65.546 Y92.472 E.08004
G1 X67.716 Y92.416 E.08252
G1 X97.742 Y92.416 E1.14115
G1 X104.594 Y99.035 E.36211
G1 X104.696 Y99.318 E.01145
G1 X105.412 Y100.954 E.06785
G1 X106.334 Y102.658 E.07364
G1 X107.331 Y104.157 E.06841
G1 X108.363 Y105.438 E.06252
G1 X109.646 Y106.741 E.06948
G1 X110.84 Y107.721 E.05874
G1 X112.201 Y108.613 E.06184
G1 X113.764 Y109.377 E.0661
G1 X115.114 Y109.841 E.05427
G1 X116.634 Y110.161 E.05905
G1 X118.33 Y110.275 E.0646
G1 X119.875 Y110.161 E.05885
G1 X121.395 Y109.841 E.05905
G1 X122.745 Y109.377 E.05427
G1 X124.308 Y108.613 E.0661
G1 X125.669 Y107.721 E.06184
G1 X126.863 Y106.741 E.05874
G1 X128.146 Y105.438 E.06948
G1 X129.241 Y104.07 E.06657
G1 X130.175 Y102.658 E.06436
G1 X131.097 Y100.954 E.07364
G1 X131.813 Y99.318 E.06785
G1 X132.125 Y98.426 E.03593
G1 X138.142 Y92.193 E.32926
G1 X138.364 Y92.622 F15000
G1 F900
G1 X167.623 Y92.622 E1.11203
G1 X169.674 Y92.676 E.07795
G1 X171.863 Y92.846 E.08345
G1 X173.823 Y93.12 E.07521
G1 X175.613 Y93.487 E.06947
G1 X177.175 Y93.935 E.06175
G1 X178.456 Y94.438 E.05231
G1 X178.888 Y94.675 E.01872
G1 X179.264 Y94.822 E.01536
G1 X180.187 Y95.051 E.03613
G1 X181.362 Y95.541 E.04838
G1 X182.527 Y96.236 E.05156
G1 X183.67 Y97.137 E.05533
G1 X184.776 Y98.244 E.05945
G1 X185.829 Y99.545 E.06365
G1 X186.814 Y101.035 E.06787
G1 X187.717 Y102.695 E.07182
G1 X188.523 Y104.509 E.07544
G1 X189.224 Y106.458 E.07874
G1 X189.81 Y108.524 E.0816
G1 X190.273 Y110.683 E.08393
G1 X190.607 Y112.913 E.08568
G1 X190.81 Y115.189 E.08687
G1 X190.878 Y117.491 E.0875
G1 X190.857 Y118.214 E.0275
G1 X190.81 Y119.793 E.06004
G1 X190.607 Y122.07 E.08691
G1 X190.273 Y124.299 E.08565
G1 X189.81 Y126.459 E.08396
G1 X189.224 Y128.523 E.08156
G1 X188.523 Y130.473 E.07874
G1 X187.717 Y132.288 E.07547
G1 X186.814 Y133.948 E.07181
G1 X185.829 Y135.437 E.06785
G1 X184.776 Y136.739 E.06367
G1 X183.67 Y137.844 E.05942
G1 X182.527 Y138.746 E.05536
G1 X181.361 Y139.442 E.05158
G1 X180.187 Y139.933 E.04837
G1 X179.011 Y140.223 E.04603
G1 X178.304 Y140.282 E.02697
G1 X177.787 Y140.35 E.01983
G1 X176.597 Y140.668 E.04682
G1 X174.063 Y141.157 E.09806
G1 X171.053 Y141.579 E.11551
G1 X167.656 Y141.921 E.12978
G1 X163.961 Y142.172 E.14075
G1 X160.065 Y142.327 E.1482
G1 X156.057 Y142.378 E.1523
G1 X79.341 Y142.378 E2.91573
M73 P1 R167
G1 X75.333 Y142.327 E.15234
G1 X71.437 Y142.172 E.14816
G1 X67.742 Y141.921 E.14075
G1 X64.345 Y141.579 E.12978
G1 X61.335 Y141.157 E.11551
G1 X58.8 Y140.668 E.09811
G1 X57.841 Y140.412 E.03772
G1 X56.855 Y140.174 E.03855
G1 X55.989 Y140.102 E.03304
G1 X54.812 Y139.812 E.04608
G1 X53.638 Y139.321 E.04835
G1 X52.473 Y138.626 E.05157
G1 X51.33 Y137.725 E.05533
G1 X50.224 Y136.619 E.05944
