; HEADER_BLOCK_START
; generated by OrcaSlicer 1.9.1 on 2024-04-13 at 12:26:02
; total layer number: 100
; filament_density: 1.24
; filament_diameter: 1.75
; max_z_height: 20.00
; HEADER_BLOCK_END

; THUMBNAIL_BLOCK_START

;
; THUMBNAIL_BLOCK_END

; external perimeters extrusion width = 0.40mm
; perimeters extrusion width = 0.45mm
; infill extrusion width = 0.45mm
; solid infill extrusion width = 0.40mm
; top infill extrusion width = 0.40mm
; support material extrusion width = 0.40mm
; first layer extrusion width = 0.50mm

; EXECUTABLE_BLOCK_START


; Pre-Processed for Cancel-Object support by preprocess_cancellation v0.2.0
; 1 known objects
EXCLUDE_OBJECT_DEFINE NAME=four_square_cons_stl_id_0_copy_0 CENTER=117.670,117.464 POLYGON=[[107.7,107.7],[107.7,127.3],[127.3,127.3],[127.3,107.7]]
M73 P0 R12
;TYPE:Custom
M104 S0 ; Stops OrcaSlicer from sending temp waits separately
M140 S0
print_start EXTRUDER=210 BED=35 CHAMBER=0
G90
G21
M83 ; use relative distances for extrusion
; filament start gcode
M106 S0
;LAYER_CHANGE
;Z:0.2
;HEIGHT:0.2
;BEFORE_LAYER_CHANGE
;0.2
G92 E0

G1 E-.8 F1800
;_SET_FAN_SPEED_CHANGING_LAYER
SET_VELOCITY_LIMIT ACCEL=500 ACCEL_TO_DECEL=250
G1 X105.835 Y106.569 F9000
G1 Z.2
G1 E.8 F300
;TYPE:Skirt
;WIDTH:0.5
G1 F2100.29
G1 X106.885 Y105.662 E.05274
G1 X107.9 Y105.443 E.03945
G1 X127.5 Y105.443 E.74492
G1 X128.831 Y105.835 E.05274
G1 X129.738 Y106.885 E.05274
G1 X129.957 Y107.9 E.03945
G1 X129.957 Y127.5 E.74492
G1 X129.565 Y128.831 E.05274
G1 X128.515 Y129.738 E.05274
G1 X127.5 Y129.957 E.03945
G1 X107.9 Y129.957 E.74492
G1 X106.569 Y129.565 E.05274
G1 X105.662 Y128.515 E.05274
G1 X105.443 Y127.5 E.03945
G1 X105.443 Y107.9 E.74492
G1 X105.823 Y106.607 E.05122
; printing object four_square_cons.stl id:0 copy 0
EXCLUDE_OBJECT_START NAME=four_square_cons_stl_id_0_copy_0
G1 E-.56 F1800
;WIPE_START
G1 F2100.29
G1 X106.571 Y105.942 E-.24
;WIPE_END
G1 X125.879 Y125.879 F9000
G1 E.8 F300
;TYPE:Inner wall
;WIDTH:0.499999
G1 F900
G1 X109.521 Y125.879 E.62169
G1 X109.521 Y109.521 E.62169
M73 P1 R12
G1 X125.879 Y109.521 E.62169
M73 P1 R11
G1 X125.879 Y117.7 E.31084
G1 X125.879 Y125.839 E.30932
G1 X126.336 Y126.336 F9000
G1 F900
G1 X109.064 Y126.336 E.65643
G1 X109.064 Y109.064 E.65643
G1 X126.336 Y109.064 E.65643
G1 X126.336 Y117.7 E.32822
G1 X126.336 Y126.296 E.3267
G1 X126.793 Y126.793 F9000
G1 F900
G1 X108.607 Y126.793 E.69118
M73 P2 R11
G1 X108.607 Y108.607 E.69118
G1 X126.793 Y108.607 E.69118
G1 X126.793 Y117.7 E.34559
G1 X126.793 Y126.753 E.34407
G1 X127.25 Y127.25 F9000
;TYPE:Outer wall
G1 F900
G1 X108.15 Y127.25 E.72592
G1 X108.15 Y108.15 E.72592
G1 X127.25 Y108.15 E.72592
M73 P3 R11
G1 X127.25 Y117.7 E.36296
G1 X127.25 Y127.21 E.36144
G1 E-.56 F1800
;WIPE_START
G1 F900
G1 X126.25 Y127.212 E-.24
;WIPE_END
G1 X125.733 Y110.608 F9000
G1 E.8 F300
;TYPE:Bottom surface
;WIDTH:0.507899
G1 F1200
G1 X124.997 Y109.873 E.04019
G1 X124.34 Y109.873 E.02542
G1 X125.527 Y111.06 E.0649
G1 X125.527 Y111.718 E.02542
G1 X123.682 Y109.873 E.10085
G1 X123.025 Y109.873 E.02542
G1 X125.527 Y112.375 E.13681
G1 X125.527 Y113.033 E.02542
G1 X122.367 Y109.873 E.17276
G1 X121.71 Y109.873 E.02542
G1 X125.527 Y113.69 E.20872
G1 X125.527 Y114.348 E.02542
G1 X121.052 Y109.873 E.24468
G1 X120.394 Y109.873 E.02542
G1 X125.527 Y115.006 E.28063
G1 X125.527 Y115.663 E.02542
G1 X119.737 Y109.873 E.31659
G1 X119.079 Y109.873 E.02542
G1 X125.527 Y116.321 E.35254
G1 X125.527 Y116.978 E.02542
G1 X118.422 Y109.873 E.3885
G1 X117.764 Y109.873 E.02542
G1 X125.527 Y117.636 E.42445
G1 X125.527 Y118.294 E.02542
G1 X117.106 Y109.873 E.46041
M73 P4 R11
G1 X116.449 Y109.873 E.02542
G1 X125.527 Y118.951 E.49636
G1 X125.527 Y119.609 E.02542
G1 X115.791 Y109.873 E.53232
G1 X115.134 Y109.873 E.02542
G1 X125.527 Y120.266 E.56827
G1 X125.527 Y120.924 E.02542
G1 X114.476 Y109.873 E.60423
G1 X113.819 Y109.873 E.02542
G1 X125.527 Y121.581 E.64018
G1 X125.527 Y122.239 E.02542
G1 X113.161 Y109.873 E.67614
G1 X112.503 Y109.873 E.02542
G1 X125.527 Y122.897 E.71209
G1 X125.527 Y123.554 E.02542
G1 X111.846 Y109.873 E.74805
M73 P5 R11
G1 X111.188 Y109.873 E.02542
G1 X125.527 Y124.212 E.784
G1 X125.527 Y124.869 E.02542
G1 X110.531 Y109.873 E.81996
G1 X109.873 Y109.873 E.02542
G1 X125.527 Y125.527 E.85591
G1 X124.869 Y125.527 E.02542
G1 X109.873 Y110.531 E.81995
G1 X109.873 Y111.188 E.02542
G1 X124.212 Y125.527 E.78399
G1 X123.554 Y125.527 E.02542
G1 X109.873 Y111.846 E.74804
G1 X109.873 Y112.504 E.02542
G1 X122.896 Y125.527 E.71208
M73 P6 R11
G1 X122.239 Y125.527 E.02542
G1 X109.873 Y113.161 E.67613
G1 X109.873 Y113.819 E.02542
G1 X121.581 Y125.527 E.64017
G1 X120.924 Y125.527 E.02542
G1 X109.873 Y114.476 E.60422
G1 X109.873 Y115.134 E.02542
G1 X120.266 Y125.527 E.56826
G1 X119.609 Y125.527 E.02542
G1 X109.873 Y115.791 E.53231
G1 X109.873 Y116.449 E.02542
G1 X118.951 Y125.527 E.49635
G1 X118.293 Y125.527 E.02542
G1 X109.873 Y117.107 E.4604
G1 X109.873 Y117.764 E.02542
G1 X117.636 Y125.527 E.42444
G1 X116.978 Y125.527 E.02542
G1 X109.873 Y118.422 E.38849
G1 X109.873 Y119.079 E.02542
G1 X116.321 Y125.527 E.35253
M73 P7 R11
G1 X115.663 Y125.527 E.02542
G1 X109.873 Y119.737 E.31658
G1 X109.873 Y120.395 E.02542
G1 X115.005 Y125.527 E.28062
G1 X114.348 Y125.527 E.02542
G1 X109.873 Y121.052 E.24467
G1 X109.873 Y121.71 E.02542
G1 X113.69 Y125.527 E.20871
G1 X113.033 Y125.527 E.02542
G1 X109.873 Y122.367 E.17276
G1 X109.873 Y123.025 E.02542
G1 X112.375 Y125.527 E.1368
G1 X111.718 Y125.527 E.02542
G1 X109.873 Y123.682 E.10085
G1 X109.873 Y124.34 E.02542
G1 X111.06 Y125.527 E.06489
G1 X110.402 Y125.527 E.02542
G1 X109.668 Y124.792 E.04018
; stop printing object four_square_cons.stl id:0 copy 0
EXCLUDE_OBJECT_END NAME=four_square_cons_stl_id_0_copy_0
M106 S127
;LAYER_CHANGE
;Z:0.4
;HEIGHT:0.2
;BEFORE_LAYER_CHANGE
;0.4
G92 E0

G1 E-.56 F1800
;WIPE_START
G1 F1200
G1 X110.375 Y125.499 E-.24
;WIPE_END
;_SET_FAN_SPEED_CHANGING_LAYER
M140 S35 ; set bed temperature
; printing object four_square_cons.stl id:0 copy 0
EXCLUDE_OBJECT_START NAME=four_square_cons_stl_id_0_copy_0
G1 X126.104 Y126.104 Z.4 F9000
G1 E.8 F300
;TYPE:Inner wall
;WIDTH:0.449999
G1 F2358.264
G1 X109.096 Y126.104 E.57568
G1 X109.096 Y109.096 E.57568
G1 X126.104 Y109.096 E.57568
G1 X126.104 Y117.6 E.28784
G1 X126.104 Y126.064 E.28649
G1 X126.511 Y126.511 F9000
G1 F2358.264
G1 X108.689 Y126.511 E.60324
G1 X108.689 Y108.689 E.60324
G1 X126.511 Y108.689 E.60324
G1 X126.511 Y117.6 E.30162
G1 X126.511 Y126.471 E.30027
M73 P8 R11
G1 X126.918 Y126.918 F9000
G1 F2358.264
G1 X108.282 Y126.918 E.6308
G1 X108.282 Y108.282 E.6308
G1 X126.918 Y108.282 E.6308
G1 X126.918 Y117.6 E.3154
G1 X126.918 Y126.878 E.31405
G1 X127.3 Y127.3 F9000
;TYPE:Outer wall
;WIDTH:0.399999
G1 F1500
G1 X126.7 Y127.3 E.01781
G1 X108.7 Y127.3 E.53444
G1 F1199.997
G1 X107.9 Y127.3 E.02375
G1 X107.9 Y126.5 E.02375
G1 X107.9 Y108.7 E.5285
G1 X107.9 Y107.9 E.02375
G1 X108.7 Y107.9 E.02375
G1 X126.5 Y107.9 E.5285
G1 X127.3 Y107.9 E.02375
G1 X127.3 Y108.7 E.02375
G1 F1500
G1 X127.3 Y117 E.24644
G1 X127.3 Y117.6 E.01781
G1 X127.3 Y118.2 E.01781
G1 X127.3 Y126.66 E.25119
G1 X127.3 Y127.26 E.01781
G1 E-.56 F1800
;WIPE_START
G1 F1500
G1 X126.3 Y127.262 E-.24
;WIPE_END
G1 X125.253 Y125.976 F9000
G1 E.8 F300
;TYPE:Internal solid infill
;WIDTH:0.400481
G1 F2400
G1 X125.815 Y125.414 E.02364
G1 X125.815 Y124.908 E.01503
G1 X124.908 Y125.815 E.03814
G1 X124.402 Y125.815 E.01503
G1 X125.815 Y124.402 E.0594
G1 X125.815 Y123.897 E.01503
G1 X123.897 Y125.815 E.08067
G1 X123.391 Y125.815 E.01503
G1 X125.815 Y123.391 E.10193
G1 X125.815 Y122.885 E.01503
G1 X122.885 Y125.815 E.12319
G1 X122.38 Y125.815 E.01503
G1 X125.815 Y122.38 E.14445
M73 P9 R11
G1 X125.815 Y121.874 E.01503
G1 X121.874 Y125.815 E.16571
G1 X121.368 Y125.815 E.01503
G1 X125.815 Y121.368 E.18697
G1 X125.815 Y120.863 E.01503
G1 X120.863 Y125.815 E.20824
G1 X120.357 Y125.815 E.01503
G1 X125.815 Y120.357 E.2295
G1 X125.815 Y119.851 E.01503
G1 X119.851 Y125.815 E.25076
G1 X119.346 Y125.815 E.01503
G1 X125.815 Y119.346 E.27202
G1 X125.815 Y118.84 E.01503
G1 X118.84 Y125.815 E.29328
G1 X118.334 Y125.815 E.01503
G1 X125.815 Y118.334 E.31454
G1 X125.815 Y117.829 E.01503
G1 X117.829 Y125.815 E.3358
G1 X117.323 Y125.815 E.01503
G1 X125.815 Y117.323 E.35707
M73 P9 R10
G1 X125.815 Y116.817 E.01503
G1 X116.817 Y125.815 E.37833
G1 X116.312 Y125.815 E.01503
G1 X125.815 Y116.312 E.39959
G1 X125.815 Y115.806 E.01503
G1 X115.806 Y125.815 E.42085
G1 X115.3 Y125.815 E.01503
G1 X125.815 Y115.3 E.44211
G1 X125.815 Y114.795 E.01503
G1 X114.795 Y125.815 E.46337
G1 X114.289 Y125.815 E.01503
G1 X125.815 Y114.289 E.48463
G1 X125.815 Y113.783 E.01503
G1 X113.783 Y125.815 E.5059
G1 X113.278 Y125.815 E.01503
G1 X125.815 Y113.278 E.52716
G1 X125.815 Y112.772 E.01503
G1 X112.772 Y125.815 E.54842
G1 X112.266 Y125.815 E.01503
M73 P10 R10
G1 X125.815 Y112.266 E.56968
G1 X125.815 Y111.761 E.01503
G1 X111.761 Y125.815 E.59094
G1 X111.255 Y125.815 E.01503
G1 X125.815 Y111.255 E.6122
G1 X125.815 Y110.749 E.01503
G1 X110.749 Y125.815 E.63347
G1 X110.244 Y125.815 E.01503
G1 X125.815 Y110.244 E.65473
G1 X125.815 Y109.738 E.01503
G1 X109.738 Y125.815 E.67599
G1 X109.385 Y125.815 E.01051
G1 X109.385 Y125.663 E.00453
G1 X125.663 Y109.385 E.68445
G1 X125.157 Y109.385 E.01503
G1 X109.385 Y125.157 E.66319
G1 X109.385 Y124.652 E.01503
G1 X124.652 Y109.385 E.64193
G1 X124.146 Y109.385 E.01503
G1 X109.385 Y124.146 E.62066
G1 X109.385 Y123.64 E.01503
G1 X123.64 Y109.385 E.5994
G1 X123.135 Y109.385 E.01503
G1 X109.385 Y123.135 E.57814
M73 P11 R10
G1 X109.385 Y122.629 E.01503
G1 X122.629 Y109.385 E.55688
G1 X122.123 Y109.385 E.01503
G1 X109.385 Y122.123 E.53562
G1 X109.385 Y121.618 E.01503
G1 X121.618 Y109.385 E.51436
G1 X121.112 Y109.385 E.01503
G1 X109.385 Y121.112 E.4931
G1 X109.385 Y120.606 E.01503
G1 X120.606 Y109.385 E.47183
G1 X120.101 Y109.385 E.01503
G1 X109.385 Y120.101 E.45057
G1 X109.385 Y119.595 E.01503
G1 X119.595 Y109.385 E.42931
G1 X119.089 Y109.385 E.01503
G1 X109.385 Y119.089 E.40805
G1 X109.385 Y118.584 E.01503
G1 X118.584 Y109.385 E.38679
G1 X118.078 Y109.385 E.01503
G1 X109.385 Y118.078 E.36553
G1 X109.385 Y117.572 E.01503
G1 X117.572 Y109.385 E.34426
G1 X117.067 Y109.385 E.01503
G1 X109.385 Y117.067 E.323
G1 X109.385 Y116.561 E.01503
G1 X116.561 Y109.385 E.30174
G1 X116.055 Y109.385 E.01503
G1 X109.385 Y116.055 E.28048
G1 X109.385 Y115.55 E.01503
G1 X115.55 Y109.385 E.25922
G1 X115.044 Y109.385 E.01503
G1 X109.385 Y115.044 E.23796
G1 X109.385 Y114.538 E.01503
G1 X114.538 Y109.385 E.2167
G1 X114.033 Y109.385 E.01503
G1 X109.385 Y114.033 E.19543
G1 X109.385 Y113.527 E.01503
G1 X113.527 Y109.385 E.17417
M73 P12 R10
G1 X113.021 Y109.385 E.01503
G1 X109.385 Y113.021 E.15291
G1 X109.385 Y112.516 E.01503
G1 X112.516 Y109.385 E.13165
G1 X112.01 Y109.385 E.01503
G1 X109.385 Y112.01 E.11039
G1 X109.385 Y111.504 E.01503
G1 X111.504 Y109.385 E.08913
G1 X110.999 Y109.385 E.01503
G1 X109.385 Y110.999 E.06786
G1 X109.385 Y110.493 E.01503
G1 X110.493 Y109.385 E.0466
G1 X109.987 Y109.385 E.01503
G1 X109.224 Y110.148 E.0321
G1 X109.488 Y109.43 F9000
;WIDTH:0.38292
G1 F2400
G1 X109.424 Y109.467 E.00208
G1 X109.489 Y109.501 E.00208
; stop printing object four_square_cons.stl id:0 copy 0
EXCLUDE_OBJECT_END NAME=four_square_cons_stl_id_0_copy_0
;LAYER_CHANGE
;Z:0.6
;HEIGHT:0.2
;BEFORE_LAYER_CHANGE
;0.6
G92 E0

G1 E-.68955 F1800
;WIPE_START
G1 F2400
G1 X109.424 Y109.467 E-.05524
G1 X109.488 Y109.43 E-.05521
;WIPE_END
;_SET_FAN_SPEED_CHANGING_LAYER
; printing object four_square_cons.stl id:0 copy 0
EXCLUDE_OBJECT_START NAME=four_square_cons_stl_id_0_copy_0
G1 X126.104 Y126.104 Z.6 F9000
G1 E.8 F300
;TYPE:Inner wall
;WIDTH:0.449999
G1 F2358.264
G1 X108.896 Y126.104 E.58245
G1 X108.896 Y108.896 E.58245
G1 X126.104 Y108.896 E.58245
G1 X126.104 Y117.5 E.29123
G1 X126.104 Y126.064 E.28987
G1 X126.511 Y126.511 F9000
G1 F2358.264
G1 X108.489 Y126.511 E.61001
G1 X108.489 Y108.489 E.61001
G1 X126.511 Y108.489 E.61001
G1 X126.511 Y117.5 E.30501
G1 X126.511 Y126.471 E.30365
G1 X126.918 Y126.918 F9000
G1 F2358.264
G1 X108.082 Y126.918 E.63757
G1 X108.082 Y108.082 E.63757
G1 X126.918 Y108.082 E.63757
M73 P13 R10
G1 X126.918 Y117.5 E.31878
G1 X126.918 Y126.878 E.31743
G1 X127.3 Y127.3 F9000
;TYPE:Outer wall
;WIDTH:0.399999
G1 F1500
G1 X126.7 Y127.3 E.01781
G1 X108.5 Y127.3 E.54038
G1 F1199.997
G1 X107.7 Y127.3 E.02375
G1 X107.7 Y126.5 E.02375
G1 X107.7 Y108.5 E.53444
G1 X107.7 Y107.7 E.02375
G1 X108.5 Y107.7 E.02375
G1 X126.5 Y107.7 E.53444
G1 X127.3 Y107.7 E.02375
G1 X127.3 Y108.5 E.02375
G1 F1500
G1 X127.3 Y116.9 E.24941
G1 X127.3 Y117.5 E.01781
G1 X127.3 Y118.1 E.01781
G1 X127.3 Y126.66 E.25416
G1 X127.3 Y127.26 E.01781
G1 E-.56 F1800
;WIPE_START
G1 F1500
G1 X126.3 Y127.262 E-.24
;WIPE_END
G1 X109.288 Y125.696 F9000
G1 E.8 F300
;TYPE:Internal solid infill
;WIDTH:0.38292
G1 F2400
G1 X109.224 Y125.733 E.00208
G1 X109.289 Y125.768 E.00208
G1 X122.385 Y109.024 F9000
;WIDTH:0.401209
G1 F2400
G1 X125.815 Y112.454 E.14452
G1 X125.815 Y112.961 E.0151
G1 X122.039 Y109.185 E.1591
G1 X121.532 Y109.185 E.0151
G1 X125.815 Y113.468 E.18045
G1 X125.815 Y113.974 E.0151
G1 X121.026 Y109.185 E.2018
G1 X120.519 Y109.185 E.0151
G1 X125.815 Y114.481 E.22315
G1 X125.815 Y114.988 E.0151
G1 X120.012 Y109.185 E.2445
G1 X119.506 Y109.185 E.0151
G1 X125.815 Y115.494 E.26584
G1 X125.815 Y116.001 E.0151
M73 P14 R10
G1 X118.999 Y109.185 E.28719
G1 X118.492 Y109.185 E.0151
G1 X125.815 Y116.508 E.30854
G1 X125.815 Y117.015 E.0151
G1 X117.985 Y109.185 E.32989
G1 X117.479 Y109.185 E.0151
G1 X125.815 Y117.521 E.35124
G1 X125.815 Y118.028 E.0151
G1 X116.972 Y109.185 E.37258
G1 X116.465 Y109.185 E.0151
G1 X125.815 Y118.535 E.39393
G1 X125.815 Y119.041 E.0151
G1 X115.959 Y109.185 E.41528
G1 X115.452 Y109.185 E.0151
G1 X125.815 Y119.548 E.43663
G1 X125.815 Y120.055 E.0151
G1 X114.945 Y109.185 E.45798
G1 X114.439 Y109.185 E.0151
G1 X125.815 Y120.561 E.47933
G1 X125.815 Y121.068 E.0151
G1 X113.932 Y109.185 E.50067
G1 X113.425 Y109.185 E.0151
G1 X125.815 Y121.575 E.52202
G1 X125.815 Y122.082 E.0151
G1 X112.918 Y109.185 E.54337
G1 X112.412 Y109.185 E.0151
G1 X125.815 Y122.588 E.56472
G1 X125.815 Y123.095 E.0151
G1 X111.905 Y109.185 E.58607
G1 X111.398 Y109.185 E.0151
G1 X125.815 Y123.602 E.60741
M73 P15 R10
G1 X125.815 Y124.108 E.0151
G1 X110.892 Y109.185 E.62876
G1 X110.385 Y109.185 E.0151
G1 X125.815 Y124.615 E.65011
G1 X125.815 Y125.122 E.0151
G1 X109.878 Y109.185 E.67146
G1 X109.372 Y109.185 E.0151
G1 X125.815 Y125.628 E.69281
G1 X125.815 Y125.815 E.00557
G1 X125.496 Y125.815 E.00953
G1 X109.185 Y109.504 E.68721
G1 X109.185 Y110.011 E.0151
G1 X124.989 Y125.815 E.66586
G1 X124.482 Y125.815 E.0151
G1 X109.185 Y110.518 E.64451
G1 X109.185 Y111.025 E.0151
G1 X123.975 Y125.815 E.62316
G1 X123.469 Y125.815 E.0151
G1 X109.185 Y111.531 E.60182
G1 X109.185 Y112.038 E.0151
G1 X122.962 Y125.815 E.58047
G1 X122.455 Y125.815 E.0151
G1 X109.185 Y112.545 E.55912
G1 X109.185 Y113.051 E.0151
G1 X121.949 Y125.815 E.53777
M73 P16 R10
G1 X121.442 Y125.815 E.0151
G1 X109.185 Y113.558 E.51642
G1 X109.185 Y114.065 E.0151
G1 X120.935 Y125.815 E.49508
G1 X120.429 Y125.815 E.0151
G1 X109.185 Y114.571 E.47373
G1 X109.185 Y115.078 E.0151
G1 X119.922 Y125.815 E.45238
G1 X119.415 Y125.815 E.0151
G1 X109.185 Y115.585 E.43103
G1 X109.185 Y116.092 E.0151
G1 X118.908 Y125.815 E.40968
G1 X118.402 Y125.815 E.0151
G1 X109.185 Y116.598 E.38833
G1 X109.185 Y117.105 E.0151
G1 X117.895 Y125.815 E.36699
G1 X117.388 Y125.815 E.0151
G1 X109.185 Y117.612 E.34564
G1 X109.185 Y118.118 E.0151
G1 X116.882 Y125.815 E.32429
G1 X116.375 Y125.815 E.0151
G1 X109.185 Y118.625 E.30294
G1 X109.185 Y119.132 E.0151
G1 X115.868 Y125.815 E.28159
G1 X115.362 Y125.815 E.0151
G1 X109.185 Y119.638 E.26025
G1 X109.185 Y120.145 E.0151
G1 X114.855 Y125.815 E.2389
G1 X114.348 Y125.815 E.0151
G1 X109.185 Y120.652 E.21755
G1 X109.185 Y121.159 E.0151
G1 X113.841 Y125.815 E.1962
G1 X113.335 Y125.815 E.0151
G1 X109.185 Y121.665 E.17485
G1 X109.185 Y122.172 E.0151
G1 X112.828 Y125.815 E.1535
G1 X112.321 Y125.815 E.0151
G1 X109.185 Y122.679 E.13216
