; HEADER_BLOCK_START
; generated by OrcaSlicer 1.9.1 on 2024-04-13 at 20:26:21
; total layer number: 110
; filament_density: 1.24
; filament_diameter: 1.75
; max_z_height: 22.00
; HEADER_BLOCK_END

; THUMBNAIL_BLOCK_START

;
; THUMBNAIL_BLOCK_END

; external perimeters extrusion width = 0.40mm
; perimeters extrusion width = 0.45mm
; infill extrusion width = 0.45mm
; solid infill extrusion width = 0.40mm
; top infill extrusion width = 0.40mm
; support material extrusion width = 0.40mm
; first layer extrusion width = 0.50mm

; EXECUTABLE_BLOCK_START


; Pre-Processed for Cancel-Object support by preprocess_cancellation v0.2.0
; 1 known objects
EXCLUDE_OBJECT_DEFINE NAME=Master_5_V2_gopro_base_stl_id_3334106494889242169_copy_0 CENTER=117.737,118.409 POLYGON=[[100.223,102.205],[100.223,132.8],[134.782,132.8],[134.782,102.205]]
M73 P0 R56
;TYPE:Custom
M104 S0 ; Stops OrcaSlicer from sending temp waits separately
M140 S0
print_start EXTRUDER=220 BED=35 CHAMBER=0
G90
G21
M83 ; use relative distances for extrusion
; filament start gcode
M106 S0
;LAYER_CHANGE
;Z:0.2
;HEIGHT:0.2
;BEFORE_LAYER_CHANGE
;0.2
G92 E0

G1 E-.8 F1800
;_SET_FAN_SPEED_CHANGING_LAYER
SET_VELOCITY_LIMIT ACCEL=500 ACCEL_TO_DECEL=250
G1 Z.4 F15000
G1 X99.144 Y105.27
G1 Z.4
G1 Z.2
G1 E.8 F1800
;TYPE:Skirt
;WIDTH:0.5
G1 F2100.29
G1 X99.745 Y104.832 E.02825
G1 X107.48 Y100.366 E.33946
G1 X108.404 Y100.019 E.03751
G1 X109.031 Y99.96 E.02395
G1 X126.068 Y99.96 E.6475
G1 X126.816 Y100.072 E.02877
G1 X127.521 Y100.366 E.02901
G1 X135.428 Y104.939 E.34717
G1 X135.915 Y105.325 E.0236
G1 X136.331 Y105.794 E.02384
G1 X136.641 Y106.295 E.02237
G1 X136.884 Y106.908 E.02507
G1 X137.021 Y108.084 E.04501
G1 X135.892 Y129.635 E.8202
G1 X135.642 Y130.763 E.04389
G1 X135.093 Y131.695 E.04114
G1 X134.532 Y132.242 E.02975
G1 X133.924 Y132.623 E.02728
G1 X133.206 Y132.887 E.02909
G1 X132.346 Y132.991 E.0329
G1 X102.567 Y132.989 E1.1318
G1 X101.457 Y132.785 E.0429
G1 X100.494 Y132.262 E.04163
G1 X99.875 Y131.655 E.03295
G1 X99.51 Y131.095 E.02542
G1 X99.216 Y130.334 E.03101
G1 X99.108 Y129.635 E.02687
G1 X97.979 Y108.084 E.8202
G1 X97.999 Y107.483 E.02284
G1 X98.131 Y106.859 E.02426
G1 X98.405 Y106.209 E.02681
G1 X98.681 Y105.777 E.01948
G1 X99.117 Y105.3 E.02456
; printing object Master 5 V2 gopro base.stl id:3334106494889242169 copy 0
EXCLUDE_OBJECT_START NAME=Master_5_V2_gopro_base_stl_id_3334106494889242169_copy_0
G1 E-.8 F1800
;WIPE_START
G1 F2100.29
G1 X99.745 Y104.832
G1 X99.933 Y104.723
;WIPE_END
G1 Z.6 F15000
G1 X109.225 Y102.768 Z.6
G1 Z.2
G1 E.8 F1800
;TYPE:Outer wall
;WIDTH:0.499999
G1 F900
G1 X109.324 Y102.951 E.0079
G1 X109.338 Y104.341 E.05283
G1 X109.503 Y105.123 E.03037
G1 X109.794 Y105.688 E.02418
G1 X110.223 Y106.168 E.02448
G1 X110.666 Y106.502 E.02108
G1 X116.3 Y109.75 E.24713
G1 X116.778 Y109.933 E.01946
G1 X117.354 Y110.017 E.02214
G1 X117.939 Y109.998 E.02226
G1 X118.396 Y109.879 E.01794
G1 X118.832 Y109.679 E.01824
G1 X124.356 Y106.488 E.24244
G1 X124.853 Y106.107 E.02382
G1 X125.323 Y105.497 E.02927
G1 X125.585 Y104.839 E.02691
G1 X125.662 Y104.339 E.01921
G1 X125.666 Y103.069 E.04828
G1 X125.696 Y102.869 E.0077
G1 X125.833 Y102.719 E.00769
G1 X126.029 Y102.675 E.00765
G1 X126.191 Y102.724 E.00642
G1 X133.548 Y106.972 E.32287
G1 X134.068 Y107.307 E.02352
G1 X134.216 Y107.527 E.01009
G1 X134.299 Y107.762 E.00946
G1 X134.317 Y107.96 E.00756
G1 X133.193 Y129.413 E.81648
G1 X133.142 Y129.717 E.01172
G1 X133.036 Y129.893 E.0078
G1 X132.867 Y130.094 E.00998
G1 X132.542 Y130.259 E.01388
G1 X132.226 Y130.27 E.012
G1 X131.999 Y130.202 E.00902
G1 X125.766 Y126.613 E.27337
G1 X125.129 Y126.28 E.0273
G1 X124.479 Y125.974 E.02731
G1 X123.816 Y125.696 E.02731
G1 X123.143 Y125.446 E.02729
G1 X122.529 Y125.245 E.02456
G1 X121.812 Y125.044 E.0283
G1 X121.08 Y124.872 E.02856
G1 X120.338 Y124.733 E.0287
G1 X119.56 Y124.625 E.02988
G1 X118.883 Y124.555 E.02584
G1 X117.6 Y124.5 E.04883
G1 X116.747 Y124.516 E.0324
G1 X116.16 Y124.551 E.02235
G1 X115.519 Y124.613 E.02448
G1 X114.708 Y124.725 E.03113
G1 X113.91 Y124.874 E.03085
G1 X113.179 Y125.046 E.02856
G1 X112.462 Y125.248 E.02829
G1 X111.67 Y125.515 E.03179
G1 X111.175 Y125.699 E.02006
G1 X110.513 Y125.978 E.02731
G1 X109.862 Y126.284 E.02731
G1 X109.226 Y126.617 E.02729
G1 X103.112 Y130.138 E.26814
G1 X102.774 Y130.27 E.01381
G1 X102.45 Y130.259 E.01231
G1 X102.119 Y130.094 E.01405
G1 X101.909 Y129.814 E.0133
G1 X101.811 Y129.479 E.01327
G1 X100.69 Y108.098 E.81372
G1 X100.742 Y107.596 E.01918
G1 X100.868 Y107.378 E.00958
G1 X101.117 Y107.166 E.01244
G1 X108.778 Y102.743 E.3362
G1 X109.005 Y102.673 E.00903
G1 X109.188 Y102.752 E.00758
G1 E-.8 F1800
;WIPE_START
G1 F900
G1 X109.324 Y102.951
G1 X109.332 Y103.71
;WIPE_END
G1 Z.6 F15000
G1 X131.352 Y107.324 Z.6
G1 Z.2
G1 E.8 F1800
G1 F900
G1 X131.627 Y107.506 E.01254
G1 X131.825 Y107.703 E.01062
G1 X132.046 Y108.024 E.0148
G1 X132.158 Y108.29 E.01098
G1 X132.24 Y108.661 E.01443
G1 X132.245 Y108.946 E.01085
G1 X132.139 Y109.456 E.0198
G1 X131.993 Y109.757 E.01271
G1 X131.792 Y110.025 E.01272
G1 X131.543 Y110.249 E.01272
G1 X131.24 Y110.428 E.01338
G1 X130.739 Y110.575 E.01984
G1 X130.138 Y110.554 E.02288
G1 X129.705 Y110.402 E.01744
G1 X129.423 Y110.222 E.01272
G1 X129.177 Y109.988 E.01289
G1 X128.955 Y109.665 E.0149
G1 X128.846 Y109.411 E.01054
G1 X128.766 Y109.072 E.01323
G1 X128.754 Y108.751 E.0122
G1 X128.82 Y108.36 E.01505
G1 X129.013 Y107.94 E.01759
G1 X129.326 Y107.548 E.01904
G1 X129.68 Y107.3 E.01645
G1 X129.934 Y107.19 E.01054
G1 X130.321 Y107.105 E.01506
G1 X130.656 Y107.102 E.01273
G1 X130.987 Y107.165 E.0128
G1 X131.3 Y107.289 E.0128
G1 X131.318 Y107.302 E.00084
G1 X131.604 Y106.933 F15000
;TYPE:Inner wall
;WIDTH:0.536461
G1 F900
G1 X131.957 Y107.164 E.0173
G1 X132.398 Y107.723 E.02924
;WIDTH:0.499999
G1 X132.603 Y108.186 E.01925
G1 X132.697 Y108.644 E.01773
G1 X132.694 Y109.033 E.01482
G1 X132.553 Y109.651 E.0241
G1 X132.361 Y110.027 E.01603
G1 X132.102 Y110.36 E.01603
G1 X131.784 Y110.637 E.01603
G1 X131.37 Y110.866 E.018
G1 X130.869 Y111.014 E.01984
G1 X130.635 Y111.041 E.00896
G1 X130.111 Y111.01 E.01993
G1 X129.593 Y110.853 E.02057
G1 X129.158 Y110.597 E.01919
G1 X128.804 Y110.251 E.01882
G1 X128.538 Y109.852 E.01821
G1 X128.401 Y109.515 E.01385
G1 X128.321 Y109.176 E.01323
G1 X128.302 Y108.681 E.01881
G1 X128.393 Y108.198 E.01869
G1 X128.562 Y107.797 E.01654
G1 X128.839 Y107.395 E.01856
G1 X129.096 Y107.146 E.0136
G1 X129.493 Y106.882 E.0181
G1 X129.83 Y106.745 E.01385
G1 X130.313 Y106.648 E.0187
G1 X130.735 Y106.652 E.01606
;WIDTH:0.542448
G1 X131.158 Y106.718 E.01777
G1 X131.552 Y106.9 E.01805
;WIDTH:0.536461
G1 X131.57 Y106.912 E.00088
G1 E-.8 F1800
;WIPE_START
G1 F900
G1 X131.957 Y107.164
G1 X132.29 Y107.587
;WIPE_END
G1 Z.6 F15000
G1 X131.759 Y123.638 Z.6
G1 Z.2
G1 E.8 F1800
;TYPE:Outer wall
;WIDTH:0.499999
G1 F900
G1 X131.796 Y123.675 E.002
G1 X132.018 Y123.998 E.01489
G1 X132.127 Y124.252 E.01054
G1 X132.213 Y124.635 E.01489
G1 X132.218 Y124.92 E.01085
G1 X132.111 Y125.43 E.0198
G1 X131.965 Y125.731 E.01271
G1 X131.764 Y125.998 E.01272
G1 X131.516 Y126.223 E.01272
G1 X131.115 Y126.43 E.01714
G1 X130.634 Y126.558 E.01893
G1 X130.113 Y126.528 E.01984
G1 X129.681 Y126.378 E.01736
G1 X129.445 Y126.233 E.01054
G1 X129.155 Y125.969 E.0149
G1 X128.989 Y125.744 E.01062
G1 X128.819 Y125.389 E.01497
G1 X128.741 Y125.064 E.01273
G1 X128.726 Y124.729 E.01273
G1 X128.777 Y124.392 E.01297
G1 X128.928 Y124.002 E.0159
G1 X129.247 Y123.575 E.02023
G1 X129.652 Y123.273 E.01922
G1 X129.907 Y123.164 E.01054
G1 X130.294 Y123.078 E.01506
G1 X130.629 Y123.076 E.01273
G1 X130.96 Y123.138 E.0128
G1 X131.272 Y123.263 E.0128
G1 X131.599 Y123.48 E.01489
G1 X131.73 Y123.61 E.00702
G1 X132.085 Y123.325 F15000
;TYPE:Inner wall
G1 F900
G1 X132.17 Y123.412 E.00461
G1 X132.435 Y123.811 E.0182
G1 X132.573 Y124.148 E.01385
G1 X132.603 Y124.383 E.00902
;WIDTH:0.464977
G1 X132.634 Y124.619 E.00832
;WIDTH:0.429954
G1 X132.628 Y125 E.01226
;WIDTH:0.44948
G1 X132.571 Y125.31 E.01066
;WIDTH:0.477253
G1 X132.515 Y125.62 E.01139
;WIDTH:0.499999
G1 X132.334 Y126.001 E.01602
G1 X132.075 Y126.334 E.01603
G1 X131.757 Y126.611 E.01603
G1 X131.342 Y126.84 E.018
G1 X130.841 Y126.987 E.01984
G1 X130.608 Y127.014 E.00893
G1 X130.086 Y126.984 E.01984
G1 X129.566 Y126.827 E.02066
G1 X129.141 Y126.574 E.0188
G1 X128.791 Y126.246 E.01823
G1 X128.58 Y125.947 E.01393
G1 X128.376 Y125.502 E.0186
G1 X128.285 Y125.09 E.01604
G1 X128.273 Y124.668 E.01606
G1 X128.347 Y124.237 E.0166
G1 X128.534 Y123.77 E.0191
G1 X128.805 Y123.375 E.01821
G1 X129.066 Y123.121 E.01385
G1 X129.487 Y122.846 E.01911
G1 X129.803 Y122.719 E.01293
G1 X130.285 Y122.621 E.0187
G1 X130.708 Y122.626 E.01606
G1 X131.123 Y122.711 E.01611
G1 X131.521 Y122.879 E.01643
G1 X131.916 Y123.15 E.0182
G1 X132.058 Y123.296 E.00773
G1 E-.8 F1800
;WIPE_START
G1 F900
G1 X132.17 Y123.412
G1 X132.435 Y123.811
G1 X132.571 Y124.144
;WIPE_END
G1 Z.6 F15000
G1 X102.81 Y124.41 Z.6
G1 Z.2
G1 E.8 F1800
;TYPE:Outer wall
G1 F900
G1 X102.819 Y124.36 E.00193
G1 X102.942 Y124.049 E.01273
G1 X103.122 Y123.767 E.01272
G1 X103.358 Y123.52 E.01297
G1 X103.679 Y123.3 E.0148
G1 X103.934 Y123.19 E.01054
G1 X104.32 Y123.105 E.01506
G1 X104.655 Y123.102 E.01273
G1 X104.986 Y123.165 E.0128
G1 X105.295 Y123.287 E.01264
G1 X105.579 Y123.468 E.0128
G1 X105.823 Y123.701 E.0128
G1 X106.045 Y124.024 E.0149
G1 X106.208 Y124.508 E.01942
G1 X106.244 Y124.946 E.01672
G1 X106.138 Y125.456 E.0198
G1 X105.992 Y125.757 E.01271
G1 X105.787 Y126.028 E.01289
G1 X105.481 Y126.292 E.01538
G1 X105.066 Y126.499 E.01764
G1 X104.661 Y126.584 E.0157
G1 X104.14 Y126.554 E.01987
G1 X103.704 Y126.402 E.01753
G1 X103.422 Y126.222 E.01272
G1 X103.177 Y125.988 E.01289
G1 X102.954 Y125.665 E.0149
G1 X102.845 Y125.411 E.01054
G1 X102.76 Y125.028 E.01489
G1 X102.753 Y124.751 E.01055
G1 X102.804 Y124.45 E.0116
G1 X102.375 Y124.401 F15000
;TYPE:Inner wall
G1 F900
G1 X102.392 Y124.198 E.00777
G1 X102.553 Y123.808 E.01604
G1 X102.787 Y123.456 E.01605
G1 X103.095 Y123.146 E.01661
G1 X103.492 Y122.882 E.01811
G1 X103.829 Y122.745 E.01385
G1 X104.312 Y122.648 E.0187
G1 X104.734 Y122.652 E.01606
G1 X105.149 Y122.738 E.01611
G1 X105.537 Y122.899 E.01595
G1 X105.89 Y123.133 E.0161
G1 X106.196 Y123.438 E.01643
G1 X106.462 Y123.837 E.01821
G1 X106.599 Y124.174 E.01385
G1 X106.696 Y124.644 E.0182
G1 X106.693 Y125.033 E.01482
G1 X106.552 Y125.651 E.0241
G1 X106.361 Y126.027 E.01603
G1 X106.091 Y126.369 E.01653
G1 X105.691 Y126.697 E.01967
G1 X105.17 Y126.944 E.02194
G1 X104.635 Y127.041 E.02064
G1 X104.113 Y127.011 E.01987
G1 X103.593 Y126.854 E.02067
G1 X103.111 Y126.558 E.02148
G1 X102.803 Y126.251 E.01653
G1 X102.537 Y125.852 E.01821
G1 X102.405 Y125.514 E.01382
;WIDTH:0.489458
G1 X102.373 Y125.162 E.01311
;WIDTH:0.447859
G1 X102.341 Y124.81 E.01189
;WIDTH:0.453129
G1 X102.366 Y124.504 E.01048
;WIDTH:0.499999
G1 X102.371 Y124.441 E.00239
G1 E-.8 F1800
;WIPE_START
G1 F900
G1 X102.392 Y124.198
G1 X102.553 Y123.808
G1 X102.738 Y123.53
;WIPE_END
G1 Z.6 F15000
G1 X103.116 Y107.786 Z.6
G1 Z.2
G1 E.8 F1800
;TYPE:Outer wall
G1 F900
G1 X103.161 Y107.718 E.00311
G1 X103.358 Y107.52 E.01062
G1 X103.679 Y107.299 E.01481
G1 X103.936 Y107.189 E.01062
G1 X104.32 Y107.105 E.01497
G1 X104.655 Y107.102 E.01273
G1 X104.986 Y107.165 E.0128
G1 X105.299 Y107.289 E.0128
G1 X105.626 Y107.506 E.0149
G1 X106.023 Y107.986 E.02368
G1 X106.169 Y108.343 E.01466
G1 X106.239 Y108.661 E.01238
G1 X106.244 Y108.946 E.01085
G1 X106.138 Y109.456 E.0198
G1 X105.992 Y109.757 E.01271
G1 X105.791 Y110.025 E.01272
G1 X105.542 Y110.249 E.01272
G1 X105.239 Y110.428 E.01337
G1 X104.739 Y110.575 E.01984
G1 X104.137 Y110.554 E.02288
G1 X103.708 Y110.405 E.01726
G1 X103.472 Y110.26 E.01053
G1 X103.17 Y109.978 E.0157
G1 X102.894 Y109.534 E.01987
G1 X102.768 Y109.09 E.01753
G1 X102.753 Y108.751 E.0129
G1 X102.819 Y108.36 E.01506
G1 X102.944 Y108.045 E.0129
G1 X103.094 Y107.82 E.01028
G1 X102.742 Y107.529 F15000
;TYPE:Inner wall
;WIDTH:0.50516
G1 F900
G1 X102.83 Y107.399 E.00604
;WIDTH:0.529425
G1 X103.087 Y107.134 E.01493
G1 X103.702 Y106.774 E.02885
;WIDTH:0.526883
G1 X104.312 Y106.648 E.02504
;WIDTH:0.499999
G1 X104.734 Y106.652 E.01606
G1 X105.149 Y106.738 E.01611
G1 X105.548 Y106.906 E.01643
G1 X105.943 Y107.177 E.01823
G1 X106.198 Y107.44 E.01393
G1 X106.397 Y107.723 E.01315
G1 X106.6 Y108.177 E.01889
G1 X106.696 Y108.644 E.0181
G1 X106.693 Y109.033 E.01482
G1 X106.552 Y109.651 E.0241
G1 X106.361 Y110.027 E.01603
G1 X106.101 Y110.36 E.01603
G1 X105.784 Y110.637 E.01603
G1 X105.369 Y110.866 E.018
G1 X104.868 Y111.014 E.01984
G1 X104.634 Y111.041 E.00896
G1 X104.11 Y111.01 E.01993
G1 X103.592 Y110.853 E.02056
G1 X103.168 Y110.601 E.01878
G1 X102.781 Y110.219 E.02064
G1 X102.506 Y109.775 E.01987
G1 X102.335 Y109.259 E.02066
G1 X102.302 Y108.681 E.02198
G1 X102.392 Y108.198 E.0187
G1 X102.561 Y107.797 E.01654
;WIDTH:0.50516
G1 X102.719 Y107.562 E.01087
G1 E-.8 F1800
;WIPE_START
G1 F900
G1 X102.83 Y107.399
G1 X103.087 Y107.134
G1 X103.461 Y106.915
;WIPE_END
G1 Z.6 F15000
G1 X108.869 Y103.218 Z.6
G1 Z.2
G1 E.8 F1800
;WIDTH:0.499999
G1 F900
G1 X108.881 Y104.345 E.04287
G1 X108.895 Y104.476 E.005
G1 X109.092 Y105.323 E.03305
G1 X109.352 Y105.843 E.02208
G1 X109.559 Y106.11 E.01286
G1 X109.976 Y106.572 E.02365
G1 X110.438 Y106.898 E.02149
G1 X116.157 Y110.187 E.25074
M73 P0 R55
G1 X116.715 Y110.386 E.02249
G1 X117.56 Y110.49 E.03236
G1 X118.097 Y110.433 E.02055
G1 X118.606 Y110.29 E.02008
G1 X119.061 Y110.075 E.01913
G1 X124.629 Y106.855 E.24445
G1 X125.21 Y106.393 E.02819
G1 X125.649 Y105.838 E.0269
G1 X125.831 Y105.456 E.01609
G1 X126.051 Y104.854 E.02436
G1 X126.119 Y104.341 E.01968
G1 X126.122 Y103.213 E.04287
G1 X130.968 Y106.011 E.21266
;WIDTH:0.519419
G1 X131.628 Y106.403 E.0304
;WIDTH:0.523041
G1 X132.63 Y106.97 E.04596
;WIDTH:0.499999
G1 X133.659 Y107.569 E.04529
G1 X133.844 Y107.801 E.01127
G1 X133.859 Y107.968 E.00635
G1 X133.013 Y124.109 E.61431
G1 X133.012 Y124.519 E.0156
;WIDTH:0.458835
G1 X133.011 Y124.93 E.0142
;WIDTH:0.454067
G1 X132.962 Y125.509 E.01985
;WIDTH:0.499999
G1 X132.913 Y126.017 E.01942
G1 X132.736 Y129.389 E.12834
G1 X132.729 Y129.449 E.00229
G1 X132.611 Y129.714 E.01103
G1 X132.445 Y129.805 E.00718
G1 X132.181 Y129.779 E.01008
G1 X125.977 Y126.208 E.27207
G1 X125.324 Y125.866 E.02803
G1 X124.656 Y125.553 E.02804
G1 X123.976 Y125.267 E.02804
G1 X123.285 Y125.011 E.02799
G1 X122.653 Y124.805 E.02528
G1 X121.916 Y124.599 E.02907
G1 X121.165 Y124.423 E.02932
G1 X120.405 Y124.281 E.02938
G1 X119.607 Y124.171 E.03061
G1 X118.903 Y124.098 E.0269
G1 X117.591 Y124.043 E.0499
G1 X116.72 Y124.06 E.03312
G1 X116.117 Y124.096 E.02297
G1 X115.457 Y124.16 E.02521
G1 X114.624 Y124.276 E.03195
G1 X113.806 Y124.429 E.03164
G1 X113.055 Y124.606 E.02932
G1 X112.32 Y124.813 E.02901
G1 X110.998 Y125.278 E.05327
G1 X110.318 Y125.564 E.02804
G1 X109.651 Y125.879 E.02804
G1 X108.998 Y126.221 E.028
G1 X102.819 Y129.779 E.27101
G1 X102.537 Y129.805 E.01074
G1 X102.344 Y129.664 E.0091
G1 X102.266 Y129.429 E.0094
G1 X102.072 Y125.728 E.14083
G1 X102.036 Y125.471 E.00987
;WIDTH:0.455383
G1 X102 Y125.214 E.0089
;WIDTH:0.414953
G1 X101.974 Y124.669 E.01688
;WIDTH:0.457476
G1 X101.981 Y124.402 E.00922
;WIDTH:0.499999
G1 X101.989 Y124.134 E.01016
G1 X101.147 Y108.074 E.61122
G1 X101.18 Y107.751 E.01234
G1 X101.382 Y107.54 E.01108
G1 X102.288 Y107.018 E.03975
;WIDTH:0.529425
G1 X103.483 Y106.343 E.05551
;WIDTH:0.526883
G1 X103.933 Y106.068 E.02124
;WIDTH:0.499999
G1 X108.835 Y103.238 E.21513
G1 X108.42 Y104.005 F15000
G1 F900
G1 X108.447 Y104.568 E.02145
G1 X108.588 Y105.25 E.02646
G1 X108.682 Y105.525 E.01105
G1 X108.943 Y106.047 E.02219
G1 X109.218 Y106.415 E.01743
G1 X109.781 Y107 E.03089
G1 X110.21 Y107.294 E.01975
G1 X115.696 Y110.457 E.24069
G1 X116.164 Y110.681 E.0197
G1 X116.649 Y110.839 E.0194
G1 X117.599 Y110.945 E.03633
G1 X118.215 Y110.874 E.02358
G1 X118.821 Y110.694 E.02401
G1 X119.289 Y110.47 E.01973
G1 X124.719 Y107.336 E.23827
G1 X125.189 Y107.008 E.02178
G1 X125.568 Y106.677 E.01913
G1 X125.953 Y106.19 E.02358
