; HEADER_BLOCK_START
; generated by OrcaSlicer 1.9.1 on 2024-04-13 at 08:10:33
; total layer number: 32
; filament_density: 1.24
; filament_diameter: 1.75
; max_z_height: 6.40
; HEADER_BLOCK_END

; THUMBNAIL_BLOCK_START

;
; THUMBNAIL_BLOCK_END

; external perimeters extrusion width = 0.40mm
; perimeters extrusion width = 0.45mm
; infill extrusion width = 0.45mm
; solid infill extrusion width = 0.40mm
; top infill extrusion width = 0.40mm
; support material extrusion width = 0.40mm
; first layer extrusion width = 0.50mm

; EXECUTABLE_BLOCK_START


; Pre-Processed for Cancel-Object support by preprocess_cancellation v0.2.0
; 1 known objects
EXCLUDE_OBJECT_DEFINE NAME=retraction_tower_stl_id_0_copy_0 CENTER=117.588,117.282 POLYGON=[[97.7,110.2],[97.7,124.8],[137.3,124.8],[137.3,110.2]]
M73 P0 R6
;TYPE:Custom
M104 S0 ; Stops OrcaSlicer from sending temp waits separately
M140 S0
print_start EXTRUDER=210 BED=35 CHAMBER=0
G90
G21
M83 ; use relative distances for extrusion
; filament start gcode
M106 S0
;LAYER_CHANGE
;Z:0.2
;HEIGHT:0.2
;BEFORE_LAYER_CHANGE
;0.2
G92 E0

G1 E-.4 F240
;_SET_FAN_SPEED_CHANGING_LAYER
; Calib_Retraction_tower: Z_HEIGHT: 0.2, length:0
SET_VELOCITY_LIMIT ACCEL=500 ACCEL_TO_DECEL=250
G1 X96.883 Y108.929 F9000
G1 Z.2
G1 E.4 F300
;TYPE:Skirt
;WIDTH:0.5
G1 F2100.29
G1 X98.06 Y108.132 E.05403
G1 X99.403 Y107.666 E.05403
G1 X100.5 Y107.543 E.04196
G1 X134.821 Y107.564 E1.3044
G1 X136.217 Y107.832 E.05403
G1 X136.94 Y108.132 E.02976
G1 X138.117 Y108.929 E.05403
G1 X138.571 Y109.383 E.02438
G1 X139.368 Y110.56 E.05403
G1 X139.834 Y111.903 E.05403
G1 X139.936 Y112.679 E.02977
G1 X139.957 Y122 E.35425
G1 X139.834 Y123.097 E.04196
G1 X139.368 Y124.44 E.05403
G1 X139.047 Y124.996 E.02438
G1 X138.117 Y126.071 E.05403
G1 X136.94 Y126.868 E.05403
G1 X135.597 Y127.334 E.05403
G1 X134.5 Y127.457 E.04196
G1 X100.5 Y127.457 E1.29222
M73 P1 R6
G1 X99.403 Y127.334 E.04196
G1 X98.783 Y127.168 E.02438
G1 X97.504 Y126.547 E.05403
G1 X96.429 Y125.617 E.05403
G1 X95.632 Y124.44 E.05403
G1 X95.166 Y123.097 E.05403
G1 X95.043 Y122 E.04196
G1 X95.043 Y113 E.34206
G1 X95.166 Y111.903 E.04196
G1 X95.632 Y110.56 E.05403
G1 X96.429 Y109.383 E.05403
G1 X96.855 Y108.958 E.02286
; printing object retraction_tower.stl id:0 copy 0
EXCLUDE_OBJECT_START NAME=retraction_tower_stl_id_0_copy_0
;WIPE_START
G1 X97.68 Y108.392
;WIPE_END
G1 X136.48 Y123.143 F9000
;TYPE:Inner wall
;WIDTH:0.499999
G1 F900
G1 X136.117 Y123.617 E.02269
G1 X135.643 Y123.98 E.02269
G1 X135.092 Y124.209 E.02269
G1 X134.454 Y124.293 E.02447
G1 X100.546 Y124.293 E1.28869
M73 P2 R5
G1 X99.908 Y124.209 E.02447
G1 X99.357 Y123.98 E.02269
G1 X98.883 Y123.617 E.02269
G1 X98.52 Y123.143 E.02269
G1 X98.291 Y122.592 E.02269
G1 X98.207 Y121.954 E.02447
G1 X98.207 Y113.046 E.33853
G1 X98.291 Y112.408 E.02447
G1 X98.52 Y111.857 E.02269
G1 X98.883 Y111.383 E.02269
G1 X99.357 Y111.02 E.02269
G1 X99.908 Y110.791 E.02269
G1 X100.546 Y110.707 E.02447
G1 X134.454 Y110.707 E1.28869
M73 P3 R5
G1 X135.092 Y110.791 E.02447
G1 X135.643 Y111.02 E.02269
G1 X136.117 Y111.383 E.02269
G1 X136.48 Y111.857 E.02269
G1 X136.709 Y112.408 E.02269
G1 X136.793 Y113.21 E.03066
G1 X136.793 Y121.954 E.3323
G1 X136.709 Y122.592 E.02447
G1 X136.496 Y123.106 E.02117
G1 X136.88 Y123.374 F9000
;TYPE:Outer wall
G1 F900
G1 X136.443 Y123.943 E.02726
G1 X135.874 Y124.38 E.02726
G1 X135.211 Y124.654 E.02726
G1 X134.484 Y124.75 E.02789
G1 X100.516 Y124.75 E1.29097
M73 P4 R5
G1 X99.789 Y124.654 E.02789
G1 X99.126 Y124.38 E.02726
G1 X98.557 Y123.943 E.02726
G1 X98.12 Y123.374 E.02726
G1 X97.846 Y122.711 E.02726
G1 X97.75 Y121.984 E.02789
G1 X97.75 Y113.016 E.34081
G1 X97.846 Y112.289 E.02789
G1 X98.12 Y111.626 E.02726
G1 X98.557 Y111.057 E.02726
G1 X99.126 Y110.62 E.02726
G1 X99.789 Y110.346 E.02726
G1 X100.516 Y110.25 E.02789
G1 X134.484 Y110.25 E1.29097
G1 X135.211 Y110.346 E.02789
G1 X135.874 Y110.62 E.02726
G1 X136.443 Y111.057 E.02726
G1 X136.88 Y111.626 E.02726
M73 P5 R5
G1 X137.154 Y112.289 E.02726
G1 X137.25 Y113.21 E.03522
G1 X137.25 Y121.984 E.33344
G1 X137.154 Y122.711 E.02789
G1 X136.895 Y123.337 E.02574
;WIPE_START
G1 X136.443 Y123.943
G1 X136.249 Y124.092
;WIPE_END
G1 X135.242 Y111.012 F9000
;TYPE:Bottom surface
;WIDTH:0.50599
G1 F1200
G1 X135.871 Y111.641 E.03424
G1 X136.173 Y112.034 E.0191
G1 X136.366 Y112.5 E.01942
G1 X136.41 Y112.834 E.01299
G1 X134.666 Y111.09 E.09499
G1 X134.431 Y111.059 E.00913
G1 X133.98 Y111.059 E.01736
G1 X136.441 Y113.52 E.13402
G1 X136.441 Y114.175 E.02522
G1 X133.325 Y111.059 E.16968
G1 X132.67 Y111.059 E.02522
G1 X136.441 Y114.83 E.20534
G1 X136.441 Y115.485 E.02522
G1 X132.015 Y111.059 E.241
G1 X131.36 Y111.059 E.02522
G1 X136.441 Y116.14 E.27666
G1 X136.441 Y116.795 E.02522
G1 X130.705 Y111.059 E.31232
G1 X130.05 Y111.059 E.02522
G1 X136.441 Y117.45 E.34798
M73 P6 R5
G1 X136.441 Y118.104 E.02522
G1 X129.396 Y111.059 E.38364
G1 X128.741 Y111.059 E.02522
G1 X136.441 Y118.759 E.4193
G1 X136.441 Y119.414 E.02522
G1 X128.086 Y111.059 E.45496
G1 X127.431 Y111.059 E.02522
G1 X136.441 Y120.069 E.49063
G1 X136.441 Y120.724 E.02522
G1 X126.776 Y111.059 E.52629
G1 X126.121 Y111.059 E.02522
G1 X136.441 Y121.379 E.56195
M73 P7 R5
G1 X136.429 Y122.022 E.02476
G1 X125.466 Y111.059 E.59695
G1 X124.811 Y111.059 E.02522
G1 X136.333 Y122.58 E.62737
G1 X136.173 Y122.966 E.01607
G1 X136.125 Y123.028 E.00301
G1 X124.157 Y111.059 E.65175
G1 X123.502 Y111.059 E.02522
G1 X135.834 Y123.391 E.67151
M73 P8 R5
G1 X135.462 Y123.675 E.01799
G1 X122.847 Y111.059 E.68696
G1 X122.192 Y111.059 E.02522
G1 X134.999 Y123.866 E.69739
G1 X134.419 Y123.941 E.02252
G1 X121.537 Y111.059 E.70147
G1 X120.882 Y111.059 E.02522
G1 X133.764 Y123.941 E.70147
M73 P9 R5
G1 X133.109 Y123.941 E.02522
G1 X120.227 Y111.059 E.70147
G1 X119.572 Y111.059 E.02522
G1 X132.454 Y123.941 E.70147
G1 X131.799 Y123.941 E.02522
G1 X118.918 Y111.059 E.70147
G1 X118.263 Y111.059 E.02522
G1 X131.145 Y123.941 E.70147
M73 P10 R5
G1 X130.49 Y123.941 E.02522
G1 X117.608 Y111.059 E.70147
G1 X116.953 Y111.059 E.02522
G1 X129.835 Y123.941 E.70147
G1 X129.18 Y123.941 E.02522
G1 X116.298 Y111.059 E.70147
M73 P11 R5
G1 X115.643 Y111.059 E.02522
G1 X128.525 Y123.941 E.70147
G1 X127.87 Y123.941 E.02522
G1 X114.988 Y111.059 E.70147
G1 X114.333 Y111.059 E.02522
G1 X127.215 Y123.941 E.70147
G1 X126.56 Y123.941 E.02522
G1 X113.679 Y111.059 E.70147
M73 P12 R5
G1 X113.024 Y111.059 E.02522
G1 X125.906 Y123.941 E.70147
G1 X125.251 Y123.941 E.02522
G1 X112.369 Y111.059 E.70147
G1 X111.714 Y111.059 E.02522
G1 X124.596 Y123.941 E.70147
G1 X123.941 Y123.941 E.02522
G1 X111.059 Y111.059 E.70147
M73 P13 R5
G1 X110.404 Y111.059 E.02522
G1 X123.286 Y123.941 E.70147
G1 X122.631 Y123.941 E.02522
G1 X109.749 Y111.059 E.70147
G1 X109.094 Y111.059 E.02522
G1 X121.976 Y123.941 E.70147
G1 X121.321 Y123.941 E.02522
G1 X108.439 Y111.059 E.70147
M73 P14 R5
G1 X107.785 Y111.059 E.02522
G1 X120.667 Y123.941 E.70147
G1 X120.012 Y123.941 E.02522
G1 X107.13 Y111.059 E.70147
G1 X106.475 Y111.059 E.02522
G1 X119.357 Y123.941 E.70147
G1 X118.702 Y123.941 E.02522
G1 X105.82 Y111.059 E.70147
M73 P15 R5
G1 X105.165 Y111.059 E.02522
G1 X118.047 Y123.941 E.70147
G1 X117.392 Y123.941 E.02522
G1 X104.51 Y111.059 E.70147
G1 X103.855 Y111.059 E.02522
G1 X116.737 Y123.941 E.70147
M73 P16 R5
G1 X116.082 Y123.941 E.02522
G1 X103.2 Y111.059 E.70147
G1 X102.546 Y111.059 E.02522
G1 X115.427 Y123.941 E.70147
G1 X114.773 Y123.941 E.02522
G1 X101.891 Y111.059 E.70147
G1 X101.236 Y111.059 E.02522
G1 X114.118 Y123.941 E.70147
M73 P17 R5
G1 X113.463 Y123.941 E.02522
G1 X100.569 Y111.059 E.70178
G1 X100.001 Y111.134 E.02208
G1 X112.808 Y123.941 E.69739
G1 X112.153 Y123.941 E.02522
G1 X99.538 Y111.326 E.68696
G1 X99.166 Y111.609 E.01799
G1 X111.498 Y123.941 E.67151
M73 P18 R5
G1 X110.843 Y123.941 E.02522
G1 X98.875 Y111.972 E.65174
G1 X98.827 Y112.034 E.00301
G1 X98.667 Y112.42 E.01607
G1 X110.188 Y123.941 E.62737
M73 P18 R4
G1 X109.534 Y123.941 E.02522
G1 X98.571 Y112.978 E.59695
G1 X98.559 Y113.621 E.02476
G1 X108.879 Y123.941 E.56194
M73 P19 R4
G1 X108.224 Y123.941 E.02522
G1 X98.559 Y114.276 E.52628
G1 X98.559 Y114.931 E.02522
G1 X107.569 Y123.941 E.49062
G1 X106.914 Y123.941 E.02522
G1 X98.559 Y115.586 E.45496
G1 X98.559 Y116.241 E.02522
G1 X106.259 Y123.941 E.4193
G1 X105.604 Y123.941 E.02522
G1 X98.559 Y116.896 E.38364
G1 X98.559 Y117.551 E.02522
G1 X104.949 Y123.941 E.34798
M73 P20 R4
G1 X104.295 Y123.941 E.02522
G1 X98.559 Y118.205 E.31232
G1 X98.559 Y118.86 E.02522
G1 X103.64 Y123.941 E.27666
G1 X102.985 Y123.941 E.02522
G1 X98.559 Y119.515 E.241
G1 X98.559 Y120.17 E.02522
G1 X102.33 Y123.941 E.20534
G1 X101.675 Y123.941 E.02522
G1 X98.559 Y120.825 E.16968
G1 X98.559 Y121.48 E.02522
G1 X101.02 Y123.941 E.13402
G1 X100.569 Y123.941 E.01736
G1 X100.334 Y123.91 E.00913
G1 X98.59 Y122.166 E.09498
G1 X98.634 Y122.5 E.01298
G1 X98.827 Y122.966 E.01942
G1 X99.129 Y123.36 E.01912
G1 X99.758 Y123.988 E.03422
; stop printing object retraction_tower.stl id:0 copy 0
EXCLUDE_OBJECT_END NAME=retraction_tower_stl_id_0_copy_0
M106 S255
;LAYER_CHANGE
;Z:0.4
;HEIGHT:0.2
;BEFORE_LAYER_CHANGE
;0.4
G92 E0

;WIPE_START
G1 F1200
G1 X99.129 Y123.36
G1 X99.062 Y123.272
;WIPE_END
;_SET_FAN_SPEED_CHANGING_LAYER
; Calib_Retraction_tower: Z_HEIGHT: 0.4, length:0
M140 S35 ; set bed temperature
; printing object retraction_tower.stl id:0 copy 0
EXCLUDE_OBJECT_START NAME=retraction_tower_stl_id_0_copy_0
G1 X136.59 Y123.206 Z.4 F9000
;TYPE:Inner wall
;WIDTH:0.449999
G1 F2358.264
G1 X136.206 Y123.706 E.02132
G1 X135.706 Y124.09 E.02132
G1 X135.125 Y124.331 E.02132
G1 X134.462 Y124.418 E.02262
G1 X100.538 Y124.418 E1.14827
M73 P21 R4
G1 X99.876 Y124.331 E.02262
G1 X99.294 Y124.09 E.02132
G1 X98.794 Y123.706 E.02132
G1 X98.41 Y123.206 E.02132
G1 X98.169 Y122.625 E.02132
G1 X98.082 Y121.962 E.02262
G1 X98.082 Y113.038 E.30206
G1 X98.169 Y112.376 E.02262
G1 X98.41 Y111.794 E.02132
G1 X98.794 Y111.294 E.02132
G1 X99.294 Y110.91 E.02132
G1 X99.876 Y110.669 E.02132
G1 X100.538 Y110.582 E.02262
G1 X134.462 Y110.582 E1.14827
G1 X135.125 Y110.669 E.02262
G1 X135.706 Y110.91 E.02132
G1 X136.206 Y111.294 E.02132
G1 X136.59 Y111.794 E.02132
G1 X136.831 Y112.375 E.02132
G1 X136.918 Y113.21 E.02841
G1 X136.918 Y121.962 E.29623
G1 X136.831 Y122.625 E.02262
G1 X136.605 Y123.169 E.01997
G1 X136.923 Y123.399 F9000
;TYPE:Outer wall
;WIDTH:0.399999
G1 F1500
G1 X136.479 Y123.979 E.02169
G1 X135.899 Y124.423 E.02169
G1 X135.224 Y124.703 E.02169
G1 X134.487 Y124.8 E.02208
G1 X100.513 Y124.8 E1.00872
M73 P22 R4
G1 X99.776 Y124.703 E.02208
G1 X99.101 Y124.423 E.02169
G1 X98.521 Y123.979 E.02169
G1 X98.077 Y123.399 E.02169
G1 X97.797 Y122.724 E.02169
G1 X97.7 Y121.987 E.02208
G1 X97.7 Y113.013 E.26644
G1 X97.797 Y112.276 E.02208
G1 X98.077 Y111.601 E.02169
G1 X98.521 Y111.021 E.02169
G1 X99.101 Y110.577 E.02169
G1 X99.776 Y110.297 E.02169
G1 X100.513 Y110.2 E.02208
G1 X134.487 Y110.2 E1.00872
G1 X135.224 Y110.297 E.02208
G1 X135.899 Y110.577 E.02169
G1 X136.479 Y111.021 E.02169
G1 X136.923 Y111.601 E.02169
G1 X137.203 Y112.276 E.02169
G1 X137.3 Y113.21 E.0279
G1 X137.3 Y121.987 E.26058
G1 X137.203 Y122.724 E.02208
G1 X136.939 Y123.362 E.0205
G1 X136.752 Y122.246 F9000
;TYPE:Internal solid infill
;WIDTH:0.400161
G1 F2400
G1 X134.933 Y124.065 E.07641
G1 X134.363 Y124.129 E.01703
G1 X136.629 Y121.863 E.09521
G1 X136.629 Y121.358 E.01501
G1 X133.858 Y124.129 E.11644
G1 X133.353 Y124.129 E.01501
G1 X136.629 Y120.853 E.13766
G1 X136.629 Y120.347 E.01501
G1 X132.847 Y124.129 E.15888
G1 X132.342 Y124.129 E.01501
G1 X136.629 Y119.842 E.18011
M73 P23 R4
G1 X136.629 Y119.337 E.01501
G1 X131.837 Y124.129 E.20133
G1 X131.332 Y124.129 E.01501
G1 X136.629 Y118.832 E.22255
G1 X136.629 Y118.326 E.01501
G1 X130.826 Y124.129 E.24378
G1 X130.321 Y124.129 E.01501
G1 X136.629 Y117.821 E.265
G1 X136.629 Y117.316 E.01501
G1 X129.816 Y124.129 E.28622
G1 X129.311 Y124.129 E.01501
G1 X136.629 Y116.811 E.30745
G1 X136.629 Y116.306 E.01501
G1 X128.806 Y124.129 E.32867
G1 X128.3 Y124.129 E.01501
G1 X136.629 Y115.8 E.34989
G1 X136.629 Y115.295 E.01501
G1 X127.795 Y124.129 E.37112
G1 X127.29 Y124.129 E.01501
G1 X136.629 Y114.79 E.39234
G1 X136.629 Y114.285 E.01501
G1 X126.785 Y124.129 E.41356
M73 P24 R4
G1 X126.28 Y124.129 E.01501
G1 X136.629 Y113.78 E.43479
G1 X136.629 Y113.274 E.01501
G1 X125.774 Y124.129 E.45601
G1 X125.269 Y124.129 E.01501
G1 X136.596 Y112.803 E.47583
G1 X136.55 Y112.451 E.01054
G1 X136.518 Y112.375 E.00243
G1 X124.764 Y124.129 E.49379
G1 X124.259 Y124.129 E.01501
G1 X136.37 Y112.018 E.5088
G1 X136.338 Y111.939 E.00253
G1 X136.167 Y111.716 E.00834
G1 X123.753 Y124.129 E.52147
G1 X123.248 Y124.129 E.01501
G1 X135.931 Y111.446 E.5328
M73 P25 R4
G1 X135.645 Y111.227 E.0107
G1 X122.743 Y124.129 E.54201
G1 X122.238 Y124.129 E.01501
G1 X135.309 Y111.058 E.54911
G1 X135.049 Y110.95 E.00836
G1 X134.928 Y110.934 E.00364
G1 X121.733 Y124.129 E.55431
G1 X121.227 Y124.129 E.01501
G1 X134.481 Y110.876 E.55678
G1 X133.981 Y110.871 E.01486
G1 X120.722 Y124.129 E.55699
G1 X120.217 Y124.129 E.01501
G1 X133.476 Y110.871 E.55699
G1 X132.971 Y110.871 E.01501
G1 X119.712 Y124.129 E.55699
M73 P26 R4
G1 X119.207 Y124.129 E.01501
G1 X132.465 Y110.871 E.55699
G1 X131.96 Y110.871 E.01501
G1 X118.701 Y124.129 E.55699
G1 X118.196 Y124.129 E.01501
G1 X131.455 Y110.871 E.55699
G1 X130.95 Y110.871 E.01501
G1 X117.691 Y124.129 E.55699
G1 X117.186 Y124.129 E.01501
G1 X130.445 Y110.871 E.55699
G1 X129.939 Y110.871 E.01501
G1 X116.68 Y124.129 E.55699
G1 X116.175 Y124.129 E.01501
G1 X129.434 Y110.871 E.55699
M73 P27 R4
G1 X128.929 Y110.871 E.01501
G1 X115.67 Y124.129 E.55699
G1 X115.165 Y124.129 E.01501
G1 X128.424 Y110.871 E.55699
G1 X127.919 Y110.871 E.01501
G1 X114.66 Y124.129 E.55699
G1 X114.154 Y124.129 E.01501
G1 X127.413 Y110.871 E.55699
G1 X126.908 Y110.871 E.01501
G1 X113.649 Y124.129 E.55699
G1 X113.144 Y124.129 E.01501
G1 X126.403 Y110.871 E.55699
M73 P28 R4
G1 X125.898 Y110.871 E.01501
G1 X112.639 Y124.129 E.55699
G1 X112.134 Y124.129 E.01501
G1 X125.392 Y110.871 E.55699
G1 X124.887 Y110.871 E.01501
G1 X111.628 Y124.129 E.55699
G1 X111.123 Y124.129 E.01501
G1 X124.382 Y110.871 E.55699
G1 X123.877 Y110.871 E.01501
G1 X110.618 Y124.129 E.55699
G1 X110.113 Y124.129 E.01501
G1 X123.372 Y110.871 E.55699
G1 X122.866 Y110.871 E.01501
G1 X109.607 Y124.129 E.55699
M73 P29 R4
G1 X109.102 Y124.129 E.01501
G1 X122.361 Y110.871 E.55699
G1 X121.856 Y110.871 E.01501
G1 X108.597 Y124.129 E.55699
G1 X108.092 Y124.129 E.01501
G1 X121.351 Y110.871 E.55699
G1 X120.846 Y110.871 E.01501
G1 X107.587 Y124.129 E.55699
G1 X107.081 Y124.129 E.01501
G1 X120.34 Y110.871 E.55699
G1 X119.835 Y110.871 E.01501
G1 X106.576 Y124.129 E.55699
G1 X106.071 Y124.129 E.01501
G1 X119.33 Y110.871 E.55699
M73 P30 R4
G1 X118.825 Y110.871 E.01501
G1 X105.566 Y124.129 E.55699
G1 X105.061 Y124.129 E.01501
G1 X118.319 Y110.871 E.55699
G1 X117.814 Y110.871 E.01501
G1 X104.555 Y124.129 E.55699
G1 X104.05 Y124.129 E.01501
G1 X117.309 Y110.871 E.55699
G1 X116.804 Y110.871 E.01501
G1 X103.545 Y124.129 E.55699
G1 X103.04 Y124.129 E.01501
G1 X116.299 Y110.871 E.55699
M73 P31 R4
G1 X115.793 Y110.871 E.01501
G1 X102.534 Y124.129 E.55699
G1 X102.029 Y124.129 E.01501
G1 X115.288 Y110.871 E.55699
G1 X114.783 Y110.871 E.01501
G1 X101.524 Y124.129 E.55699
G1 X101.019 Y124.129 E.01501
G1 X114.278 Y110.871 E.55699
G1 X113.773 Y110.871 E.01501
G1 X100.519 Y124.124 E.55678
G1 X100.072 Y124.066 E.01338
G1 X113.267 Y110.871 E.55431
G1 X112.762 Y110.871 E.01501
G1 X99.691 Y123.942 E.54911
M73 P32 R4
G1 X99.439 Y123.838 E.00809
G1 X99.355 Y123.773 E.00316
G1 X112.257 Y110.871 E.54201
G1 X111.752 Y110.871 E.01501
G1 X99.069 Y123.554 E.5328
G1 X99 Y123.5 E.00259
G1 X98.833 Y123.284 E.00811
G1 X111.246 Y110.871 E.52146
G1 X110.741 Y110.871 E.01501
G1 X98.63 Y122.982 E.50879
G1 X98.482 Y122.625 E.01149
G1 X110.236 Y110.871 E.49379
G1 X109.731 Y110.871 E.01501
G1 X98.404 Y122.197 E.47583
G1 X98.371 Y121.943 E.00762
G1 X98.371 Y121.726 E.00646
G1 X109.226 Y110.871 E.45601
M73 P33 R4
G1 X108.72 Y110.871 E.01501
G1 X98.371 Y121.22 E.43478
