; HEADER_BLOCK_START
; generated by OrcaSlicer 1.9.1 on 2024-04-23 at 20:58:38
; total layer number: 50
; filament_density: 1.24
; filament_diameter: 1.75
; max_z_height: 10.00
; HEADER_BLOCK_END

; THUMBNAIL_BLOCK_START

;
; THUMBNAIL_BLOCK_END

; external perimeters extrusion width = 0.40mm
; perimeters extrusion width = 0.45mm
; infill extrusion width = 0.45mm
; solid infill extrusion width = 0.40mm
; top infill extrusion width = 0.40mm
; support material extrusion width = 0.40mm
; first layer extrusion width = 0.50mm

; external perimeters extrusion width = 0.40mm
; perimeters extrusion width = 0.45mm
; infill extrusion width = 0.45mm
; solid infill extrusion width = 0.40mm
; top infill extrusion width = 0.40mm
; support material extrusion width = 0.40mm
; first layer extrusion width = 0.50mm

; EXECUTABLE_BLOCK_START


; Pre-Processed for Cancel-Object support by preprocess_cancellation v0.2.0
; 2 known objects
EXCLUDE_OBJECT_DEFINE NAME=sma_cover2_stl_id_3555908776453484086_copy_0 CENTER=127.473,117.869 POLYGON=[[123.69,114.133],[123.69,121.731],[131.288,121.731],[131.288,114.133]]
EXCLUDE_OBJECT_DEFINE NAME=sma_cover2_stl_id_0_copy_0 CENTER=107.541,117.064 POLYGON=[[103.712,113.271],[103.712,120.868],[111.31,120.868],[111.31,113.271]]
M73 P0 R9
;TYPE:Custom
M104 S0 ; Stops OrcaSlicer from sending temp waits separately
M140 S0
print_start EXTRUDER=215 BED=35 CHAMBER=0
G90
G21
M83 ; use relative distances for extrusion
; filament start gcode
SET_PRESSURE_ADVANCE ADVANCE=0.16; Override pressure advance value
M106 S0
;LAYER_CHANGE
;Z:0.2
;HEIGHT:0.2
;BEFORE_LAYER_CHANGE
;0.2
G92 E0

G1 E-.8 F1800
;_SET_FAN_SPEED_CHANGING_LAYER
SET_VELOCITY_LIMIT ACCEL=500 ACCEL_TO_DECEL=250
G1 X102.772 Y112.684 F15000
G1 Z.2
G1 E.8 F1800
;TYPE:Skirt
;WIDTH:0.5
G1 F2100.29
G1 X103.638 Y111.903 E.04432
G1 X104.536 Y111.339 E.04029
G1 X105.624 Y110.895 E.04465
G1 X106.65 Y110.671 E.03995
G1 X107.815 Y110.621 E.04432
G1 X127.802 Y111.482 E.76031
G1 X128.951 Y111.643 E.04411
G1 X129.803 Y111.904 E.03386
G1 X130.993 Y112.509 E.05074
G1 X131.837 Y113.159 E.04049
G1 X132.722 Y114.151 E.05053
G1 X133.388 Y115.308 E.05074
G1 X133.764 Y116.412 E.04432
G1 X133.942 Y117.735 E.05073
G1 X133.844 Y119.066 E.05074
G1 X133.573 Y120.091 E.04029
G1 X133.218 Y120.908 E.03386
G1 X132.753 Y121.668 E.03386
G1 X132.189 Y122.357 E.03386
G1 X131.535 Y122.962 E.03386
G1 X130.804 Y123.471 E.03386
G1 X130.01 Y123.875 E.03386
G1 X129.167 Y124.165 E.03386
G1 X128.293 Y124.337 E.03386
G1 X127.128 Y124.377 E.04432
G1 X107.255 Y123.521 E.75599
G1 X106.102 Y123.37 E.04419
G1 X105.248 Y123.116 E.03386
G1 X104.289 Y122.665 E.04029
G1 X103.329 Y121.988 E.04465
G1 X102.586 Y121.245 E.03995
G1 X101.911 Y120.283 E.04465
G1 X101.462 Y119.329 E.04008
G1 X101.127 Y118.04 E.05061
G1 X101.057 Y116.876 E.04432
G1 X101.177 Y115.817 E.0405
G1 X101.503 Y114.703 E.04411
G1 X102.118 Y113.519 E.05074
G1 X102.747 Y112.716 E.03877
; printing object sma-cover2.stl id:3555908776453484086 copy 0
EXCLUDE_OBJECT_START NAME=sma_cover2_stl_id_3555908776453484086_copy_0
G1 E-.8 F1800
;WIPE_START
G1 F2100.29
G1 X103.486 Y112.042
;WIPE_END
G1 X129.861 Y115.03 F15000
G1 E.8 F1800
;TYPE:Outer wall
G1 F900
G1 X129.976 Y115.125 E.00565
G1 X130.338 Y115.493 E.01962
G1 X130.649 Y115.912 E.01983
G1 X130.776 Y116.128 E.00951
G1 X130.996 Y116.605 E.01999
G1 X131.077 Y116.842 E.0095
G1 X131.194 Y117.356 E.02003
G1 X131.238 Y117.87 E.01962
G1 X131.234 Y118.121 E.00951
G1 X131.17 Y118.643 E.01999
G1 X131.115 Y118.887 E.00951
G1 X130.945 Y119.385 E.01999
G1 X130.716 Y119.839 E.01934
G1 X130.42 Y120.269 E.01983
G1 X130.067 Y120.653 E.01983
G1 X129.88 Y120.819 E.00951
G1 X129.453 Y121.125 E.01999
G1 X129.235 Y121.249 E.00951
G1 X128.754 Y121.461 E.01999
G1 X128.515 Y121.537 E.00951
G1 X128.001 Y121.646 E.01999
G1 X127.752 Y121.671 E.00951
G1 X127.226 Y121.671 E.01999
G1 X126.977 Y121.646 E.00951
G1 X126.462 Y121.537 E.01999
G1 X126.219 Y121.459 E.00972
G1 X125.742 Y121.249 E.01979
G1 X125.525 Y121.125 E.00951
G1 X125.101 Y120.822 E.01982
G1 X124.722 Y120.461 E.01987
G1 X124.4 Y120.057 E.01962
G1 X124.141 Y119.62 E.01934
G1 X123.939 Y119.139 E.01983
G1 X123.806 Y118.634 E.01983
G1 X123.744 Y118.129 E.01934
G1 X123.753 Y117.604 E.01999
G1 X123.784 Y117.35 E.00972
G1 X123.9 Y116.847 E.01962
G1 X124.085 Y116.358 E.01987
G1 X124.333 Y115.905 E.01962
G1 X124.64 Y115.493 E.01954
G1 X125.005 Y115.122 E.01978
G1 X125.203 Y114.959 E.00972
G1 X125.633 Y114.673 E.01962
G1 X126.103 Y114.447 E.01983
G1 X126.338 Y114.362 E.00951
G1 X126.849 Y114.236 E.01999
G1 X127.097 Y114.202 E.00951
G1 X127.623 Y114.184 E.02003
G1 X128.137 Y114.238 E.01962
G1 X128.382 Y114.289 E.00951
G1 X128.883 Y114.45 E.01999
M73 P1 R9
G1 X129.116 Y114.552 E.00967
G1 X129.341 Y114.671 E.00967
G1 X129.779 Y114.962 E.01999
G1 X129.83 Y115.005 E.00254
G1 X129.57 Y115.382 F15000
;TYPE:Inner wall
G1 F900
M106 S0
G1 X129.666 Y115.462 E.00476
G1 X129.989 Y115.791 E.01753
G1 X130.268 Y116.166 E.01773
G1 X130.371 Y116.34 E.00771
G1 X130.571 Y116.775 E.01819
G1 X130.636 Y116.967 E.00769
G1 X130.741 Y117.427 E.01793
G1 X130.781 Y117.886 E.01753
G1 X130.777 Y118.089 E.00771
G1 X130.719 Y118.564 E.01819
G1 X130.674 Y118.762 E.00771
G1 X130.52 Y119.215 E.01819
G1 X130.327 Y119.599 E.01634
G1 X130.062 Y119.983 E.01773
G1 X129.747 Y120.327 E.01773
G1 X129.595 Y120.461 E.00771
G1 X129.206 Y120.74 E.01819
G1 X129.029 Y120.84 E.00771
G1 X128.591 Y121.033 E.01819
G1 X128.398 Y121.095 E.00771
G1 X127.93 Y121.193 E.01819
G1 X127.728 Y121.214 E.00771
G1 X127.249 Y121.214 E.01819
G1 X127.048 Y121.193 E.00771
G1 X126.58 Y121.095 E.01817
G1 X126.382 Y121.031 E.00791
G1 X125.948 Y120.84 E.018
G1 X125.772 Y120.74 E.00771
G1 X125.393 Y120.469 E.01771
G1 X125.06 Y120.152 E.01746
G1 X124.773 Y119.791 E.01753
G1 X124.553 Y119.421 E.01634
G1 X124.373 Y118.991 E.01773
G1 X124.253 Y118.54 E.01773
G1 X124.202 Y118.114 E.01634
G1 X124.21 Y117.635 E.01817
G1 X124.235 Y117.429 E.00791
G1 X124.338 Y116.979 E.01752
G1 X124.501 Y116.55 E.01747
G1 X124.723 Y116.145 E.01753
G1 X124.983 Y115.796 E.01653
G1 X125.314 Y115.459 E.01798
G1 X125.475 Y115.327 E.00792
G1 X125.859 Y115.071 E.01753
G1 X126.28 Y114.869 E.01773
G1 X126.471 Y114.8 E.00771
G1 X126.935 Y114.686 E.01819
G1 X127.136 Y114.658 E.0077
G1 X127.607 Y114.642 E.01793
G1 X128.066 Y114.69 E.01753
G1 X128.265 Y114.732 E.00771
G1 X128.72 Y114.878 E.01819
G1 X128.917 Y114.964 E.00817
G1 X129.108 Y115.064 E.00817
G1 X129.506 Y115.329 E.01817
G1 X129.539 Y115.357 E.00163
G1 X129.239 Y115.702 F15000
G1 F900
G1 X129.641 Y116.089 E.02121
G1 X129.886 Y116.419 E.01563
G1 X130.146 Y116.945 E.02227
G1 X130.288 Y117.497 E.02169
G1 X130.32 Y118.058 E.02133
G1 X130.268 Y118.486 E.01639
G1 X130.095 Y119.045 E.02227
G1 X129.937 Y119.359 E.01334
G1 X129.704 Y119.697 E.01562
G1 X129.309 Y120.103 E.02151
G1 X128.824 Y120.431 E.02227
G1 X128.281 Y120.652 E.02227
G1 X127.704 Y120.757 E.02228
G1 X127.118 Y120.741 E.02227
G1 X126.697 Y120.653 E.01636
G1 X126.544 Y120.603 E.00611
G1 X126.019 Y120.354 E.0221
G1 X125.685 Y120.115 E.0156
G1 X125.398 Y119.842 E.01506
G1 X125.145 Y119.525 E.01544
G1 X124.966 Y119.223 E.01335
G1 X124.807 Y118.844 E.01562
G1 X124.701 Y118.446 E.01562
G1 X124.659 Y118.098 E.01334
G1 X124.667 Y117.667 E.01636
G1 X124.686 Y117.508 E.00611
G1 X124.777 Y117.112 E.01542
G1 X124.917 Y116.742 E.01507
G1 X125.113 Y116.385 E.01544
G1 X125.325 Y116.1 E.01352
G1 X125.623 Y115.797 E.01618
G1 X125.748 Y115.694 E.00612
G1 X126.086 Y115.469 E.01544
G1 X126.457 Y115.291 E.01563
G1 X127.022 Y115.135 E.02228
G1 X127.591 Y115.1 E.02169
G1 X127.995 Y115.142 E.01544
G1 X128.558 Y115.306 E.02228
G1 X128.719 Y115.377 E.00667
G1 X128.874 Y115.458 E.00667
G1 X129.206 Y115.679 E.01516
G1 X128.96 Y116.064 F15000
G1 F900
G1 X129.293 Y116.387 E.01764
G1 X129.505 Y116.673 E.01353
G1 X129.721 Y117.114 E.01868
G1 X129.836 Y117.568 E.01778
G1 X129.864 Y118.026 E.01745
G1 X129.818 Y118.407 E.01459
G1 X129.67 Y118.876 E.01868
G1 X129.548 Y119.119 E.01034
G1 X129.345 Y119.412 E.01352
G1 X129.024 Y119.745 E.01761
G1 X128.618 Y120.022 E.01868
G1 X128.164 Y120.21 E.01868
G1 X127.681 Y120.3 E.01868
G1 X127.189 Y120.289 E.01868
G1 X126.707 Y120.175 E.01884
G1 X126.265 Y119.969 E.01852
G1 X125.977 Y119.762 E.01349
G1 X125.736 Y119.533 E.01265
G1 X125.517 Y119.258 E.01334
G1 X125.378 Y119.024 E.01035
G1 X125.24 Y118.696 E.01352
G1 X125.149 Y118.352 E.01352
G1 X125.117 Y118.082 E.01034
G1 X125.137 Y117.587 E.01884
G1 X125.215 Y117.245 E.01332
G1 X125.334 Y116.934 E.01266
G1 X125.502 Y116.626 E.01334
G1 X125.667 Y116.404 E.01051
G1 X126.02 Y116.062 E.01868
G1 X126.313 Y115.868 E.01335
G1 X126.634 Y115.713 E.01353
G1 X127.108 Y115.585 E.01868
G1 X127.575 Y115.558 E.01778
G1 X127.924 Y115.594 E.01334
G1 X128.396 Y115.734 E.01869
G1 X128.52 Y115.789 E.00517
G1 X128.926 Y116.043 E.01818
G1 X128.21 Y115.831 F15000
;TYPE:Bottom surface
;WIDTH:0.542138
G1 F1200
G1 X129.113 Y116.734 E.053
G1 X129.203 Y116.856 E.00632
G1 X129.389 Y117.236 E.01753
G1 X129.486 Y117.622 E.01654
G1 X129.499 Y117.826 E.00849
G1 X127.585 Y115.913 E.11234
G1 X127.165 Y115.934 E.01747
G1 X126.957 Y115.99 E.00895
G1 X129.431 Y118.464 E.14522
G1 X129.343 Y118.743 E.01214
G1 X129.226 Y118.965 E.01043
G1 X126.456 Y116.195 E.16262
G1 X126.242 Y116.337 E.01066
G1 X126.064 Y116.51 E.01028
G1 X128.911 Y119.356 E.1671
G1 X128.796 Y119.475 E.00687
G1 X128.515 Y119.667 E.0141
G1 X125.752 Y116.903 E.16224
G1 X125.654 Y117.081 E.00844
G1 X125.553 Y117.347 E.01181
G1 X125.541 Y117.398 E.00218
G1 X128.021 Y119.879 E.14559
G1 X127.652 Y119.947 E.01558
G1 X127.378 Y119.941 E.01139
G1 X125.471 Y118.034 E.11195
G1 X125.496 Y118.285 E.01048
G1 X125.574 Y118.582 E.01275
G1 X125.693 Y118.865 E.01275
G1 X125.807 Y119.058 E.00929
G1 X125.881 Y119.15 E.00491
G1 X126.771 Y120.04 E.05224
; stop printing object sma-cover2.stl id:3555908776453484086 copy 0
EXCLUDE_OBJECT_END NAME=sma_cover2_stl_id_3555908776453484086_copy_0
; printing object sma-cover2.stl id:0 copy 0
EXCLUDE_OBJECT_START NAME=sma_cover2_stl_id_0_copy_0
G1 E-.8 F1800
;WIPE_START
G1 F1200
G1 X126.064 Y119.333
;WIPE_END
M73 P2 R9
G1 X110.296 Y119.569 F15000
G1 E.8 F1800
;TYPE:Outer wall
;WIDTH:0.5
G1 F900
G1 X110.204 Y119.678 E.0054
G1 X110.02 Y119.855 E.00972
G1 X109.614 Y120.174 E.01962
G1 X109.162 Y120.436 E.01983
G1 X108.934 Y120.538 E.00951
G1 X108.435 Y120.704 E.01999
G1 X108.19 Y120.757 E.00951
G1 X107.668 Y120.816 E.01999
G1 X107.413 Y120.818 E.00967
G1 X107.154 Y120.802 E.00988
G1 X106.64 Y120.717 E.01978
G1 X106.394 Y120.649 E.00972
G1 X105.909 Y120.46 E.01979
G1 X105.686 Y120.346 E.00951
G1 X105.246 Y120.058 E.01999
G1 X105.047 Y119.897 E.00972
G1 X104.683 Y119.532 E.01962
G1 X104.368 Y119.116 E.01982
G1 X104.236 Y118.897 E.00972
G1 X104.014 Y118.426 E.01978
G1 X103.93 Y118.184 E.00972
G1 X103.81 Y117.678 E.01979
G1 X103.778 Y117.429 E.00951
G1 X103.764 Y116.908 E.01982
G1 X103.823 Y116.389 E.01987
G1 X103.952 Y115.888 E.01962
G1 X104.04 Y115.65 E.00967
G1 X104.147 Y115.413 E.00988
G1 X104.409 Y114.963 E.01979
G1 X104.556 Y114.761 E.00951
G1 X104.908 Y114.37 E.01999
G1 X105.098 Y114.199 E.00972
G1 X105.515 Y113.895 E.01962
G1 X105.975 Y113.648 E.01983
G1 X106.211 Y113.552 E.00967
G1 X106.458 Y113.471 E.00988
G1 X106.966 Y113.36 E.01979
G1 X107.215 Y113.332 E.00951
G1 X107.737 Y113.327 E.01983
G1 X108.254 Y113.394 E.01983
G1 X108.497 Y113.452 E.00951
G1 X108.99 Y113.624 E.01983
G1 X109.454 Y113.863 E.01983
G1 X109.667 Y114.002 E.00967
G1 X109.874 Y114.159 E.00988
G1 X110.254 Y114.514 E.01978
G1 X110.422 Y114.707 E.00972
G1 X110.719 Y115.13 E.01962
G1 X110.957 Y115.594 E.01983
G1 X111.048 Y115.827 E.00951
G1 X111.187 Y116.335 E.02003
G1 X111.253 Y116.847 E.01962
G1 X111.26 Y117.098 E.00951
G1 X111.219 Y117.622 E.01999
G1 X111.174 Y117.868 E.00951
G1 X111.027 Y118.369 E.01983
G1 X110.813 Y118.845 E.01983
G1 X110.685 Y119.065 E.00967
G1 X110.539 Y119.28 E.00988
G1 X110.322 Y119.538 E.01286
G1 X109.946 Y119.275 F15000
;TYPE:Inner wall
G1 F900
M106 S0
G1 X109.87 Y119.365 E.00449
G1 X109.72 Y119.51 E.00792
G1 X109.357 Y119.794 E.01753
G1 X108.953 Y120.029 E.01773
G1 X108.768 Y120.112 E.00771
G1 X108.314 Y120.262 E.01819
G1 X108.116 Y120.306 E.00771
G1 X107.64 Y120.359 E.01819
G1 X107.426 Y120.361 E.00816
G1 X107.206 Y120.347 E.00838
G1 X106.739 Y120.27 E.01798
G1 X106.538 Y120.215 E.00792
G1 X106.097 Y120.043 E.018
G1 X105.916 Y119.95 E.00771
G1 X105.516 Y119.689 E.01817
G1 X105.354 Y119.557 E.00791
G1 X105.028 Y119.231 E.01753
G1 X104.747 Y118.859 E.01771
G1 X104.64 Y118.681 E.00791
G1 X104.438 Y118.253 E.01798
G1 X104.37 Y118.056 E.00792
G1 X104.26 Y117.595 E.018
G1 X104.234 Y117.394 E.00771
G1 X104.222 Y116.928 E.01771
G1 X104.274 Y116.471 E.01746
G1 X104.388 Y116.025 E.01753
G1 X104.463 Y115.823 E.00816
G1 X104.554 Y115.622 E.00838
G1 X104.792 Y115.213 E.018
G1 X104.911 Y115.049 E.00771
G1 X105.231 Y114.694 E.01817
G1 X105.386 Y114.555 E.00791
G1 X105.759 Y114.283 E.01753
G1 X106.17 Y114.063 E.01773
G1 X106.369 Y113.981 E.00816
G1 X106.578 Y113.912 E.00838
G1 X107.041 Y113.811 E.018
G1 X107.243 Y113.788 E.00771
G1 X107.709 Y113.784 E.01773
G1 X108.172 Y113.845 E.01773
G1 X108.369 Y113.891 E.00771
G1 X108.809 Y114.045 E.01773
G1 X109.224 Y114.259 E.01773
G1 X109.404 Y114.376 E.00816
G1 X109.579 Y114.509 E.00838
G1 X109.925 Y114.832 E.01798
G1 X110.062 Y114.989 E.00792
G1 X110.327 Y115.367 E.01753
G1 X110.54 Y115.782 E.01773
G1 X110.613 Y115.97 E.0077
G1 X110.738 Y116.426 E.01793
G1 X110.797 Y116.883 E.01753
G1 X110.802 Y117.086 E.00771
G1 X110.765 Y117.563 E.01819
G1 X110.729 Y117.763 E.00771
G1 X110.598 Y118.21 E.01773
G1 X110.406 Y118.635 E.01772
G1 X110.298 Y118.821 E.00816
G1 X110.174 Y119.003 E.00838
G1 X109.972 Y119.244 E.01197
G1 X109.596 Y118.981 F15000
G1 F900
G1 X109.536 Y119.053 E.00358
G1 X109.1 Y119.415 E.02154
G1 X108.602 Y119.685 E.02152
G1 X108.041 Y119.854 E.02228
G1 X107.613 Y119.902 E.01639
G1 X107.438 Y119.904 E.00664
G1 X107.257 Y119.893 E.00687
G1 X106.837 Y119.823 E.01618
G1 X106.285 Y119.625 E.0223
G1 X105.786 Y119.319 E.02225
G1 X105.374 Y118.93 E.02153
G1 X105.126 Y118.603 E.0156
G1 X104.862 Y118.08 E.02227
G1 X104.711 Y117.513 E.0223
G1 X104.68 Y116.948 E.02149
G1 X104.725 Y116.554 E.01506
G1 X104.825 Y116.161 E.01544
G1 X104.886 Y115.997 E.00665
G1 X104.961 Y115.832 E.00688
G1 X105.175 Y115.463 E.01621
G1 X105.555 Y115.018 E.02225
G1 X106.003 Y114.671 E.02153
G1 X106.365 Y114.477 E.01563
G1 X106.527 Y114.41 E.00664
G1 X106.699 Y114.354 E.00687
G1 X107.116 Y114.263 E.01621
G1 X107.681 Y114.242 E.02152
G1 X108.089 Y114.295 E.01562
G1 X108.628 Y114.466 E.02151
G1 X108.994 Y114.654 E.01562
G1 X109.14 Y114.75 E.00664
G1 X109.284 Y114.859 E.00688
G1 X109.596 Y115.15 E.01618
G1 X109.935 Y115.604 E.02154
G1 X110.179 Y116.114 E.02149
G1 X110.289 Y116.516 E.01583
G1 X110.345 Y117.074 E.02133
G1 X110.283 Y117.657 E.02227
G1 X110.168 Y118.051 E.01562
G1 X109.999 Y118.426 E.01562
G1 X109.911 Y118.577 E.00665
G1 X109.81 Y118.727 E.00687
G1 X109.622 Y118.95 E.01108
G1 X109.225 Y118.71 F15000
G1 F900
G1 X109.201 Y118.74 E.00148
G1 X108.843 Y119.036 E.01765
G1 X108.436 Y119.259 E.01762
G1 X107.966 Y119.402 E.01868
G1 X107.45 Y119.447 E.0197
G1 X106.936 Y119.376 E.01973
G1 X106.472 Y119.208 E.01872
G1 X106.056 Y118.949 E.01865
G1 X105.719 Y118.629 E.01764
G1 X105.505 Y118.346 E.01349
G1 X105.286 Y117.907 E.01867
G1 X105.161 Y117.43 E.01872
G1 X105.138 Y116.968 E.01759
G1 X105.175 Y116.637 E.01265
G1 X105.309 Y116.17 E.01847
G1 X105.558 Y115.713 E.01977
G1 X105.878 Y115.342 E.01865
G1 X106.247 Y115.059 E.01764
G1 X106.685 Y114.84 E.01864
G1 X107.19 Y114.714 E.01977
G1 X107.654 Y114.699 E.01762
G1 X108.007 Y114.745 E.01352
G1 X108.447 Y114.887 E.01761
G1 X108.877 Y115.124 E.01863
G1 X109.266 Y115.467 E.01973
G1 X109.543 Y115.841 E.01765
G1 X109.744 Y116.257 E.01759
G1 X109.839 Y116.606 E.01372
G1 X109.887 Y117.062 E.01745
G1 X109.838 Y117.551 E.01868
G1 X109.738 Y117.893 E.01352
G1 X109.524 Y118.334 E.01864
G1 X109.25 Y118.678 E.01673
M73 P3 R9
G1 E-.8 F1800
G1 X108.246 Y114.976 F15000
G1 E.8 F1800
;TYPE:Bottom surface
;WIDTH:0.542486
