; HEADER_BLOCK_START
; generated by OrcaSlicer 1.9.1 on 2024-04-23 at 21:00:17
; total layer number: 27
; filament_density: 1.24
; filament_diameter: 1.75
; max_z_height: 5.40
; HEADER_BLOCK_END

; THUMBNAIL_BLOCK_START

;
; THUMBNAIL_BLOCK_END

; external perimeters extrusion width = 0.40mm
; perimeters extrusion width = 0.45mm
; infill extrusion width = 0.45mm
; solid infill extrusion width = 0.40mm
; top infill extrusion width = 0.40mm
; support material extrusion width = 0.40mm
; first layer extrusion width = 0.50mm

; external perimeters extrusion width = 0.40mm
; perimeters extrusion width = 0.45mm
; infill extrusion width = 0.45mm
; solid infill extrusion width = 0.40mm
; top infill extrusion width = 0.40mm
; support material extrusion width = 0.40mm
; first layer extrusion width = 0.50mm

; external perimeters extrusion width = 0.40mm
; perimeters extrusion width = 0.45mm
; infill extrusion width = 0.45mm
; solid infill extrusion width = 0.40mm
; top infill extrusion width = 0.40mm
; support material extrusion width = 0.40mm
; first layer extrusion width = 0.50mm

; external perimeters extrusion width = 0.40mm
; perimeters extrusion width = 0.45mm
; infill extrusion width = 0.45mm
; solid infill extrusion width = 0.40mm
; top infill extrusion width = 0.40mm
; support material extrusion width = 0.40mm
; first layer extrusion width = 0.50mm

; EXECUTABLE_BLOCK_START


; Pre-Processed for Cancel-Object support by preprocess_cancellation v0.2.0
; 2 known objects
EXCLUDE_OBJECT_DEFINE NAME=sma_cover2_stl_id_0_copy_0 CENTER=113.276,117.311 POLYGON=[[103.712,113.271],[103.712,121.731],[131.288,121.731],[131.288,113.271]]
EXCLUDE_OBJECT_DEFINE NAME=sma_cover2_stl_id_2380625561088_copy_0 CENTER=127.444,117.857 POLYGON=[[123.69,114.133],[123.69,121.731],[131.283,121.731],[131.283,114.133]]
M73 P0 R6
;TYPE:Custom
M104 S0 ; Stops OrcaSlicer from sending temp waits separately
M140 S0
print_start EXTRUDER=215 BED=35 CHAMBER=0
G90
G21
M83 ; use relative distances for extrusion
; filament start gcode
SET_PRESSURE_ADVANCE ADVANCE=0.16; Override pressure advance value
M106 S0
;LAYER_CHANGE
;Z:0.2
;HEIGHT:0.2
;BEFORE_LAYER_CHANGE
;0.2
G92 E0

G1 E-.8 F1800
;_SET_FAN_SPEED_CHANGING_LAYER
SET_VELOCITY_LIMIT ACCEL=500 ACCEL_TO_DECEL=250
G1 X103.442 Y112.057 F15000
G1 Z.2
G1 E.8 F1800
;TYPE:Skirt
;WIDTH:0.5
G1 F2100.29
G1 X104.541 Y111.337 E.04992
G1 X105.615 Y110.898 E.04411
G1 X106.65 Y110.671 E.04029
G1 X107.815 Y110.621 E.04432
G1 X127.802 Y111.482 E.76031
G1 X128.951 Y111.643 E.04411
G1 X129.803 Y111.904 E.03386
G1 X130.993 Y112.509 E.05074
G1 X131.837 Y113.159 E.04049
G1 X132.722 Y114.151 E.05053
G1 X133.317 Y115.154 E.04432
G1 X133.693 Y116.145 E.04029
G1 X133.928 Y117.459 E.05074
G1 X133.886 Y118.799 E.05094
G1 X133.573 Y120.091 E.05053
G1 X133.218 Y120.908 E.03386
G1 X132.753 Y121.668 E.03386
G1 X132.189 Y122.357 E.03386
G1 X131.535 Y122.962 E.03386
G1 X130.804 Y123.471 E.03386
G1 X130.01 Y123.875 E.03385
G1 X129.167 Y124.165 E.03386
G1 X128.293 Y124.337 E.03386
G1 X127.128 Y124.377 E.04432
G1 X107.258 Y123.521 E.75587
G1 X106.373 Y123.425 E.03386
G1 X105.248 Y123.116 E.04432
G1 X104.289 Y122.665 E.04029
G1 X103.335 Y121.994 E.04432
G1 X102.586 Y121.245 E.04029
G1 X101.915 Y120.291 E.04432
G1 X101.462 Y119.329 E.04041
G1 X101.155 Y118.207 E.04419
G1 X101.057 Y116.876 E.05074
G1 X101.176 Y115.823 E.04029
G1 X101.507 Y114.695 E.04465
G1 X101.972 Y113.752 E.03995
G1 X102.659 Y112.81 E.04432
G1 X103.413 Y112.085 E.03978
; printing object sma-cover2.stl id:0 copy 0
EXCLUDE_OBJECT_START NAME=sma_cover2_stl_id_0_copy_0
G1 E-.8 F1800
;WIPE_START
G1 F2100.29
G1 X104.247 Y111.532
;WIPE_END
G1 X123.806 Y118.593 F15000
M73 P1 R6
G1 E.8 F1800
;TYPE:Outer wall
G1 F900
G1 X123.766 Y118.38 E.00824
G1 X123.744 Y118.097 E.01077
G1 X123.753 Y117.608 E.0186
G1 X123.834 Y117.093 E.01981
G1 X123.906 Y116.826 E.01053
G1 X124.084 Y116.36 E.01896
G1 X124.213 Y116.108 E.01076
G1 X124.478 Y115.696 E.0186
G1 X124.818 Y115.299 E.01984
G1 X125.219 Y114.947 E.02032
G1 X125.633 Y114.673 E.01883
G1 X126.103 Y114.447 E.01984
G1 X126.338 Y114.362 E.00951
G1 X126.849 Y114.236 E.01999
G1 X127.096 Y114.202 E.00949
G1 X127.644 Y114.186 E.02084
G1 X128.137 Y114.238 E.01882
G1 X128.655 Y114.368 E.02033
G1 X129.119 Y114.554 E.019
G1 X129.341 Y114.671 E.00952
G1 X129.778 Y114.962 E.01996
G1 X129.991 Y115.139 E.01053
G1 X130.34 Y115.496 E.01897
G1 X130.512 Y115.714 E.01053
G1 X130.778 Y116.131 E.0188
G1 X131.005 Y116.632 E.02091
G1 X131.145 Y117.1 E.0186
G1 X131.224 Y117.603 E.01935
G1 X131.233 Y118.129 E.01996
G1 X131.208 Y118.404 E.01052
G1 X131.113 Y118.891 E.01883
G1 X130.945 Y119.385 E.01984
G1 X130.699 Y119.866 E.02054
G1 X130.418 Y120.271 E.01873
G1 X130.233 Y120.485 E.01077
G1 X129.874 Y120.824 E.01877
G1 X129.675 Y120.977 E.00952
G1 X129.228 Y121.253 E.01996
G1 X128.978 Y121.371 E.01053
G1 X128.511 Y121.538 E.01883
G1 X128.001 Y121.646 E.01984
G1 X127.752 Y121.671 E.00951
G1 X127.226 Y121.671 E.01999
G1 X126.977 Y121.646 E.00951
G1 X126.466 Y121.538 E.01983
G1 X125.975 Y121.362 E.01983
G1 X125.746 Y121.251 E.00967
G1 X125.525 Y121.125 E.00967
G1 X125.101 Y120.822 E.0198
G1 X124.709 Y120.445 E.02067
G1 X124.4 Y120.058 E.01882
G1 X124.265 Y119.847 E.00952
G1 X124.029 Y119.377 E.01999
G1 X123.939 Y119.14 E.00964
G1 X123.858 Y118.864 E.01092
G1 X123.814 Y118.632 E.00897
G1 X124.191 Y118.946 F15000
G1 F900
G1 X124.187 Y118.933 E.00052
G1 X124.073 Y118.422 E.0199
G1 X124.038 Y117.899 E.0199
G1 X124.052 Y117.626 E.01041
G1 X124.136 Y117.114 E.01971
G1 X124.212 Y116.851 E.01041
G1 X124.413 Y116.367 E.01989
G1 X124.682 Y115.925 E.01969
G1 X124.85 Y115.708 E.01043
G1 X125.031 Y115.509 E.01023
G1 X125.417 Y115.172 E.01948
G1 X125.872 Y114.882 E.02048
G1 X126.342 Y114.677 E.01949
G1 X126.614 Y114.593 E.01082
G1 X127.129 Y114.499 E.01991
G1 X127.652 Y114.484 E.0199
G1 X127.925 Y114.508 E.01041
G1 X128.427 Y114.611 E.01948
G1 X128.929 Y114.795 E.0203
G1 X129.173 Y114.92 E.01042
G1 X129.6 Y115.202 E.01948
G1 X130 Y115.564 E.02049
G1 X130.329 Y115.972 E.01991
G1 X130.473 Y116.199 E.01023
G1 X130.599 Y116.437 E.01023
G1 X130.789 Y116.924 E.0199
G1 X130.904 Y117.44 E.02008
G1 X130.939 Y117.967 E.02008
G1 X130.894 Y118.489 E.0199
G1 X130.84 Y118.752 E.01023
G1 X130.766 Y119.011 E.01023
G1 X130.565 Y119.495 E.0199
G1 X130.293 Y119.942 E.0199
G1 X130.124 Y120.158 E.01041
G1 X129.761 Y120.527 E.01969
G1 X129.334 Y120.847 E.02027
G1 X128.881 Y121.087 E.01948
G1 X128.621 Y121.19 E.01064
G1 X128.363 Y121.269 E.01024
G1 X127.848 Y121.363 E.0199
G1 X127.325 Y121.377 E.0199
G1 X127.052 Y121.354 E.01041
G1 X126.545 Y121.25 E.01969
G1 X126.049 Y121.066 E.02009
G1 X125.804 Y120.942 E.01042
G1 X125.372 Y120.656 E.01971
G1 X125.163 Y120.479 E.01041
G1 X124.804 Y120.098 E.0199
G1 X124.504 Y119.663 E.02008
G1 X124.277 Y119.191 E.0199
G1 X124.205 Y118.983 E.00837
; stop printing object sma-cover2.stl id:0 copy 0
EXCLUDE_OBJECT_END NAME=sma_cover2_stl_id_0_copy_0
; printing object sma-cover2.stl id:2380625561088 copy 0
EXCLUDE_OBJECT_START NAME=sma_cover2_stl_id_2380625561088_copy_0
G1 E-.8 F1800
;WIPE_START
G1 F900
G1 X124.187 Y118.933
G1 X124.073 Y118.422
G1 X124.045 Y118
;WIPE_END
G1 X124.063 Y117.999 F15000
G1 X124.06 Y117.895
G1 X124.073 Y117.632
G1 X124.104 Y117.383
G1 X124.158 Y117.115
G1 X124.231 Y116.862
G1 X124.322 Y116.616
G1 X124.432 Y116.377
G1 X124.56 Y116.148
G1 X124.702 Y115.933
G1 X124.866 Y115.722
G1 X125.043 Y115.527
G1 X125.235 Y115.347
G1 X125.43 Y115.189
G1 X125.655 Y115.034
G1 X125.883 Y114.902
G1 X126.119 Y114.788
G1 X126.353 Y114.696
G1 X126.615 Y114.615
G1 X126.871 Y114.558
G1 X127.131 Y114.521
G1 X127.388 Y114.504
G1 X127.656 Y114.506
G1 X127.918 Y114.529
G1 X128.177 Y114.572
G1 X128.421 Y114.632
G1 X128.626 Y114.698
G1 X128.724 Y114.396
G1 E.8 F1800
G1 F900
G1 X129.12 Y114.554 E.0162
G1 X129.341 Y114.671 E.00951
G1 X129.779 Y114.962 E.01999
G1 X129.976 Y115.125 E.00972
G1 X130.341 Y115.496 E.01979
G1 X130.497 Y115.692 E.00951
G1 X130.78 Y116.135 E.01999
G1 X130.893 Y116.359 E.00951
M73 P2 R6
G1 X131.079 Y116.85 E.01999
G1 X131.143 Y117.092 E.00951
G1 X131.224 Y117.608 E.01983
G1 X131.233 Y118.129 E.01982
G1 X131.211 Y118.384 E.00972
G1 X131.112 Y118.895 E.01979
G1 X131.04 Y119.135 E.00951
G1 X130.837 Y119.62 E.01999
G1 X130.716 Y119.839 E.00951
G1 X130.42 Y120.269 E.01983
G1 X130.067 Y120.653 E.01983
G1 X129.88 Y120.819 E.00951
G1 X129.453 Y121.125 E.01999
G1 X129.231 Y121.251 E.00967
G1 X129.002 Y121.362 E.00967
G1 X128.507 Y121.54 E.01999
G1 X128.264 Y121.6 E.00951
G1 X127.747 Y121.671 E.01983
G1 X127.226 Y121.671 E.01983
G1 X126.977 Y121.646 E.00951
G1 X126.462 Y121.537 E.01999
G1 X126.224 Y121.461 E.00951
G1 X125.742 Y121.249 E.01999
G1 X125.525 Y121.125 E.00951
G1 X125.101 Y120.822 E.01982
G1 X124.722 Y120.461 E.01987
G1 X124.4 Y120.057 E.01962
G1 X124.263 Y119.843 E.00968
G1 X124.141 Y119.62 E.00967
G1 X123.939 Y119.139 E.01983
G1 X123.806 Y118.634 E.01983
G1 X123.766 Y118.383 E.00967
G1 X123.744 Y118.129 E.00967
G1 X123.753 Y117.608 E.01983
G1 X123.833 Y117.097 E.01966
G1 X123.984 Y116.597 E.01983
G1 X124.081 Y116.366 E.00951
G1 X124.333 Y115.905 E.01999
G1 X124.64 Y115.493 E.01954
G1 X125.005 Y115.122 E.01978
G1 X125.203 Y114.959 E.00972
G1 X125.633 Y114.673 E.01962
G1 X126.103 Y114.447 E.01983
G1 X126.592 Y114.29 E.01954
G1 X127.101 Y114.202 E.01962
G1 X127.623 Y114.184 E.01987
G1 X128.137 Y114.238 E.01962
G1 X128.631 Y114.359 E.01934
G1 X128.686 Y114.382 E.00227
G1 X128.554 Y114.821 F15000
;TYPE:Inner wall
G1 F900
M106 S0
G1 X128.928 Y114.97 E.0153
G1 X129.108 Y115.064 E.00771
G1 X129.506 Y115.329 E.01817
G1 X129.666 Y115.462 E.00791
G1 X129.998 Y115.8 E.018
G1 X130.125 Y115.959 E.00771
G1 X130.383 Y116.362 E.01819
G1 X130.474 Y116.543 E.00771
G1 X130.644 Y116.99 E.01819
G1 X130.696 Y117.186 E.00771
G1 X130.768 Y117.647 E.01772
G1 X130.776 Y118.113 E.01771
G1 X130.758 Y118.32 E.00791
G1 X130.668 Y118.786 E.018
G1 X130.609 Y118.98 E.00771
G1 X130.424 Y119.421 E.01819
G1 X130.327 Y119.599 E.00771
G1 X130.062 Y119.983 E.01772
G1 X129.747 Y120.327 E.01773
G1 X129.595 Y120.461 E.00771
G1 X129.206 Y120.74 E.01819
G1 X129.019 Y120.846 E.00817
G1 X128.825 Y120.94 E.00817
G1 X128.375 Y121.102 E.01819
G1 X128.178 Y121.15 E.00771
G1 X127.716 Y121.214 E.01773
G1 X127.249 Y121.214 E.01773
G1 X127.048 Y121.193 E.00771
G1 X126.579 Y121.095 E.01819
G1 X126.386 Y121.033 E.00771
G1 X125.948 Y120.84 E.01819
G1 X125.772 Y120.74 E.00771
G1 X125.393 Y120.469 E.01771
G1 X125.06 Y120.152 E.01746
G1 X124.773 Y119.791 E.01753
G1 X124.656 Y119.61 E.00818
G1 X124.553 Y119.421 E.00817
G1 X124.373 Y118.991 E.01773
G1 X124.253 Y118.54 E.01773
G1 X124.22 Y118.328 E.00817
G1 X124.202 Y118.114 E.00817
G1 X124.21 Y117.647 E.01773
G1 X124.28 Y117.199 E.01726
G1 X124.415 Y116.752 E.01773
G1 X124.493 Y116.565 E.00771
G1 X124.723 Y116.145 E.01819
G1 X124.845 Y115.969 E.00816
G1 X124.983 Y115.796 E.00838
G1 X125.314 Y115.459 E.01798
G1 X125.475 Y115.327 E.00792
G1 X125.859 Y115.071 E.01753
G1 X126.28 Y114.869 E.01773
G1 X126.694 Y114.736 E.01652
G1 X127.148 Y114.657 E.01752
G1 X127.607 Y114.642 E.01747
G1 X128.066 Y114.69 E.01753
G1 X128.484 Y114.793 E.01634
G1 X128.517 Y114.806 E.00137
G1 X128.365 Y115.239 F15000
G1 F900
G1 X128.874 Y115.458 E.02107
G1 X129.233 Y115.697 E.01636
G1 X129.357 Y115.799 E.00611
G1 X129.752 Y116.225 E.0221
G1 X130.055 Y116.727 E.02228
G1 X130.208 Y117.13 E.01639
G1 X130.311 Y117.687 E.02151
G1 X130.318 Y118.097 E.01559
G1 X130.304 Y118.257 E.00611
G1 X130.179 Y118.825 E.0221
G1 X130.012 Y119.223 E.01639
G1 X129.704 Y119.697 E.02151
G1 X129.309 Y120.103 E.02151
G1 X128.959 Y120.354 E.01639
G1 X128.806 Y120.441 E.00667
G1 X128.648 Y120.517 E.00667
G1 X128.242 Y120.663 E.01639
G1 X127.684 Y120.757 E.02151
G1 X127.118 Y120.741 E.02151
G1 X126.696 Y120.652 E.01639
G1 X126.154 Y120.431 E.02227
G1 X125.685 Y120.115 E.02149
G1 X125.398 Y119.842 E.01506
G1 X125.145 Y119.525 E.01544
G1 X125.05 Y119.377 E.00668
G1 X124.966 Y119.223 E.00667
G1 X124.807 Y118.843 E.01562
G1 X124.701 Y118.446 E.01562
G1 X124.674 Y118.273 E.00667
G1 X124.659 Y118.098 E.00667
G1 X124.666 Y117.687 E.01562
G1 X124.727 Y117.3 E.01486
G1 X124.906 Y116.764 E.02151
G1 X125.113 Y116.385 E.01639
G1 X125.212 Y116.241 E.00664
G1 X125.325 Y116.1 E.00687
G1 X125.623 Y115.797 E.01618
G1 X125.748 Y115.694 E.00612
G1 X126.086 Y115.469 E.01544
G1 X126.457 Y115.291 E.01563
M73 P3 R6
G1 X126.795 Y115.183 E.01351
G1 X127.195 Y115.113 E.01542
G1 X127.591 Y115.1 E.01507
G1 X127.995 Y115.142 E.01544
G1 X128.328 Y115.224 E.01303
G1 X128.189 Y115.659 F15000
G1 F900
G1 X128.641 Y115.852 E.01868
G1 X129.047 Y116.136 E.01884
G1 X129.38 Y116.492 E.01852
G1 X129.587 Y116.815 E.01459
G1 X129.772 Y117.27 E.01868
G1 X129.855 Y117.726 E.01761
G1 X129.851 Y118.194 E.01777
G1 X129.748 Y118.67 E.01852
G1 X129.599 Y119.024 E.01459
G1 X129.345 Y119.412 E.01761
G1 X129.024 Y119.746 E.01761
G1 X128.594 Y120.036 E.01974
G1 X128.11 Y120.225 E.01974
G1 X127.653 Y120.3 E.01761
G1 X127.189 Y120.289 E.01761
G1 X126.814 Y120.21 E.01459
G1 X126.359 Y120.022 E.01868
G1 X125.977 Y119.762 E.01758
G1 X125.736 Y119.533 E.01265
G1 X125.443 Y119.143 E.01851
G1 X125.24 Y118.696 E.01868
G1 X125.128 Y118.218 E.01867
G1 X125.123 Y117.726 E.01867
G1 X125.173 Y117.402 E.01245
G1 X125.318 Y116.962 E.01761
G1 X125.579 Y116.514 E.0197
G1 X125.667 Y116.404 E.00537
G1 X126.02 Y116.062 E.01868
G1 X126.313 Y115.868 E.01335
G1 X126.634 Y115.713 E.01353
G1 X126.897 Y115.629 E.0105
G1 X127.242 Y115.569 E.01332
G1 X127.575 Y115.558 E.01266
G1 X127.924 Y115.594 E.01334
G1 X128.15 Y115.65 E.00883
G1 X128.21 Y115.827 F15000
;TYPE:Bottom surface
;WIDTH:0.542461
G1 F1200
G1 X129.12 Y116.737 E.05346
G1 X129.273 Y116.977 E.01183
G1 X129.432 Y117.369 E.01755
G1 X129.502 Y117.826 E.01921
G1 X127.589 Y115.913 E.11237
G1 X127.278 Y115.92 E.01291
G1 X126.951 Y115.981 E.01384
G1 X129.433 Y118.463 E.14579
G1 X129.411 Y118.564 E.00429
G1 X129.287 Y118.858 E.01326
G1 X129.222 Y118.959 E.00498
G1 X126.457 Y116.194 E.16238
G1 X126.242 Y116.337 E.01074
G1 X126.065 Y116.509 E.01022
G1 X128.912 Y119.355 E.1672
G1 X128.796 Y119.475 E.00691
G1 X128.515 Y119.665 E.0141
G1 X125.757 Y116.907 E.16198
G1 X125.641 Y117.107 E.00962
G1 X125.544 Y117.401 E.01283
G1 X128.025 Y119.881 E.14569
G1 X127.628 Y119.948 E.0167
G1 X127.379 Y119.941 E.01036
G1 X125.478 Y118.041 E.11164
G1 X125.48 Y118.175 E.00556
G1 X125.575 Y118.582 E.01737
G1 X125.748 Y118.963 E.01738
G1 X125.911 Y119.18 E.01128
G1 X126.761 Y120.03 E.04992
; stop printing object sma-cover2.stl id:2380625561088 copy 0
EXCLUDE_OBJECT_END NAME=sma_cover2_stl_id_2380625561088_copy_0
; printing object sma-cover2.stl id:0 copy 0
EXCLUDE_OBJECT_START NAME=sma_cover2_stl_id_0_copy_0
G1 E-.8 F1800
;WIPE_START
G1 F1200
G1 X126.054 Y119.323
;WIPE_END
G1 X124.189 Y118.857 F15000
G1 X108.506 Y113.789
G1 X108.263 Y113.724
G1 X108.004 Y113.677
G1 X107.743 Y113.649
G1 X107.475 Y113.641
G1 X107.218 Y113.653
G1 X106.958 Y113.686
G1 X106.7 Y113.738
G1 X106.437 Y113.813
G1 X106.201 Y113.901
G1 X105.962 Y114.01
G1 X105.733 Y114.138
G1 X105.514 Y114.282
G1 X105.41 Y114.362
G1 X105.216 Y114.112
G1 E.8 F1800
;TYPE:Outer wall
;WIDTH:0.5
G1 F900
G1 X105.518 Y113.893 E.01418
G1 X105.759 Y113.755 E.01053
G1 X106.211 Y113.553 E.01883
G1 X106.712 Y113.406 E.01984
G1 X106.962 Y113.36 E.00967
G1 X107.215 Y113.332 E.00967
G1 X107.737 Y113.327 E.01983
G1 X108.253 Y113.394 E.01979
G1 X108.528 Y113.462 E.01076
G1 X108.993 Y113.625 E.01873
G1 X109.248 Y113.748 E.01077
G1 X109.669 Y114.004 E.01873
G1 X109.894 Y114.176 E.01077
M73 P4 R6
G1 X110.254 Y114.514 E.01874
G1 X110.435 Y114.724 E.01054
G1 X110.721 Y115.133 E.019
G1 X110.843 Y115.352 E.00952
G1 X111.051 Y115.835 E.01999
G1 X111.125 Y116.074 E.00951
G1 X111.228 Y116.586 E.01983
G1 X111.26 Y117.105 E.01979
G1 X111.245 Y117.388 E.01076
G1 X111.172 Y117.876 E.01877
G1 X111.029 Y118.365 E.01935
G1 X110.813 Y118.845 E.01999
G1 X110.688 Y119.061 E.00951
G1 X110.378 Y119.486 E.01999
G1 X110.21 Y119.672 E.00951
G1 X109.819 Y120.024 E.01999
G1 X109.617 Y120.171 E.00951
G1 X109.162 Y120.436 E.01999
