; HEADER_BLOCK_START
; generated by OrcaSlicer 1.9.1 on 2024-04-19 at 20:54:03
; total layer number: 67
; filament_density: 1.24
; filament_diameter: 1.75
; max_z_height: 13.40
; HEADER_BLOCK_END

; THUMBNAIL_BLOCK_START

;
; THUMBNAIL_BLOCK_END

; external perimeters extrusion width = 0.40mm
; perimeters extrusion width = 0.45mm
; infill extrusion width = 0.45mm
; solid infill extrusion width = 0.40mm
; top infill extrusion width = 0.40mm
; support material extrusion width = 0.40mm
; first layer extrusion width = 0.50mm

; external perimeters extrusion width = 0.40mm
; perimeters extrusion width = 0.45mm
; infill extrusion width = 0.45mm
; solid infill extrusion width = 0.40mm
; top infill extrusion width = 0.40mm
; support material extrusion width = 0.40mm
; first layer extrusion width = 0.50mm

; external perimeters extrusion width = 0.40mm
; perimeters extrusion width = 0.45mm
; infill extrusion width = 0.45mm
; solid infill extrusion width = 0.40mm
; top infill extrusion width = 0.40mm
; support material extrusion width = 0.40mm
; first layer extrusion width = 0.50mm

; EXECUTABLE_BLOCK_START


; Pre-Processed for Cancel-Object support by preprocess_cancellation v0.2.0
; 3 known objects
EXCLUDE_OBJECT_DEFINE NAME=Speedybee_Master_5_Parts_Battery_backup_buzzer_holder_stl_id_18418897670432415272_copy_0 CENTER=113.690,95.929 POLYGON=[[100.871,88.233],[100.871,109.33],[126.468,109.33],[126.468,88.233]]
EXCLUDE_OBJECT_DEFINE NAME=Speedybee_Master_5_Parts_Back_backup_buzzer_holder_4_screws_stl_id_2816954420080_copy_0 CENTER=98.576,135.217 POLYGON=[[85.702,121.167],[85.702,146.767],[111.296,146.767],[111.296,121.167]]
EXCLUDE_OBJECT_DEFINE NAME=Speedybee_Master_5_Parts_Battery_backup_buzzer_holder_4_screws_horizontal_stl_id_2816954418256_copy_0 CENTER=136.522,132.725 POLYGON=[[123.701,115.417],[123.701,146.767],[149.296,146.767],[149.296,115.417]]
M73 P0 R69
;TYPE:Custom
M104 S0 ; Stops OrcaSlicer from sending temp waits separately
M140 S0
print_start EXTRUDER=215 BED=35 CHAMBER=0
G90
G21
M83 ; use relative distances for extrusion
; filament start gcode
M106 S0
;LAYER_CHANGE
;Z:0.2
;HEIGHT:0.2
;BEFORE_LAYER_CHANGE
;0.2
G92 E0

G1 E-.8 F1800
;_SET_FAN_SPEED_CHANGING_LAYER
SET_VELOCITY_LIMIT ACCEL=500 ACCEL_TO_DECEL=250
G1 Z.4 F15000
G1 X99.752 Y87.235
G1 Z.4
G1 Z.2
G1 E.8 F1800
;TYPE:Skirt
;WIDTH:0.5
G1 F2100.29
G1 X100.805 Y86.389 E.05137
G1 X101.776 Y85.916 E.04104
G1 X103.053 Y85.612 E.04988
G1 X123.671 Y85.576 E.78361
G1 X124.9 Y85.717 E.04703
G1 X126.138 Y86.167 E.05008
G1 X127.213 Y86.883 E.04908
G1 X128.025 Y87.747 E.04507
G1 X147.141 Y114.647 E1.25423
G1 X151.495 Y121.771 E.31732
G1 X151.839 Y122.839 E.04265
G1 X151.956 Y123.861 E.03907
G1 X151.957 Y143.999 E.7654
G1 X151.762 Y145.413 E.05422
G1 X151.188 Y146.761 E.05569
G1 X150.297 Y147.887 E.05456
G1 X149.235 Y148.689 E.0506
G1 X148.023 Y149.207 E.05009
G1 X146.717 Y149.42 E.05028
G1 X88.447 Y149.424 E2.21463
G1 X87.039 Y149.225 E.05404
G1 X85.731 Y148.669 E.05402
G1 X84.686 Y147.869 E.05001
G1 X83.875 Y146.864 E.0491
G1 X83.359 Y145.796 E.04507
G1 X83.071 Y144.512 E.05
G1 X83.043 Y123.957 E.78123
G1 X83.165 Y122.824 E.04331
G1 X83.552 Y121.665 E.04644
G1 X98.982 Y88.239 E1.39922
G1 X99.727 Y87.267 E.04656
; printing object Speedybee Master 5 Parts - Battery backup buzzer holder.stl id:18418897670432415272 copy 0
EXCLUDE_OBJECT_START NAME=Speedybee_Master_5_Parts_Battery_backup_buzzer_holder_stl_id_18418897670432415272_copy_0
G1 E-.8 F1800
;WIPE_START
G1 F2100.29
G1 X100.502 Y86.635
;WIPE_END
G1 Z.6 F15000
G1 X122.185 Y92.874 Z.6
G1 Z.2
G1 E.8 F1800
;TYPE:Inner wall
;WIDTH:0.49993
G1 F900
G1 X121.861 Y93.162 E.01649
G1 X121.52 Y93.534 E.01915
G1 X121.308 Y93.916 E.01661
G1 X121.12 Y94.419 E.02042
G1 X121.048 Y95.027 E.02325
G1 X121.047 Y95.944 E.03484
G1 X121.063 Y96.19 E.00938
;WIDTH:0.466309
G1 X121.08 Y96.436 E.00869
;WIDTH:0.432688
G1 X121.096 Y96.682 E.008
;WIDTH:0.399066
G1 X121.092 Y100.822 E.12261
;WIDTH:0.396426
G1 X121.051 Y101.334 E.01507
;WIDTH:0.370123
G1 X121.011 Y101.826 E.01344
;WIDTH:0.34382
G1 X120.881 Y102.418 E.01517
G1 X120.711 Y102.927 E.01341
G1 X120.712 Y101.802 E.02815
;WIDTH:0.370123
G1 X120.725 Y101.312 E.01333
;WIDTH:0.396426
G1 X120.738 Y100.822 E.0144
;WIDTH:0.399066
G1 X120.74 Y96.682 E.12261
;WIDTH:0.432688
G1 X120.721 Y96.448 E.00762
;WIDTH:0.466309
G1 X120.701 Y96.214 E.00827
;WIDTH:0.499999
G1 X120.682 Y95.979 E.00893
G1 X120.443 Y95.403 E.02372
G1 X120.12 Y94.935 E.02161
G1 X119.809 Y94.65 E.01603
G1 X119.383 Y94.361 E.01954
G1 X118.981 Y94.203 E.01644
G1 X118.214 Y94.062 E.02964
G1 X109.081 Y94.065 E.34709
G1 X108.712 Y94.108 E.01415
G1 X108.086 Y94.298 E.02485
G1 X107.595 Y94.601 E.02194
G1 X107.229 Y94.926 E.01857
G1 X106.97 Y95.272 E.01643
G1 X106.718 Y95.788 E.02182
;WIDTH:0.498595
G1 X106.66 Y96.192 E.01547
;WIDTH:0.449757
G1 X106.601 Y96.596 E.01381
;WIDTH:0.400919
G1 X106.601 Y100.862 E.127
;WIDTH:0.397177
G1 X106.606 Y101.142 E.00826
;WIDTH:0.388025
G1 X106.626 Y101.781 E.01833
;WIDTH:0.346627
G1 X106.626 Y102.963 E.02986
G1 X106.461 Y102.433 E.01403
G1 X106.324 Y101.8 E.01634
;WIDTH:0.371902
G1 X106.286 Y101.331 E.01287
;WIDTH:0.397177
G1 X106.247 Y100.862 E.01386
;WIDTH:0.400919
G1 X106.243 Y96.596 E.127
;WIDTH:0.449757
G1 X106.267 Y96.162 E.01469
;WIDTH:0.498595
G1 X106.291 Y95.729 E.01645
;WIDTH:0.499999
G1 X106.269 Y94.775 E.03625
G1 X106.159 Y94.263 E.01989
G1 X106.022 Y93.879 E.0155
G1 X105.713 Y93.407 E.02145
G1 X105.423 Y93.09 E.01631
G1 X105.134 Y92.884 E.0135
G1 X105.574 Y92.444 E.02363
G1 X105.752 Y92.151 E.01304
G1 X105.959 Y91.648 E.02069
G1 X106.03 Y91.036 E.02339
G1 X105.949 Y90.417 E.02373
G1 X105.852 Y90.132 E.01143
G1 X105.578 Y89.657 E.02084
G1 X121.769 Y89.654 E.61538
;WIDTH:0.49993
G1 X121.481 Y90.13 E.02112
G1 X121.317 Y90.796 E.02609
G1 X121.338 Y91.459 E.02518
G1 X121.515 Y91.994 E.02142
G1 X121.722 Y92.384 E.01679
G1 X122.158 Y92.845 E.02412
G1 X123.388 Y92.902 F15000
;WIDTH:0.499999
G1 F900
G1 X122.98 Y93.001 E.01595
G1 X122.494 Y93.213 E.02017
G1 X122.28 Y93.387 E.01048
G1 X121.886 Y93.807 E.02189
G1 X121.742 Y94.064 E.01118
G1 X121.563 Y94.532 E.01905
G1 X121.505 Y95.028 E.01895
G1 X121.497 Y100.854 E.22144
G1 X121.385 Y101.887 E.03949
G1 X121.247 Y102.519 E.02459
G1 X120.923 Y103.49 E.03889
G1 X120.478 Y104.406 E.03872
G1 X120.307 Y104.676 E.01213
G1 X120.332 Y104.428 E.00947
G1 X120.333 Y96.682 E.29439
G1 X120.234 Y96.069 E.02362
G1 X120.063 Y95.657 E.01695
G1 X119.656 Y95.111 E.02589
G1 X119.256 Y94.821 E.01877
G1 X118.872 Y94.647 E.01601
G1 X118.214 Y94.519 E.02548
G1 X109.081 Y94.522 E.34709
G1 X108.524 Y94.623 E.02152
G1 X108.169 Y94.774 E.01468
G1 X107.737 Y95.062 E.01973
G1 X107.348 Y95.53 E.0231
G1 X107.157 Y95.912 E.01624
G1 X107.009 Y96.596 E.0266
G1 X107.006 Y103.684 E.2694
G1 X107.037 Y104.7 E.03862
G1 X106.538 Y103.776 E.03991
G1 X106.289 Y103.162 E.02516
G1 X106.09 Y102.514 E.02578
G1 X105.947 Y101.849 E.02584
G1 X105.842 Y100.881 E.03701
G1 X105.833 Y95.031 E.22233
G1 X105.713 Y94.361 E.02588
G1 X105.615 Y94.087 E.01107
G1 X105.337 Y93.667 E.01914
G1 X105.13 Y93.441 E.01165
G1 X104.714 Y93.15 E.01929
G1 X104.38 Y92.995 E.014
G1 X104.137 Y92.952 E.00939
;WIDTH:0.474732
G1 X103.893 Y92.909 E.00887
;WIDTH:0.485125
G1 X104.157 Y92.865 E.00982
;WIDTH:0.499999
G1 X104.717 Y92.635 E.02299
G1 X104.962 Y92.425 E.01227
G1 X105.283 Y92.06 E.01846
G1 X105.518 Y91.529 E.02208
G1 X105.574 Y91.006 E.01998
G1 X105.516 Y90.564 E.01695
G1 X105.419 Y90.279 E.01143
G1 X105.197 Y89.894 E.01693
G1 X104.998 Y89.667 E.01144
G1 X104.622 Y89.385 E.01789
G1 X104.318 Y89.243 E.01272
G1 X104.101 Y89.206 E.00837
;WIDTH:0.468396
G1 X103.884 Y89.169 E.00779
G1 X104.106 Y89.185 E.00787
;WIDTH:0.499999
G1 X104.328 Y89.201 E.00845
G1 X123.209 Y89.19 E.71761
;WIDTH:0.497509
G1 X122.9 Y89.284 E.01219
;WIDTH:0.499999
G1 X122.411 Y89.611 E.02238
G1 X122.141 Y89.906 E.01517
G1 X121.911 Y90.286 E.01691
G1 X121.774 Y90.816 E.02081
G1 X121.785 Y91.364 E.02082
G1 X121.944 Y91.838 E.019
G1 X122.092 Y92.116 E.012
G1 X122.526 Y92.568 E.02379
G1 X122.986 Y92.814 E.01981
G1 X123.349 Y92.893 E.01413
G1 X124.715 Y92.013 F15000
G1 F900
G1 X124.427 Y92.277 E.01486
G1 X123.922 Y92.466 E.02047
G1 X123.42 Y92.462 E.01911
G1 X123.179 Y92.399 E.00945
G1 X122.807 Y92.207 E.01593
G1 X122.417 Y91.776 E.02209
G1 X122.233 Y91.272 E.02036
G1 X122.231 Y90.836 E.01658
G1 X122.34 Y90.442 E.01554
G1 X122.479 Y90.214 E.01014
G1 X122.748 Y89.92 E.01517
G1 X122.951 Y89.767 E.00963
G1 X123.316 Y89.628 E.01485
G1 X123.855 Y89.589 E.02056
G1 X124.172 Y89.672 E.01245
G1 X124.612 Y89.925 E.01928
G1 X124.954 Y90.347 E.02064
G1 X125.111 Y90.826 E.01916
G1 X125.077 Y91.407 E.02215
G1 X124.844 Y91.893 E.02048
G1 X124.744 Y91.986 E.00518
G1 X124.415 Y91.688 F15000
;TYPE:Outer wall
G1 F900
G1 X124.129 Y91.917 E.01394
G1 X123.755 Y92.026 E.01478
G1 X123.372 Y91.985 E.01464
G1 X123.062 Y91.823 E.01329
G1 X122.803 Y91.525 E.015
G1 X122.676 Y91.123 E.01605
G1 X122.701 Y90.788 E.01276
G1 X122.816 Y90.523 E.01099
G1 X123.153 Y90.177 E.01834
G1 X123.375 Y90.081 E.00921
G1 X123.776 Y90.039 E.0153
G1 X124.067 Y90.13 E.0116
G1 X124.311 Y90.27 E.01067
G1 X124.554 Y90.573 E.01478
G1 X124.662 Y90.947 E.01477
G1 X124.619 Y91.334 E.01479
G1 X124.441 Y91.658 E.01409
G1 E-.8 F1800
;WIPE_START
G1 F900
G1 X124.129 Y91.917
G1 X123.755 Y92.026
G1 X123.551 Y92.004
;WIPE_END
G1 Z.6 F15000
G1 X123.511 Y92.459 Z.6
G1 X123.474 Y92.456
G1 X123.304 Y92.422
G1 X123.178 Y92.382
G1 X123.062 Y92.334
G1 X122.951 Y92.277
G1 X122.839 Y92.205
G1 X122.704 Y92.097
G1 X122.61 Y92.003
G1 X122.535 Y91.913
G1 X104.93 Y90.347
G1 X104.938 Y90.342
G1 Z.2
G1 E.8 F1800
;TYPE:Inner wall
G1 F900
G1 X104.986 Y90.426 E.00369
G1 X105.083 Y90.711 E.01143
G1 X105.118 Y90.977 E.01017
G1 X105.059 Y91.465 E.01871
G1 X104.847 Y91.89 E.01806
G1 X104.463 Y92.254 E.0201
G1 X103.983 Y92.449 E.0197
G1 X103.739 Y92.483 E.00936
G1 X103.259 Y92.427 E.01837
G1 X103.089 Y92.35 E.00708
G1 X102.774 Y92.182 E.01359
G1 X102.433 Y91.802 E.0194
G1 X102.238 Y91.296 E.02063
G1 X102.24 Y90.788 E.01929
G1 X102.329 Y90.49 E.01182
G1 X102.503 Y90.159 E.01421
G1 X102.834 Y89.84 E.01749
G1 X103.335 Y89.623 E.02074
G1 X103.599 Y89.583 E.01015
G1 X103.865 Y89.594 E.01012
G1 X104.125 Y89.658 E.01016
G1 X104.428 Y89.799 E.01272
G1 X104.654 Y89.969 E.01073
G1 X104.853 Y90.195 E.01144
G1 X104.918 Y90.308 E.00495
G1 X104.547 Y90.565 F15000
;TYPE:Outer wall
G1 F900
G1 X104.554 Y90.573 E.00039
G1 X104.662 Y90.947 E.01477
G1 X104.621 Y91.33 E.01464
G1 X104.46 Y91.64 E.01329
G1 X104.162 Y91.898 E.015
G1 X103.759 Y92.026 E.01605
G1 X103.406 Y91.993 E.01347
G1 X103.282 Y91.936 E.00519
G1 X103.028 Y91.796 E.01106
G1 X102.785 Y91.492 E.01478
G1 X102.676 Y91.118 E.01478
G1 X102.719 Y90.732 E.01478
G1 X102.903 Y90.394 E.01464
G1 X103.176 Y90.167 E.01347
G1 X103.579 Y90.039 E.01608
G1 X103.932 Y90.072 E.01346
G1 X104.311 Y90.27 E.01624
G1 X104.522 Y90.534 E.01287
G1 E-.8 F1800
;WIPE_START
G1 F900
G1 X104.554 Y90.573
G1 X104.662 Y90.947
G1 X104.621 Y91.33
G1 X104.54 Y91.486
;WIPE_END
G1 Z.6 F15000
G1 X104.942 Y91.695 Z.6
G1 X107.524 Y104.755
G1 X107.582 Y104.953
G1 X107.641 Y105.095
G1 X107.709 Y105.226
G1 X107.788 Y105.35
G1 X107.877 Y105.467
G1 X107.982 Y105.581
G1 X108.136 Y105.716
G1 X108.263 Y105.805
G1 X108.39 Y105.879
G1 X108.524 Y105.941
G1 X108.669 Y105.994
G1 X108.869 Y106.042
G1 X109.022 Y106.063
G1 X116.948 Y107.065
G1 Z.2
G1 E.8 F1800
;TYPE:Inner wall
;WIDTH:0.623808
G1 F900
G1 X116.574 Y107.246 E.02009
G1 X115.975 Y107.475 E.03096
G1 X115.386 Y107.642 E.02956
;WIDTH:0.664493
G1 X114.9 Y107.705 E.02533
;WIDTH:0.705177
G1 X114.414 Y107.768 E.02699
;WIDTH:0.723007
G1 X113.825 Y107.795 E.03334
G1 X112.859 Y107.761 E.05469
;WIDTH:0.703022
G1 X112.264 Y107.694 E.03286
;WIDTH:0.659022
G1 X111.654 Y107.547 E.03212
G1 X111.075 Y107.353 E.0313
G1 X110.487 Y107.083 E.03312
G1 X112.323 Y107.083 E.09404
;WIDTH:0.703022
G1 X112.908 Y107.105 E.03213
;WIDTH:0.723007
G1 X114.393 Y107.106 E.08397
;WIDTH:0.705177
G1 X114.865 Y107.086 E.02601
;WIDTH:0.664493
G1 X115.337 Y107.065 E.02441
;WIDTH:0.623808
G1 X116.908 Y107.065 E.07592
G1 X118.808 Y106.443 F15000
;WIDTH:0.499999
G1 F900
G1 X118.257 Y106.883 E.02677
G1 X117.401 Y107.419 E.03842
G1 X116.759 Y107.731 E.02711
G1 X116.118 Y107.973 E.02605
G1 X115.475 Y108.153 E.02537
G1 X114.45 Y108.326 E.0395
G1 X113.801 Y108.363 E.02472
G1 X112.775 Y108.314 E.03903
G1 X112.125 Y108.212 E.02501
G1 X111.474 Y108.052 E.02546
G1 X110.844 Y107.837 E.0253
G1 X109.921 Y107.411 E.03864
G1 X109.066 Y106.864 E.03859
G1 X108.554 Y106.452 E.02496
G1 X109.168 Y106.547 E.02361
G1 X118.214 Y106.546 E.3438
G1 X118.768 Y106.45 E.02137
G1 E-.8 F1800
;WIPE_START
G1 F900
G1 X118.257 Y106.883
G1 X117.977 Y107.058
;WIPE_END
G1 Z.6 F15000
G1 X118.258 Y107.465 Z.6
G1 X119.555 Y105.344
G1 X119.662 Y105.168
G1 X119.727 Y105.028
G1 X119.777 Y104.89
G1 X119.815 Y104.748
G1 X119.841 Y104.603
G1 X119.854 Y104.456
G1 X119.855 Y96.668
G1 X119.849 Y96.536
G1 X119.829 Y96.382
G1 X119.78 Y96.183
G1 X119.727 Y96.037
G1 X119.662 Y95.897
G1 X119.555 Y95.721
G1 X119.461 Y95.599
G1 X119.361 Y95.49
G1 X119.253 Y95.391
G1 X119.136 Y95.301
G1 X119.012 Y95.222
G1 X118.882 Y95.154
G1 X118.87 Y95.149
G1 X118.873 Y95.14
G1 Z.2
G1 E.8 F1800
G1 F900
G1 X118.989 Y95.192 E.0048
G1 X119.418 Y95.521 E.02056
G1 X119.683 Y95.911 E.01792
G1 X119.785 Y96.158 E.01017
G1 X119.876 Y96.682 E.02021
G1 X119.875 Y104.428 E.29439
;WIDTH:0.501901
G1 X119.783 Y104.923 E.01921
;WIDTH:0.541887
G1 X119.767 Y105.011 E.00374
;WIDTH:0.581873
G1 X119.75 Y105.1 E.00404
;WIDTH:0.621859
G1 X119.733 Y105.189 E.00435
G1 X119.439 Y105.597 E.02422
;WIDTH:0.628771
G1 X119.212 Y105.779 E.0142
;WIDTH:0.656917
G1 X118.984 Y105.962 E.01488
G1 X118.829 Y105.99 E.00806
;WIDTH:0.617688
G1 X118.674 Y106.017 E.00755
;WIDTH:0.578458
G1 X118.518 Y106.045 E.00703
;WIDTH:0.539229
G1 X118.363 Y106.073 E.00652
;WIDTH:0.499999
G1 X118.151 Y106.089 E.00808
G1 X109.168 Y106.09 E.34139
G1 X108.645 Y105.999 E.0202
;WIDTH:0.534524
G1 X108.442 Y105.906 E.00911
;WIDTH:0.569048
G1 X108.24 Y105.812 E.00975
;WIDTH:0.603572
G1 X108.037 Y105.718 E.01039
G1 X107.843 Y105.528 E.01268
;WIDTH:0.625484
G1 X107.585 Y105.17 E.0214
G1 X107.551 Y104.978 E.00941
;WIDTH:0.583656
G1 X107.517 Y104.787 E.00874
;WIDTH:0.541828
G1 X107.484 Y104.596 E.00806
;WIDTH:0.499999
G1 X107.463 Y103.684 E.03466
G1 X107.466 Y96.596 E.2694
G1 X107.597 Y96.036 E.02184
G1 X107.716 Y95.801 E.01001
G1 X108.027 Y95.415 E.01884
G1 X108.454 Y95.136 E.01938
G1 X108.963 Y94.99 E.02015
G1 X109.082 Y94.979 E.00452
G1 X118.214 Y94.977 E.34709
G1 X118.764 Y95.091 E.02133
G1 X118.837 Y95.124 E.00306
G1 X118.674 Y95.554 F15000
;TYPE:Outer wall
G1 F900
G1 X118.73 Y95.568 E.00219
G1 X119.081 Y95.833 E.01673
G1 X119.337 Y96.247 E.01849
G1 X119.419 Y96.682 E.01681
G1 X119.418 Y104.428 E.29439
G1 X119.303 Y104.901 E.01851
G1 X119.018 Y105.295 E.01848
G1 X118.61 Y105.55 E.01829
G1 X118.151 Y105.632 E.01772
G1 X109.168 Y105.633 E.34139
G1 X108.672 Y105.529 E.01926
G1 X108.26 Y105.236 E.01922
G1 X108.021 Y104.869 E.01666
G1 X107.92 Y104.428 E.01719
G1 X107.923 Y96.596 E.29765
G1 X108.073 Y96.087 E.02016
G1 X108.338 Y95.753 E.01621
G1 X108.736 Y95.512 E.01767
G1 X109.082 Y95.436 E.01346
G1 X118.214 Y95.434 E.34709
G1 X118.636 Y95.544 E.01656
G1 E-.8 F1800
;WIPE_START
G1 F900
G1 X118.73 Y95.568
G1 X119.081 Y95.833
G1 X119.324 Y96.227
;WIPE_END
G1 Z.6 F15000
G1 X119.741 Y96.075 Z.6
G1 X122.027 Y94.65
G1 X122.021 Y94.649
G1 Z.2
G1 E.8 F1800
;TYPE:Inner wall
G1 F900
G1 X121.962 Y95.028 E.01459
G1 X121.954 Y100.824 E.22026
G1 X121.826 Y102.012 E.04544
G1 X121.673 Y102.688 E.02632
G1 X121.326 Y103.707 E.04092
G1 X120.832 Y104.703 E.04224
;WIDTH:0.501901
G1 X120.508 Y105.22 E.02329
;WIDTH:0.541887
G1 X120.407 Y105.321 E.00593
;WIDTH:0.581873
G1 X120.306 Y105.422 E.00641
;WIDTH:0.621859
G1 X119.733 Y106.098 E.04265
;WIDTH:0.656917
G1 X119.365 Y106.441 E.02569
G1 X119.291 Y106.537 E.00617
;WIDTH:0.617688
G1 X119.218 Y106.633 E.00577
;WIDTH:0.578458
G1 X119.144 Y106.729 E.00538
;WIDTH:0.539229
G1 X119.07 Y106.824 E.00498
;WIDTH:0.499999
