; HEADER_BLOCK_START
; generated by OrcaSlicer 1.9.1 on 2024-04-19 at 18:42:21
; total layer number: 67
; filament_density: 1.24
; filament_diameter: 1.75
; max_z_height: 13.40
; HEADER_BLOCK_END

; THUMBNAIL_BLOCK_START

;
; THUMBNAIL_BLOCK_END

; external perimeters extrusion width = 0.40mm
; perimeters extrusion width = 0.45mm
; infill extrusion width = 0.45mm
; solid infill extrusion width = 0.40mm
; top infill extrusion width = 0.40mm
; support material extrusion width = 0.40mm
; first layer extrusion width = 0.50mm

; external perimeters extrusion width = 0.40mm
; perimeters extrusion width = 0.45mm
; infill extrusion width = 0.45mm
; solid infill extrusion width = 0.40mm
; top infill extrusion width = 0.40mm
; support material extrusion width = 0.40mm
; first layer extrusion width = 0.50mm

; external perimeters extrusion width = 0.40mm
; perimeters extrusion width = 0.45mm
; infill extrusion width = 0.45mm
; solid infill extrusion width = 0.40mm
; top infill extrusion width = 0.40mm
; support material extrusion width = 0.40mm
; first layer extrusion width = 0.50mm

; EXECUTABLE_BLOCK_START


; Pre-Processed for Cancel-Object support by preprocess_cancellation v0.2.0
; 3 known objects
EXCLUDE_OBJECT_DEFINE NAME=Speedybee_Master_5_Parts_Battery_backup_buzzer_holder_stl_id_0_copy_0 CENTER=120.863,43.324 POLYGON=[[108.017,36.27],[108.017,57.368],[133.615,57.368],[133.615,36.27]]
EXCLUDE_OBJECT_DEFINE NAME=Speedybee_Master_5_Parts_Back_backup_buzzer_holder_4_screws_stl_id_53967406542396637_copy_0 CENTER=44.459,169.168 POLYGON=[[31.475,155.084],[31.475,180.684],[57.07,180.684],[57.07,155.084]]
EXCLUDE_OBJECT_DEFINE NAME=Speedybee_Master_5_Parts_Battery_backup_buzzer_holder_4_screws_horizontal_stl_id_0_copy_0 CENTER=185.126,178.179 POLYGON=[[172.29,160.485],[172.29,191.835],[197.884,191.835],[197.884,160.485]]
M73 P0 R67
;TYPE:Custom
M104 S0 ; Stops OrcaSlicer from sending temp waits separately
M140 S0
print_start EXTRUDER=220 BED=35 CHAMBER=0
G90
G21
M83 ; use relative distances for extrusion
; filament start gcode
M106 S0
;LAYER_CHANGE
;Z:0.2
;HEIGHT:0.2
;BEFORE_LAYER_CHANGE
;0.2
G92 E0

G1 E-.8 F1800
;_SET_FAN_SPEED_CHANGING_LAYER
SET_VELOCITY_LIMIT ACCEL=500 ACCEL_TO_DECEL=250
G1 Z.4 F15000
G1 X91.53 Y58.94
G1 Z.4
G1 Z.2
G1 E.8 F1800
;TYPE:Skirt
;WIDTH:0.5
G1 F2100.29
G1 X106.253 Y36.076 E1.03358
G1 X107.07 Y35.102 E.04831
G1 X107.952 Y34.426 E.04223
G1 X108.923 Y33.953 E.04104
G1 X110.199 Y33.649 E.04988
G1 X130.817 Y33.613 E.78361
G1 X132.278 Y33.813 E.05602
G1 X133.068 Y34.1 E.03197
G1 X133.696 Y34.435 E.02705
G1 X134.278 Y34.852 E.0272
G1 X134.869 Y35.416 E.03105
G1 X135.675 Y36.588 E.05407
G1 X200.084 Y166.839 E5.52254
G1 X200.428 Y167.907 E.04265
G1 X200.544 Y168.928 E.03907
G1 X200.544 Y189.144 E.76833
G1 X200.316 Y190.599 E.05598
G1 X200.042 Y191.324 E.02943
G1 X199.656 Y192.021 E.03029
G1 X198.885 Y192.954 E.04601
G1 X197.952 Y193.679 E.0449
G1 X196.98 Y194.153 E.04112
G1 X195.705 Y194.456 E.0498
G1 X174.798 Y194.484 E.7946
G1 X33.819 Y183.322 E5.37486
G1 X32.461 Y183.031 E.05277
G1 X31.194 Y182.388 E.05401
G1 X30.293 Y181.616 E.04509
G1 X29.528 Y180.577 E.04904
G1 X29.058 Y179.487 E.04514
G1 X28.826 Y178.192 E.05
G1 X28.821 Y157.682 E.7795
G1 X28.992 Y156.511 E.04498
G1 X29.415 Y155.401 E.04514
G1 X91.508 Y58.974 E4.35894
; printing object Speedybee Master 5 Parts - Battery backup buzzer holder.stl id:0 copy 0
EXCLUDE_OBJECT_START NAME=Speedybee_Master_5_Parts_Battery_backup_buzzer_holder_stl_id_0_copy_0
G1 E-.8 F1800
;WIPE_START
G1 F2100.29
G1 X92.05 Y58.133
;WIPE_END
G1 Z.6 F15000
G1 X115.401 Y43.356 Z.6
G1 X115.496 Y43.306
G1 X115.595 Y43.265
G1 X115.698 Y43.233
G1 X115.803 Y43.21
G1 X115.909 Y43.196
G1 X116.011 Y43.191
G1 X129.598 Y42.82
G1 Z.2
G1 E.8 F1800
;TYPE:Outer wall
;WIDTH:0.499999
G1 F900
G1 X129.566 Y43.064 E.00933
G1 X129.558 Y48.941 E.22336
G1 X129.436 Y50.071 E.04321
G1 X129.277 Y50.799 E.02833
G1 X128.918 Y51.873 E.04301
G1 X128.424 Y52.891 E.04301
G1 X128.022 Y53.533 E.02879
G1 X127.573 Y54.128 E.02835
G1 X127.069 Y54.69 E.02868
G1 X126.515 Y55.209 E.02883
G1 X125.931 Y55.669 E.02826
G1 X124.91 Y56.3 E.04563
G1 X124.239 Y56.62 E.02825
G1 X123.523 Y56.887 E.02903
G1 X122.786 Y57.09 E.02904
G1 X121.664 Y57.275 E.04324
G1 X120.916 Y57.314 E.02845
G1 X119.793 Y57.256 E.04275
G1 X119.064 Y57.14 E.02807
G1 X118.337 Y56.959 E.02845
G1 X117.617 Y56.709 E.02896
G1 X116.607 Y56.238 E.04236
G1 X115.977 Y55.858 E.02798
G1 X115.295 Y55.352 E.03227
G1 X114.698 Y54.817 E.03044
G1 X114.187 Y54.272 E.02842
G1 X113.742 Y53.71 E.02723
G1 X113.351 Y53.122 E.02683
G1 X112.842 Y52.166 E.04119
G1 X112.565 Y51.477 E.02821
G1 X112.345 Y50.752 E.02878
G1 X112.188 Y50.011 E.02882
G1 X112.074 Y48.949 E.04059
G1 X112.066 Y43.07 E.22343
G1 X111.967 Y42.595 E.01845
G1 X111.715 Y42.204 E.01765
G1 X111.279 Y41.912 E.01996
G1 X110.807 Y41.821 E.01826
G1 X110.237 Y41.747 E.02185
G1 X109.744 Y41.598 E.01956
G1 X109.273 Y41.345 E.02035
G1 X108.87 Y41.001 E.02011
G1 X108.482 Y40.517 E.02361
G1 X108.248 Y40.052 E.01976
G1 X108.085 Y39.382 E.02621
G1 X108.093 Y38.7 E.02593
G1 X108.236 Y38.158 E.02129
G1 X108.407 Y37.744 E.01704
G1 X108.809 Y37.191 E.02597
G1 X109.227 Y36.827 E.02107
G1 X109.731 Y36.555 E.02177
G1 X110.105 Y36.429 E.01501
G1 X110.676 Y36.324 E.02204
G1 X130.804 Y36.32 E.765
G1 X131.409 Y36.386 E.02315
G1 X131.975 Y36.578 E.0227
G1 X132.486 Y36.887 E.02269
G1 X132.849 Y37.233 E.01905
G1 X133.113 Y37.59 E.01691
G1 X133.318 Y37.966 E.01624
G1 X133.489 Y38.479 E.02055
G1 X133.555 Y39.037 E.02136
G1 X133.533 Y39.396 E.01366
G1 X133.422 Y39.926 E.0206
G1 X133.234 Y40.366 E.01817
G1 X132.93 Y40.826 E.02097
G1 X132.561 Y41.183 E.0195
G1 X132.268 Y41.392 E.01368
G1 X131.728 Y41.657 E.02286
G1 X131.189 Y41.794 E.02114
G1 X130.635 Y41.832 E.02111
G1 X130.164 Y42.006 E.01908
G1 X129.783 Y42.37 E.02004
G1 X129.605 Y42.766 E.01648
G1 X129.603 Y42.781 E.00057
G1 E-.8 F1800
;WIPE_START
G1 F900
G1 X129.566 Y43.064
G1 X129.565 Y43.778
;WIPE_END
G1 Z.6 F15000
G1 X129.13 Y43.778 Z.6
G1 X129.13 Y43.046
G1 X129.142 Y42.86
G1 X129.168 Y42.71
G1 X129.204 Y42.571
G1 X129.252 Y42.436
G1 X129.312 Y42.305
G1 X129.386 Y42.173
G1 X129.503 Y42.009
G1 X129.603 Y41.896
G1 X129.713 Y41.792
G1 X129.873 Y41.669
G1 X130.002 Y41.591
G1 X130.137 Y41.523
G1 X130.333 Y41.451
G1 X130.543 Y41.403
G1 X130.745 Y41.383
G1 X131.901 Y40.009
G1 X131.562 Y39.725
G1 Z.2
G1 E.8 F1800
G1 F900
G1 X131.275 Y39.954 E.01394
G1 X130.902 Y40.063 E.01478
G1 X130.519 Y40.022 E.01464
G1 X130.209 Y39.86 E.01329
G1 X129.95 Y39.562 E.015
G1 X129.822 Y39.16 E.01605
G1 X129.847 Y38.825 E.01276
G1 X129.962 Y38.56 E.01099
G1 X130.299 Y38.214 E.01834
G1 X130.522 Y38.118 E.00921
G1 X130.922 Y38.076 E.0153
G1 X131.214 Y38.168 E.0116
G1 X131.457 Y38.307 E.01067
G1 X131.7 Y38.611 E.01478
G1 X131.809 Y38.984 E.01477
G1 X131.766 Y39.371 E.01479
G1 X131.587 Y39.695 E.01409
G1 X131.861 Y40.05 F15000
;TYPE:Inner wall
G1 F900
G1 X131.573 Y40.314 E.01486
G1 X131.069 Y40.503 E.02047
G1 X130.566 Y40.499 E.01911
G1 X130.326 Y40.436 E.00945
G1 X129.953 Y40.244 E.01593
G1 X129.574 Y39.832 E.02127
G1 X129.379 Y39.308 E.02125
G1 X129.377 Y38.873 E.01652
G1 X129.487 Y38.48 E.01554
G1 X129.625 Y38.251 E.01014
G1 X129.895 Y37.957 E.01517
G1 X130.249 Y37.73 E.01598
G1 X130.793 Y37.621 E.0211
G1 X131.143 Y37.651 E.01333
G1 X131.64 Y37.871 E.02069
G1 X131.999 Y38.232 E.01935
G1 X132.133 Y38.464 E.01016
G1 X132.258 Y38.863 E.0159
G1 X132.224 Y39.445 E.02215
G1 X131.991 Y39.931 E.02048
G1 X131.891 Y40.023 E.00518
G1 E-.8 F1800
;WIPE_START
G1 F900
G1 X131.573 Y40.314
G1 X131.069 Y40.503
G1 X131.038 Y40.503
;WIPE_END
G1 Z.6 F15000
G1 X131.036 Y40.488 Z.6
G1 X126.306 Y42.882
G1 X126.135 Y43.295
G1 Z.2
G1 E.8 F1800
;TYPE:Outer wall
G1 F900
G1 X126.179 Y43.307 E.00171
G1 X126.534 Y43.579 E.01701
G1 X126.784 Y43.984 E.01808
G1 X126.866 Y44.419 E.01681
G1 X126.865 Y52.765 E.31721
G1 X126.749 Y53.238 E.01851
G1 X126.465 Y53.632 E.01847
G1 X126.056 Y53.887 E.0183
G1 X125.661 Y53.969 E.01536
G1 X116.015 Y53.97 E.36661
G1 X115.498 Y53.854 E.02014
G1 X115.106 Y53.573 E.01831
G1 X114.868 Y53.206 E.01665
G1 X114.767 Y52.765 E.01719
G1 X114.77 Y44.331 E.32055
G1 X114.9 Y43.86 E.01855
G1 X115.127 Y43.546 E.01475
G1 X115.525 Y43.273 E.01832
G1 X115.927 Y43.174 E.01573
G1 X125.661 Y43.171 E.36996
G1 X126.096 Y43.285 E.01711
G1 X126.326 Y42.88 F15000
;TYPE:Inner wall
G1 F900
G1 X126.441 Y42.932 E.00479
G1 X126.847 Y43.238 E.0193
G1 X127.133 Y43.653 E.01918
G1 X127.232 Y43.895 E.00992
G1 X127.323 Y44.419 E.02022
G1 X127.322 Y52.765 E.31721
G1 X127.219 Y53.258 E.01912
;WIDTH:0.480953
G1 X127.041 Y53.525 E.01172
;WIDTH:0.436916
G1 X126.864 Y53.793 E.01054
;WIDTH:0.428116
G1 X126.523 Y54.1 E.01468
;WIDTH:0.458691
G1 X126.339 Y54.214 E.00749
;WIDTH:0.489265
G1 X126.154 Y54.328 E.00804
;WIDTH:0.499999
G1 X125.661 Y54.426 E.01912
G1 X116.015 Y54.427 E.36661
G1 X115.491 Y54.336 E.02021
G1 X115.244 Y54.234 E.01017
G1 X115.115 Y54.123 E.00646
;WIDTH:0.464622
G1 X114.986 Y54.012 E.00596
;WIDTH:0.429245
G1 X114.857 Y53.901 E.00546
;WIDTH:0.421836
G1 X114.668 Y53.65 E.00989
;WIDTH:0.449803
G1 X114.478 Y53.4 E.01062
;WIDTH:0.474901
G1 X114.404 Y53.164 E.00889
;WIDTH:0.499999
G1 X114.329 Y52.928 E.00941
G1 X114.31 Y51.789 E.04331
G1 X114.312 Y44.331 E.28345
G1 X114.428 Y43.81 E.02027
G1 X114.692 Y43.349 E.02019
G1 X114.857 Y43.177 E.00905
G1 X115.271 Y42.884 E.01928
G1 X115.794 Y42.729 E.02074
G1 X115.927 Y42.717 E.00505
G1 X125.661 Y42.714 E.36996
G1 X126.211 Y42.828 E.02134
G1 X126.289 Y42.864 E.00329
G1 E-.8 F1800
G1 Z.6 F15000
G1 X129.167 Y42.685 Z.6
G1 Z.2
G1 E.8 F1800
G1 F900
G1 X129.109 Y43.059 E.01437
G1 X129.1 Y48.916 E.22261
G1 X128.984 Y49.998 E.04135
G1 X128.835 Y50.678 E.02646
G1 X128.494 Y51.7 E.04095
G1 X128.024 Y52.669 E.04094
G1 X127.574 Y53.389 E.03227
;WIDTH:0.455813
G1 X127.393 Y53.681 E.01178
;WIDTH:0.411627
G1 X127.064 Y54.094 E.01619
;WIDTH:0.416468
G1 X126.839 Y54.311 E.00972
;WIDTH:0.444133
G1 X126.614 Y54.528 E.01044
;WIDTH:0.472066
G1 X126.415 Y54.695 E.00924
;WIDTH:0.499999
G1 X125.668 Y55.294 E.03642
G1 X124.783 Y55.848 E.03968
G1 X124.076 Y56.193 E.02989
G1 X123.397 Y56.448 E.02754
G1 X122.708 Y56.639 E.02718
G1 X121.634 Y56.819 E.04137
G1 X120.936 Y56.857 E.02659
G1 X119.861 Y56.804 E.04089
G1 X119.171 Y56.695 E.02657
G1 X118.482 Y56.525 E.02695
G1 X117.808 Y56.294 E.0271
G1 X116.841 Y55.845 E.0405
G1 X116.244 Y55.487 E.02648
G1 X115.593 Y55.005 E.03078
G1 X114.926 Y54.429 E.03349
;WIDTH:0.453286
G1 X114.713 Y54.245 E.0096
;WIDTH:0.406573
G1 X114.498 Y54.016 E.00951
;WIDTH:0.435652
G1 X114.304 Y53.736 E.01111
;WIDTH:0.479219
G1 X114.11 Y53.457 E.01234
;WIDTH:0.499999
G1 X113.754 Y52.905 E.02497
G1 X113.265 Y51.993 E.03932
G1 X113.002 Y51.341 E.02672
G1 X112.791 Y50.655 E.02728
G1 X112.641 Y49.952 E.02733
G1 X112.531 Y48.934 E.03892
G1 X112.524 Y43.56 E.20422
G1 X112.507 Y42.923 E.02423
G1 X112.39 Y42.416 E.01979
G1 X112.06 Y41.903 E.02316
G1 X111.603 Y41.565 E.02159
G1 X111.185 Y41.411 E.01695
G1 X110.138 Y41.258 E.04019
G1 X109.676 Y41.047 E.01933
G1 X109.292 Y40.777 E.01783
G1 X108.968 Y40.42 E.01833
G1 X108.681 Y39.897 E.02264
G1 X108.543 Y39.329 E.02221
G1 X108.548 Y38.814 E.01959
G1 X108.622 Y38.487 E.01275
G1 X108.802 Y37.979 E.02048
G1 X109.121 Y37.54 E.0206
G1 X109.385 Y37.296 E.01369
G1 X109.829 Y37.022 E.01983
G1 X110.228 Y36.869 E.01624
G1 X110.701 Y36.781 E.01829
G1 X130.738 Y36.777 E.76151
G1 X131.252 Y36.829 E.01963
G1 X131.635 Y36.945 E.01522
G1 X132.168 Y37.229 E.02294
G1 X132.533 Y37.564 E.01884
G1 X132.818 Y37.971 E.01889
G1 X133.025 Y38.472 E.0206
G1 X133.099 Y39.008 E.02059
G1 X133.077 Y39.367 E.01366
G1 X133.021 Y39.655 E.01114
G1 X132.819 Y40.174 E.02117
G1 X132.604 Y40.495 E.0147
G1 X132.244 Y40.854 E.01932
G1 X132.02 Y41.008 E.01029
G1 X131.551 Y41.236 E.01984
G1 X131.09 Y41.342 E.01799
G1 X130.58 Y41.378 E.01942
G1 X130.047 Y41.561 E.02143
G1 X129.802 Y41.697 E.01063
G1 X129.412 Y42.101 E.02134
G1 X129.182 Y42.595 E.0207
G1 X129.174 Y42.646 E.00197
G1 E-.8 F1800
;WIPE_START
G1 F900
G1 X129.109 Y43.059
G1 X129.108 Y43.641
;WIPE_END
G1 Z.6 F15000
G1 X129.13 Y43.641 Z.6
G1 X129.13 Y43.046
G1 X129.142 Y42.86
G1 X129.168 Y42.71
G1 X129.204 Y42.571
G1 X129.252 Y42.436
G1 X129.312 Y42.305
G1 X129.386 Y42.173
G1 X129.503 Y42.009
G1 X129.603 Y41.896
G1 X129.713 Y41.792
G1 X133.13 Y39.064
G1 X130.81 Y36.756
G1 X130.355 Y36.756
G1 X130.355 Y37.227
G1 Z.2
G1 E.8 F1800
;WIDTH:0.485088
G1 F900
G1 X130.679 Y37.22 E.01188
;WIDTH:0.444623
G1 X131.002 Y37.213 E.0108
;WIDTH:0.405554
G1 X131.367 Y37.287 E.01123
;WIDTH:0.408576
G1 X131.853 Y37.519 E.01639
;WIDTH:0.429408
G1 X132.242 Y37.869 E.01679
G1 X132.507 Y38.283 E.01582
;WIDTH:0.412624
G1 X132.662 Y38.799 E.01657
;WIDTH:0.419244
G1 X132.661 Y39.341 E.01696
;WIDTH:0.421708
G1 X132.551 Y39.758 E.01357
G1 X132.262 Y40.258 E.0182
;WIDTH:0.417088
G1 X131.797 Y40.661 E.01914
;WIDTH:0.431852
G1 X131.387 Y40.846 E.01454
G1 X130.992 Y40.933 E.01309
;WIDTH:0.441978
G1 X130.763 Y40.936 E.00758
;WIDTH:0.467934
G1 X130.535 Y40.939 E.00808
G1 E-.8 F1800
;WIPE_START
G1 F900
G1 X130.763 Y40.936
G1 X130.992 Y40.933
G1 X131.387 Y40.846
G1 X131.513 Y40.789
;WIPE_END
G1 Z.6 F15000
G1 X131.681 Y41.215 Z.6
G1 X130.543 Y41.403
G1 X130.333 Y41.451
G1 X130.137 Y41.523
G1 X130.002 Y41.591
G1 X129.873 Y41.669
G1 X129.713 Y41.792
G1 X129.603 Y41.896
G1 X129.503 Y42.009
G1 X129.386 Y42.173
G1 X129.312 Y42.305
G1 X129.252 Y42.436
G1 X129.204 Y42.571
G1 X129.168 Y42.71
G1 X129.142 Y42.86
G1 X127.251 Y53.875
G1 X125.959 Y55.102
G1 X125.74 Y55.267
G1 X125.451 Y54.883
G1 Z.2
G1 E.8 F1800
;WIDTH:0.499999
G1 F900
G1 X124.511 Y55.477 E.04227
G1 X123.912 Y55.766 E.02525
G1 X123.271 Y56.009 E.02606
G1 X122.63 Y56.189 E.02532
G1 X121.605 Y56.363 E.03951
G1 X120.956 Y56.4 E.02473
G1 X119.93 Y56.352 E.03903
G1 X119.278 Y56.251 E.02507
G1 X118.627 Y56.092 E.02546
G1 X117.999 Y55.878 E.02524
G1 X117.075 Y55.453 E.03864
G1 X116.189 Y54.884 E.04001
G1 X125.411 Y54.883 E.35048
G1 X123.807 Y55.326 F15000
;WIDTH:0.471983
G1 F900
G1 X123.149 Y55.583 E.0252
M73 P1 R67
G1 X122.554 Y55.752 E.02207
;WIDTH:0.513369
G1 X122.064 Y55.816 E.01933
;WIDTH:0.554755
G1 X121.574 Y55.879 E.02103
;WIDTH:0.57311
G1 X120.977 Y55.907 E.02635
G1 X120.002 Y55.874 E.04299
;WIDTH:0.552781
G1 X119.386 Y55.803 E.02629
;WIDTH:0.507683
G1 X118.774 Y55.655 E.02436
G1 X117.941 Y55.345 E.03432
G1 X119.441 Y55.345 E.05794
;WIDTH:0.552781
G1 X120.04 Y55.367 E.02544
;WIDTH:0.57311
G1 X121.557 Y55.368 E.06688
;WIDTH:0.554755
G1 X122.037 Y55.347 E.02045
;WIDTH:0.513369
G1 X122.517 Y55.326 E.01879
;WIDTH:0.471983
G1 X123.767 Y55.326 E.04459
G1 E-.8 F1800
;WIPE_START
G1 F900
G1 X123.149 Y55.583
G1 X122.831 Y55.673
;WIPE_END
G1 Z.6 F15000
G1 X115.715 Y54.38 Z.6
G1 X115.516 Y54.331
G1 X115.37 Y54.278
G1 X115.23 Y54.213
G1 X115.064 Y54.091
G1 X114.948 Y53.993
G1 X114.844 Y53.892
G1 X114.747 Y53.784
G1 X114.657 Y53.671
G1 X114.575 Y53.552
G1 X114.5 Y53.427
G1 X114.43 Y53.289
G1 X114.371 Y53.092
G1 X114.344 Y52.94
G1 X112.239 Y38.875
G1 X112.205 Y38.705
G1 X112.165 Y38.579
G1 X112.118 Y38.463
G1 X112.084 Y38.399
G1 X111.694 Y38.602
G1 Z.2
G1 E.8 F1800
;TYPE:Outer wall
;WIDTH:0.499999
G1 F900
G1 X111.7 Y38.611 E.00039
G1 X111.809 Y38.984 E.01477
G1 X111.768 Y39.367 E.01464
G1 X111.606 Y39.677 E.01329
G1 X111.308 Y39.935 E.015
G1 X110.906 Y40.063 E.01605
G1 X110.553 Y40.031 E.01347
G1 X110.429 Y39.973 E.00519
G1 X110.174 Y39.833 E.01106
G1 X109.931 Y39.529 E.01478
G1 X109.823 Y39.156 E.01478
G1 X109.866 Y38.769 E.01478
G1 X110.05 Y38.431 E.01464
G1 X110.323 Y38.204 E.01347
G1 X110.726 Y38.076 E.01608
G1 X111.079 Y38.109 E.01346
G1 X111.457 Y38.307 E.01624
G1 X111.669 Y38.571 E.01286
G1 X112.084 Y38.379 F15000
;TYPE:Inner wall
G1 F900
G1 X112.133 Y38.464 E.0037
G1 X112.23 Y38.748 E.01143
G1 X112.265 Y39.014 E.01017
G1 X112.2 Y39.519 E.01937
G1 X111.994 Y39.927 E.01739
G1 X111.61 Y40.291 E.0201
G1 X111.13 Y40.486 E.0197
G1 X110.886 Y40.52 E.00936
G1 X110.406 Y40.464 E.01837
G1 X110.236 Y40.387 E.00708
G1 X109.92 Y40.219 E.01359
G1 X109.579 Y39.839 E.0194
G1 X109.385 Y39.333 E.02063
G1 X109.386 Y38.825 E.01929
