; HEADER_BLOCK_START
; generated by OrcaSlicer 1.9.1 on 2024-04-19 at 15:17:09
; total layer number: 67
; filament_density: 1.24
; filament_diameter: 1.75
; max_z_height: 13.40
; HEADER_BLOCK_END

; THUMBNAIL_BLOCK_START

;
; THUMBNAIL_BLOCK_END

; external perimeters extrusion width = 0.40mm
; perimeters extrusion width = 0.45mm
; infill extrusion width = 0.45mm
; solid infill extrusion width = 0.40mm
; top infill extrusion width = 0.40mm
; support material extrusion width = 0.40mm
; first layer extrusion width = 0.50mm

; external perimeters extrusion width = 0.40mm
; perimeters extrusion width = 0.45mm
; infill extrusion width = 0.45mm
; solid infill extrusion width = 0.40mm
; top infill extrusion width = 0.40mm
; support material extrusion width = 0.40mm
; first layer extrusion width = 0.50mm

; external perimeters extrusion width = 0.40mm
; perimeters extrusion width = 0.45mm
; infill extrusion width = 0.45mm
; solid infill extrusion width = 0.40mm
; top infill extrusion width = 0.40mm
; support material extrusion width = 0.40mm
; first layer extrusion width = 0.50mm

; external perimeters extrusion width = 0.40mm
; perimeters extrusion width = 0.45mm
; infill extrusion width = 0.45mm
; solid infill extrusion width = 0.40mm
; top infill extrusion width = 0.40mm
; support material extrusion width = 0.40mm
; first layer extrusion width = 0.50mm

; EXECUTABLE_BLOCK_START


; Pre-Processed for Cancel-Object support by preprocess_cancellation v0.2.0
; 4 known objects
EXCLUDE_OBJECT_DEFINE NAME=Speedybee_Master_5_Parts_Battery_backup_buzzer_holder_4_screws_horizontal_stl_id_1089808064230344914_copy_0 CENTER=146.369,133.442 POLYGON=[[133.548,115.417],[133.548,146.767],[159.143,146.767],[159.143,115.417]]
EXCLUDE_OBJECT_DEFINE NAME=Speedybee_Master_5_Parts_Back_backup_buzzer_holder_4_screws_stl_id_18376982912775075020_copy_0 CENTER=108.358,135.203 POLYGON=[[95.549,121.167],[95.549,146.767],[121.143,146.767],[121.143,121.167]]
EXCLUDE_OBJECT_DEFINE NAME=Capacitor_beeper_base_stl_id_1089808064230344914_copy_0 CENTER=87.339,103.382 POLYGON=[[75.853,91.972],[75.853,116.358],[100.239,116.358],[100.239,91.972]]
EXCLUDE_OBJECT_DEFINE NAME=Speedybee_Master_5_Parts_Battery_backup_buzzer_holder_stl_id_18376982912775075019_copy_0 CENTER=123.530,95.555 POLYGON=[[110.718,88.233],[110.718,109.33],[136.316,109.33],[136.316,88.233]]
M73 P0 R84
;TYPE:Custom
M104 S0 ; Stops OrcaSlicer from sending temp waits separately
M140 S0
print_start EXTRUDER=220 BED=35 CHAMBER=0
G90
G21
M83 ; use relative distances for extrusion
; filament start gcode
M106 S0
;LAYER_CHANGE
;Z:0.2
;HEIGHT:0.2
;BEFORE_LAYER_CHANGE
;0.2
G92 E0

G1 E-.8 F1800
;_SET_FAN_SPEED_CHANGING_LAYER
SET_VELOCITY_LIMIT ACCEL=500 ACCEL_TO_DECEL=250
G1 Z.4 F15000
G1 X76.973 Y91.726
G1 Z.4
G1 Z.2
G1 E.8 F1800
;TYPE:Skirt
;WIDTH:0.5
G1 F2100.29
G1 X77.794 Y91.11 E.039
G1 X78.777 Y90.52 E.04358
G1 X79.707 Y90.087 E.039
G1 X80.675 Y89.747 E.039
G1 X82.059 Y89.436 E.0539
G1 X113.138 Y85.59 E1.19021
G1 X133.518 Y85.576 E.77455
G1 X134.747 Y85.717 E.04703
G1 X135.986 Y86.167 E.05008
G1 X137.06 Y86.883 E.04908
G1 X137.873 Y87.747 E.04507
G1 X156.988 Y114.647 E1.25423
G1 X161.342 Y121.771 E.31732
G1 X161.686 Y122.839 E.04265
G1 X161.803 Y123.861 E.03907
G1 X161.804 Y143.999 E.7654
G1 X161.609 Y145.413 E.05422
G1 X161.035 Y146.761 E.05569
G1 X160.144 Y147.887 E.05456
G1 X159.082 Y148.689 E.0506
G1 X157.87 Y149.207 E.05009
G1 X156.564 Y149.42 E.05028
G1 X98.294 Y149.424 E2.21463
G1 X96.886 Y149.225 E.05404
G1 X95.578 Y148.669 E.05402
G1 X94.457 Y147.794 E.05404
G1 X93.992 Y147.255 E.02708
G1 X93.538 Y146.545 E.032
G1 X78.218 Y115.546 E1.3142
G1 X73.809 Y103.297 E.49477
G1 X73.319 Y101.365 E.07578
G1 X73.197 Y99.71 E.06305
G1 X73.386 Y97.79 E.07334
G1 X73.828 Y96.191 E.06304
G1 X74.226 Y95.245 E.039
G1 X74.715 Y94.343 E.039
G1 X75.29 Y93.493 E.039
G1 X75.946 Y92.704 E.039
G1 X76.944 Y91.753 E.05238
; printing object Speedybee Master 5 Parts - Battery backup buzzer holder 4 screws horizontal.stl id:1089808064230344914 copy 0
EXCLUDE_OBJECT_START NAME=Speedybee_Master_5_Parts_Battery_backup_buzzer_holder_4_screws_horizontal_stl_id_1089808064230344914_copy_0
G1 E-.8 F1800
;WIPE_START
G1 F2100.29
G1 X77.741 Y91.15
;WIPE_END
G1 Z.6 F15000
G1 X85.274 Y93.774 Z.6
G1 X97.811 Y98.51
G1 X144.415 Y116.989
G1 X151.881 Y116.989
G1 X151.974 Y116.999
G1 X152.066 Y117.022
G1 X152.155 Y117.056
G1 X152.239 Y117.102
G1 X152.318 Y117.16
G1 X152.404 Y117.247
G1 X155.326 Y121.217
G1 Z.2
G1 E.8 F1800
;TYPE:Outer wall
;WIDTH:0.499999
G1 F900
G1 X156.314 Y121.218 E.03756
G1 X156.814 Y121.258 E.01907
G1 X157.347 Y121.407 E.02105
G1 X157.842 Y121.66 E.02111
G1 X158.278 Y122.011 E.02128
G1 X158.635 Y122.443 E.0213
G1 X158.897 Y122.941 E.0214
G1 X159.053 Y123.483 E.02141
G1 X159.088 Y124.167 E.02605
G1 X158.989 Y124.728 E.02164
G1 X158.773 Y125.259 E.02179
G1 X158.45 Y125.737 E.02192
G1 X157.984 Y126.175 E.02432
G1 X157.481 Y126.471 E.0222
G1 X156.923 Y126.655 E.02231
G1 X156.089 Y126.747 E.03191
G1 X155.7 Y126.903 E.01592
G1 X155.447 Y127.105 E.01232
G1 X155.251 Y127.371 E.01256
G1 X155.134 Y127.672 E.01226
G1 X155.097 Y127.968 E.01132
G1 X155.097 Y139.975 E.45635
G1 X155.205 Y140.472 E.01935
G1 X155.502 Y140.881 E.01918
G1 X155.899 Y141.133 E.01788
G1 X156.966 Y141.306 E.0411
G1 X157.48 Y141.467 E.02045
G1 X157.927 Y141.718 E.01949
G1 X158.45 Y142.198 E.027
G1 X158.784 Y142.715 E.02336
G1 X158.954 Y143.095 E.01584
G1 X159.065 Y143.627 E.02065
G1 X159.057 Y144.38 E.02862
G1 X158.918 Y144.932 E.02162
G1 X158.698 Y145.392 E.01941
G1 X158.278 Y145.923 E.02573
G1 X157.747 Y146.333 E.02548
G1 X157.138 Y146.599 E.02525
G1 X156.48 Y146.713 E.02537
G1 X136.448 Y146.717 E.76137
G1 X135.933 Y146.682 E.01961
G1 X135.432 Y146.554 E.01965
G1 X134.921 Y146.312 E.02148
G1 X134.513 Y146.009 E.01933
G1 X134.157 Y145.622 E.01997
G1 X133.891 Y145.191 E.01925
G1 X133.704 Y144.706 E.01978
G1 X133.616 Y144.18 E.02026
G1 X133.616 Y143.687 E.01871
G1 X133.722 Y143.151 E.02077
G1 X133.927 Y142.681 E.01951
G1 X134.189 Y142.273 E.01843
G1 X134.516 Y141.924 E.01815
G1 X134.959 Y141.594 E.021
G1 X135.428 Y141.385 E.01951
G1 X135.974 Y141.243 E.02143
G1 X136.49 Y141.208 E.01967
G1 X136.905 Y141.088 E.0164
G1 X137.298 Y140.779 E.01902
G1 X137.539 Y140.331 E.01932
G1 X137.597 Y139.971 E.01387
G1 X137.596 Y127.921 E.45799
G1 X137.561 Y127.672 E.00955
G1 X137.45 Y127.379 E.01193
G1 X137.265 Y127.119 E.01211
G1 X136.849 Y126.825 E.01936
G1 X136.572 Y126.737 E.01105
G1 X135.978 Y126.692 E.02263
G1 X135.387 Y126.543 E.02318
G1 X134.931 Y126.317 E.01933
G1 X134.48 Y125.985 E.02128
G1 X134.14 Y125.597 E.01962
G1 X133.878 Y125.17 E.01904
G1 X133.708 Y124.72 E.01828
G1 X133.612 Y124.192 E.0204
G1 X133.618 Y123.658 E.02029
G1 X133.735 Y123.128 E.02063
G1 X133.939 Y122.649 E.01978
G1 X134.244 Y122.197 E.02075
G1 X134.659 Y121.803 E.02172
G1 X135.109 Y121.525 E.02011
G1 X135.572 Y121.333 E.01906
G1 X136.108 Y121.229 E.02074
G1 X137.418 Y121.212 E.0498
G1 X137.57 Y121.096 E.00728
G1 X137.597 Y120.989 E.0042
G1 X137.597 Y117.424 E.13548
G1 X137.64 Y116.841 E.02222
G1 X137.797 Y116.41 E.01742
G1 X138.059 Y116.036 E.01736
G1 X138.343 Y115.786 E.01437
G1 X138.881 Y115.538 E.02251
G1 X139.358 Y115.467 E.01834
G1 X153.409 Y115.469 E.53403
G1 X153.945 Y115.576 E.02076
G1 X154.411 Y115.831 E.0202
G1 X154.778 Y116.215 E.0202
G1 X155.013 Y116.692 E.0202
G1 X155.097 Y117.235 E.02091
G1 X155.101 Y121.028 E.14415
G1 X155.188 Y121.171 E.00638
G1 X155.288 Y121.205 E.00399
G1 X155.295 Y121.654 F15000
;TYPE:Inner wall
G1 F900
G1 X156.519 Y121.69 E.04656
G1 X157.016 Y121.789 E.01925
G1 X157.553 Y122.026 E.02232
G1 X157.922 Y122.311 E.01771
G1 X158.225 Y122.664 E.01768
G1 X158.451 Y123.075 E.01781
G1 X158.586 Y123.513 E.01741
G1 X158.624 Y124.045 E.0203
G1 X158.57 Y124.471 E.01631
G1 X158.402 Y124.959 E.01963
G1 X158.126 Y125.401 E.01977
G1 X157.743 Y125.775 E.02036
G1 X157.329 Y126.03 E.01846
G1 X156.867 Y126.192 E.01861
G1 X155.991 Y126.3 E.03356
G1 X155.52 Y126.483 E.0192
G1 X155.15 Y126.758 E.01753
G1 X154.875 Y127.111 E.01703
G1 X154.704 Y127.517 E.01673
G1 X154.64 Y127.968 E.01729
G1 X154.64 Y139.378 E.43365
G1 X154.656 Y140.114 E.02799
G1 X154.807 Y140.702 E.02308
G1 X155.137 Y141.157 E.02135
G1 X155.335 Y141.333 E.01007
G1 X155.801 Y141.581 E.02006
G1 X156.861 Y141.75 E.0408
G1 X157.351 Y141.91 E.01961
G1 X157.732 Y142.159 E.01729
G1 X158.127 Y142.54 E.02087
G1 X158.477 Y143.134 E.02621
G1 X158.608 Y143.641 E.01989
G1 X158.624 Y144.153 E.01944
G1 X158.55 Y144.59 E.01684
G1 X158.31 Y145.146 E.02302
G1 X157.954 Y145.596 E.02181
G1 X157.512 Y145.936 E.02122
M73 P0 R83
G1 X157.005 Y146.158 E.02102
G1 X156.441 Y146.256 E.02177
G1 X136.355 Y146.259 E.76339
G1 X135.729 Y146.172 E.024
G1 X135.238 Y145.97 E.02018
G1 X134.849 Y145.698 E.01805
G1 X134.497 Y145.315 E.01978
G1 X134.245 Y144.871 E.0194
G1 X134.09 Y144.346 E.02081
G1 X134.072 Y143.716 E.02396
G1 X134.194 Y143.212 E.0197
G1 X134.415 Y142.75 E.01945
G1 X134.753 Y142.335 E.02034
G1 X135.153 Y142.017 E.01941
G1 X135.615 Y141.802 E.01936
G1 X136.041 Y141.697 E.01669
G1 X136.559 Y141.662 E.01976
G1 X137.112 Y141.496 E.02192
G1 X137.568 Y141.15 E.02175
G1 X137.751 Y140.924 E.01104
G1 X137.975 Y140.476 E.01904
G1 X138.054 Y139.971 E.01944
G1 X138.053 Y127.921 E.45799
G1 X138.013 Y127.604 E.01213
G1 X137.873 Y127.207 E.01599
G1 X137.632 Y126.846 E.01653
G1 X137.463 Y126.685 E.00885
G1 X136.978 Y126.379 E.0218
G1 X136.607 Y126.281 E.0146
G1 X136.088 Y126.242 E.01979
G1 X135.572 Y126.118 E.02014
G1 X135.17 Y125.928 E.01692
G1 X134.742 Y125.598 E.02054
G1 X134.397 Y125.167 E.02097
G1 X134.173 Y124.684 E.02022
G1 X134.072 Y124.22 E.01805
G1 X134.074 Y123.689 E.02019
G1 X134.167 Y123.276 E.0161
G1 X134.381 Y122.797 E.01991
G1 X134.759 Y122.329 E.02288
G1 X135.142 Y122.022 E.01863
G1 X135.597 Y121.807 E.01916
G1 X136.15 Y121.685 E.0215
G1 X137.517 Y121.658 E.05197
G1 X137.744 Y121.562 E.00937
G1 X137.974 Y121.31 E.01298
G1 X138.054 Y120.989 E.01259
G1 X138.054 Y117.715 E.12441
G1 X138.088 Y116.945 E.02928
G1 X138.268 Y116.534 E.01706
G1 X138.531 Y116.23 E.01529
G1 X138.92 Y116.001 E.01717
G1 X139.378 Y115.924 E.01764
G1 X139.959 Y115.924 E.0221
;WIDTH:0.534043
G1 X140.358 Y115.942 E.01627
;WIDTH:0.568086
G1 X140.756 Y115.959 E.0174
G1 X151.87 Y115.958 E.48535
;WIDTH:0.563789
G1 X152.442 Y115.94 E.02477
;WIDTH:0.52773
G1 X153.3 Y115.926 E.03459
;WIDTH:0.499999
G1 X153.787 Y116.01 E.01878
G1 X154.129 Y116.198 E.01485
G1 X154.4 Y116.48 E.01485
G1 X154.572 Y116.831 E.01485
G1 X154.64 Y117.27 E.01691
G1 X154.64 Y120.989 E.14132
G1 X154.72 Y121.311 E.01261
G1 X154.913 Y121.536 E.01128
G1 X155.144 Y121.65 E.00977
G1 X155.255 Y121.653 E.00421
G1 E-.8 F1800
;WIPE_START
G1 F900
G1 X156.254 Y121.682
;WIPE_END
G1 Z.6 F15000
G1 X156.284 Y122.532 Z.6
G1 X156.16 Y122.543
G1 X156.036 Y122.565
G1 X155.908 Y122.599
G1 X155.747 Y122.662
G1 X155.629 Y122.723
G1 X155.517 Y122.795
G1 X155.382 Y122.903
G1 X155.283 Y123.002
G1 X155.175 Y123.137
G1 X155.103 Y123.249
G1 X155.045 Y123.36
G1 X154.997 Y123.476
G1 X154.957 Y123.603
G1 X154.924 Y123.772
G1 X154.912 Y123.905
G1 X154.661 Y127.947
G1 X154.661 Y139.988
G1 X154.912 Y144.03
G1 X154.923 Y144.155
G1 X154.945 Y144.278
G1 X154.979 Y144.406
G1 X155.042 Y144.568
G1 X155.078 Y144.637
G1 X155.468 Y144.433
G1 Z.2
G1 E.8 F1800
;TYPE:Outer wall
G1 F900
G1 X155.462 Y144.426 E.00035
G1 X155.354 Y144.053 E.01477
G1 X155.395 Y143.67 E.01463
G1 X155.557 Y143.36 E.0133
G1 X155.855 Y143.102 E.015
G1 X156.257 Y142.974 E.01605
G1 X156.592 Y142.999 E.01276
G1 X156.857 Y143.114 E.01099
G1 X157.203 Y143.451 E.01834
G1 X157.299 Y143.674 E.00921
G1 X157.337 Y144.093 E.01602
G1 X157.262 Y144.369 E.01083
G1 X156.983 Y144.739 E.01764
G1 X156.59 Y144.931 E.01663
G1 X156.084 Y144.928 E.0192
G1 X155.706 Y144.73 E.01624
G1 X155.493 Y144.465 E.01292
G1 X155.078 Y144.657 F15000
;TYPE:Inner wall
G1 F900
G1 X155.03 Y144.573 E.00367
G1 X154.933 Y144.288 E.01143
G1 X154.898 Y144.023 E.01016
G1 X154.951 Y143.553 E.01799
G1 X155.194 Y143.08 E.02021
G1 X155.611 Y142.711 E.02116
G1 X156.14 Y142.525 E.02131
G1 X156.672 Y142.547 E.02024
G1 X157.056 Y142.695 E.01566
G1 X157.46 Y143.046 E.02034
G1 X157.674 Y143.374 E.01488
G1 X157.765 Y143.71 E.01322
G1 X157.791 Y144.154 E.01693
G1 X157.694 Y144.519 E.01433
G1 X157.387 Y144.976 E.02091
G1 X157.173 Y145.159 E.01072
G1 X156.77 Y145.362 E.01715
G1 X156.211 Y145.406 E.0213
G1 X155.891 Y145.342 E.0124
G1 X155.588 Y145.201 E.01272
G1 X155.362 Y145.031 E.01074
G1 X155.163 Y144.805 E.01145
G1 X155.098 Y144.691 E.00497
G1 E-.8 F1800
;WIPE_START
G1 F900
G1 X155.03 Y144.573
G1 X154.933 Y144.288
G1 X154.898 Y144.023
G1 X154.931 Y143.73
;WIPE_END
G1 Z.6 F15000
G1 X156.138 Y142.089 Z.6
G1 Z.2
G1 E.8 F1800
;WIDTH:0.450928
G1 F900
G1 X156.766 Y142.148 E.02141
;WIDTH:0.41907
G1 X157.188 Y142.293 E.01393
;WIDTH:0.423642
G1 X157.448 Y142.468 E.00994
G1 X157.775 Y142.768 E.01404
G1 X158.049 Y143.189 E.01591
;WIDTH:0.43279
G1 X158.184 Y143.654 E.01571
G1 X158.209 Y144.166 E.01659
;WIDTH:0.421098
G1 X158.088 Y144.656 E.01588
G1 X157.921 Y144.965 E.01104
;WIDTH:0.420086
G1 X157.66 Y145.297 E.01327
;WIDTH:0.427166
G1 X157.296 Y145.572 E.01456
G1 X156.885 Y145.759 E.01442
;WIDTH:0.436812
G1 X156.181 Y145.831 E.02318
G1 E-.8 F1800
;WIPE_START
G1 F900
G1 X156.885 Y145.759
G1 X157.151 Y145.638
;WIPE_END
G1 Z.6 F15000
G1 X156.958 Y145.267 Z.6
G1 X157.065 Y145.211
G1 X157.171 Y145.144
G1 X157.276 Y145.063
G1 X157.401 Y144.943
G1 X157.492 Y144.836
G1 X157.588 Y144.692
G1 X157.649 Y144.574
G1 X157.697 Y144.459
G1 X157.735 Y144.339
G1 X157.762 Y144.217
G1 X157.779 Y144.085
G1 X157.783 Y143.912
G1 X157.771 Y143.78
G1 X157.748 Y143.649
G1 X157.7 Y143.483
G1 X157.646 Y143.353
G1 X157.563 Y143.202
G1 X157.487 Y143.093
G1 X156.462 Y141.658
G1 X156.231 Y141.648
G1 X156.039 Y141.624
G1 X155.89 Y141.589
G1 X155.752 Y141.543
G1 X155.618 Y141.486
G1 X155.489 Y141.418
G1 X155.367 Y141.338
G1 X155.247 Y141.244
G1 X155.101 Y141.102
G1 X155.003 Y140.984
G1 X154.916 Y140.858
G1 X154.819 Y140.679
G1 X154.758 Y140.53
G1 X154.701 Y140.335
G1 X154.674 Y140.176
G1 X153.025 Y117.57
G1 X153.005 Y117.461
G1 X152.977 Y117.353
G1 X152.923 Y117.216
G1 X152.848 Y117.079
G1 X152.752 Y116.948
G1 X152.616 Y116.812
G1 X152.485 Y116.716
G1 X152.418 Y116.679
G1 X152.205 Y117.068
G1 Z.2
G1 E.8 F1800
;TYPE:Outer wall
;WIDTH:0.499999
G1 F900
G1 X152.492 Y117.347 E.01525
G1 X152.597 Y117.715 E.01454
G1 X152.596 Y138.862 E.80371
G1 X152.532 Y139.211 E.01349
G1 X152.395 Y139.497 E.01206
G1 X152.186 Y139.742 E.01224
G1 X151.883 Y139.945 E.01385
G1 X151.587 Y140.043 E.01188
G1 X151.348 Y140.067 E.00911
G1 X141.302 Y140.066 E.38184
G1 X140.939 Y139.997 E.01405
G1 X140.562 Y139.782 E.01647
G1 X140.372 Y139.597 E.01009
G1 X140.198 Y139.299 E.01311
G1 X140.097 Y138.818 E.01866
G1 X140.097 Y117.715 E.80206
G1 X140.175 Y117.391 E.01268
G1 X140.372 Y117.147 E.01192
G1 X140.756 Y116.975 E.016
G1 X151.871 Y116.968 E.42243
G1 X152.169 Y117.052 E.01177
G1 X152.461 Y116.697 F15000
;TYPE:Inner wall
;WIDTH:0.52773
G1 F900
G1 X152.644 Y116.826 E.00899
;WIDTH:0.499999
G1 X152.933 Y117.19 E.01768
G1 X153.038 Y117.567 E.01486
G1 X153.054 Y117.715 E.00568
G1 X153.053 Y138.862 E.80371
G1 X152.949 Y139.399 E.0208
G1 X152.751 Y139.784 E.01645
G1 X152.45 Y140.115 E.017
G1 X152.036 Y140.376 E.0186
G1 X151.635 Y140.498 E.01591
G1 X151.348 Y140.524 E.01096
G1 X141.302 Y140.523 E.38184
G1 X140.781 Y140.426 E.02014
G1 X140.298 Y140.16 E.02095
G1 X139.986 Y139.842 E.01691
G1 X139.808 Y139.556 E.01281
G1 X139.656 Y138.967 E.02313
G1 X139.64 Y138.818 E.00568
G1 X139.64 Y117.715 E.80206
G1 X139.743 Y117.229 E.01891
G1 X139.924 Y116.945 E.01279
G1 X140.16 Y116.741 E.01184
;WIDTH:0.537763
G1 X140.396 Y116.616 E.01098
;WIDTH:0.575527
G1 X140.631 Y116.491 E.01182
G1 X140.756 Y116.484 E.00552
;WIDTH:0.568086
G1 X151.87 Y116.479 E.48535
;WIDTH:0.587024
G1 X152.09 Y116.501 E.01001
G1 X152.214 Y116.556 E.00613
;WIDTH:0.557377
G1 X152.338 Y116.61 E.0058
;WIDTH:0.52773
G1 X152.429 Y116.674 E.00445
G1 E-.8 F1800
;WIPE_START
G1 F900
G1 X152.644 Y116.826
G1 X152.933 Y117.19
