; HEADER_BLOCK_START
; generated by OrcaSlicer 1.9.1 on 2024-03-13 at 20:34:31
; total layer number: 75
; filament_density: 1.24
; filament_diameter: 1.75
; max_z_height: 15.00
; HEADER_BLOCK_END

; THUMBNAIL_BLOCK_START

;
; THUMBNAIL_BLOCK_END

; external perimeters extrusion width = 0.40mm
; perimeters extrusion width = 0.45mm
; infill extrusion width = 0.45mm
; solid infill extrusion width = 0.40mm
; top infill extrusion width = 0.40mm
; first layer extrusion width = 0.50mm

; EXECUTABLE_BLOCK_START


; Pre-Processed for Cancel-Object support by preprocess_cancellation v0.2.0
; 1 known objects
EXCLUDE_OBJECT_DEFINE NAME=Stretchlet_stl_id_0_copy_0 CENTER=117.544,117.508 POLYGON=[[81.717,81.71],[81.717,153.29],[153.253,153.29],[153.253,81.71]]
M73 P0 R40
;TYPE:Custom
M104 S0 ; Stops OrcaSlicer from sending temp waits separately
M140 S0
print_start EXTRUDER=240 BED=35 CHAMBER=0
G90
G21
M83 ; use relative distances for extrusion
; filament start gcode
M106 S0
;LAYER_CHANGE
;Z:0.2
;HEIGHT:0.2
;BEFORE_LAYER_CHANGE
;0.2
G92 E0

G1 E-.4 F300
;_SET_FAN_SPEED_CHANGING_LAYER
SET_VELOCITY_LIMIT ACCEL=500 ACCEL_TO_DECEL=250
G1 Z.4 F9000
G1 X92.823 Y90.549
G1 Z.4
G1 Z.2
G1 E.4 F300
;TYPE:Skirt
;WIDTH:0.5
G1 F2100.29
G1 X94.784 Y88.913 E.0971
G1 X102.527 Y84.144 E.3456
G1 X104.73 Y83.29 E.08982
G1 X113.154 Y81.209 E.32978
G1 X114.605 Y81.08 E.05535
G1 X116.367 Y81.097 E.06696
G1 X122.398 Y81.468 E.22965
G1 X124.994 Y81.709 E.09911
G1 X127.279 Y82.314 E.08982
G1 X133.293 Y84.742 E.24651
G1 X135.317 Y85.582 E.08327
G1 X137.407 Y86.861 E.09314
G1 X144.308 Y92.647 E.34229
G1 X146.161 Y94.907 E.11105
G1 X150.863 Y102.52 E.34009
G1 X151.717 Y104.723 E.08982
G1 X153.798 Y113.147 E.32978
G1 X153.992 Y115.59 E.09314
G1 X153.366 Y124.575 E.34229
G1 X152.692 Y127.275 E.10578
G1 X149.233 Y135.681 E.34546
G1 X147.952 Y137.667 E.08982
G1 X142.359 Y144.301 E.32978
G1 X140.23 Y146.087 E.10565
G1 X132.65 Y150.764 E.33849
G1 X130.281 Y151.711 E.09696
G1 X123.189 Y153.472 E.27773
G1 X121.446 Y153.853 E.0678
G1 X119.417 Y153.985 E.0773
G1 X110.02 Y153.291 E.35811
G1 X107.735 Y152.686 E.08982
G1 X101.742 Y150.266 E.24563
G1 X99.978 Y149.519 E.07284
G1 X97.607 Y148.139 E.10426
G1 X90.706 Y142.353 E.34229
G1 X88.919 Y140.223 E.10565
G1 X84.151 Y132.48 E.3456
G1 X83.374 Y130.475 E.08174
G1 X81.444 Y122.802 E.30071
G1 X81.147 Y121.121 E.06485
G1 X81.022 Y119.41 E.06522
G1 X81.716 Y110.013 E.35811
G1 X82.321 Y107.728 E.08982
G1 X84.741 Y101.736 E.24563
G1 X85.589 Y99.69 E.08415
G1 X86.724 Y97.862 E.08181
G1 X91.198 Y92.403 E.26823
G1 X92.796 Y90.579 E.09217
; printing object Stretchlet.stl id:0 copy 0
EXCLUDE_OBJECT_START NAME=Stretchlet_stl_id_0_copy_0
G1 E-.28 F300
;WIPE_START
G1 F2100.29
G1 X93.563 Y89.937 E-.12
;WIPE_END
G1 Z.6 F9000
G1 X125.157 Y144.89 Z.6
G1 Z.2
G1 E.4 F300
;TYPE:Outer wall
;WIDTH:0.419576
G1 F900
G1 X125.103 Y144.694 E.00637
G1 X125.019 Y144.699 E.00264
;WIDTH:0.4
G1 X119.751 Y145.628 E.15882
;WIDTH:0.419576
G1 X119.67 Y145.652 E.00264
G1 X119.686 Y145.854 E.00634
;WIDTH:0.38292
G1 X122.367 Y150.932 E.16235
G1 X122.386 Y150.979 E.00143
G1 X122.271 Y151.065 E.00406
G1 X121.272 Y151.297 E.02901
G1 X119.439 Y151.415 E.05193
G1 X119.263 Y151.409 E.00497
G1 X117.782 Y151.186 E.04235
G1 X117.576 Y151.123 E.00609
G1 X116.799 Y150.719 E.02476
G1 X116.816 Y150.611 E.0031
G1 X118.634 Y145.916 E.14233
;WIDTH:0.419572
G1 X118.627 Y145.713 E.00637
G1 X118.544 Y145.698 E.00264
;WIDTH:0.4
G1 X113.204 Y145.387 E.15882
;WIDTH:0.419572
G1 X113.12 Y145.392 E.00264
G1 X113.088 Y145.592 E.00634
;WIDTH:0.38292
G1 X114.432 Y150.802 E.15212
G1 X114.308 Y150.867 E.00395
G1 X112.806 Y150.985 E.0426
G1 X110.741 Y150.821 E.05855
G1 X108.847 Y150.348 E.05519
G1 X108.729 Y150.261 E.00415
G1 X108.762 Y150.195 E.0021
G1 X112.051 Y145.41 E.16414
;WIDTH:0.419576
G1 X112.09 Y145.21 E.00637
G1 X112.013 Y145.177 E.00264
;WIDTH:0.399998
G1 X106.888 Y143.643 E.15882
;WIDTH:0.419574
G1 X106.806 Y143.628 E.00264
G1 X106.729 Y143.816 E.00634
;WIDTH:0.38292
G1 X106.831 Y148.843 E.14216
;WIDTH:0.418588
G1 X106.773 Y149.021 E.00583
G1 X106.613 Y148.94 E.00561
;WIDTH:0.38292
G1 X106.273 Y148.567 E.01427
G1 X106.09 Y148.477 E.00576
G1 X104.714 Y148.379 E.039
G1 X102.7 Y147.897 E.05855
G1 X101.557 Y147.424 E.03498
G1 X101.454 Y147.314 E.00426
G1 X105.761 Y143.399 E.16456
;WIDTH:0.419578
G1 X105.846 Y143.214 E.00637
G1 X105.778 Y143.164 E.00264
;WIDTH:0.400002
G1 X101.146 Y140.489 E.15882
;WIDTH:0.419574
G1 X101.068 Y140.456 E.00264
G1 X100.951 Y140.621 E.00634
;WIDTH:0.38292
G1 X99.727 Y146.297 E.16415
G1 X99.701 Y146.366 E.0021
G1 X99.557 Y146.34 E.00415
G1 X98.996 Y145.965 E.01906
G1 X97.929 Y144.914 E.04235
G1 X97.799 Y144.742 E.00609
G1 X97.265 Y143.718 E.03265
G1 X97.223 Y143.575 E.00423
G1 X97.076 Y143.433 E.00576
G1 X95.883 Y142.958 E.0363
G1 X95.485 Y142.723 E.01308
G1 X95.4 Y142.597 E.00431
G1 X95.463 Y142.548 E.00226
G1 X100.105 Y139.992 E.14981
;WIDTH:0.419578
G1 X100.23 Y139.832 E.00637
G1 X100.176 Y139.767 E.00264
;WIDTH:0.400004
G1 X96.285 Y136.097 E.15882
;WIDTH:0.419576
G1 X96.217 Y136.046 E.00264
G1 X96.065 Y136.179 E.00634
;WIDTH:0.38292
G1 X93.608 Y141.33 E.16133
G1 X93.581 Y141.374 E.00147
G1 X93.443 Y141.332 E.00407
G1 X92.378 Y140.411 E.03983
G1 X91.204 Y138.998 E.05193
G1 X91.106 Y138.852 E.00497
G1 X90.416 Y137.522 E.04235
G1 X90.345 Y137.319 E.00609
G1 X90.277 Y136.813 E.01443
G1 X90.373 Y136.763 E.00306
G1 X95.387 Y135.373 E.14711
;WIDTH:0.419574
G1 X95.546 Y135.245 E.00637
G1 X95.508 Y135.17 E.00264
;WIDTH:0.399998
G1 X92.568 Y130.701 E.15882
;WIDTH:0.419576
G1 X92.514 Y130.637 E.00264
G1 X92.335 Y130.731 E.00634
;WIDTH:0.38292
G1 X89.016 Y134.853 E.14962
G1 X88.874 Y134.807 E.00422
G1 X87.654 Y133.379 E.0531
G1 X86.573 Y131.612 E.05855
G1 X85.988 Y130.169 E.04403
G1 X85.989 Y130.022 E.00414
G1 X86.061 Y130.009 E.00207
G1 X91.862 Y129.79 E.16411
;WIDTH:0.419574
G1 X92.045 Y129.703 E.00637
G1 X92.026 Y129.621 E.00264
;WIDTH:0.4
G1 X90.196 Y124.594 E.15882
;WIDTH:0.419576
G1 X90.158 Y124.519 E.00264
G1 X89.962 Y124.569 E.00634
;WIDTH:0.38292
G1 X85.8 Y127.802 E.149
;WIDTH:0.421266
G1 X85.621 Y127.862 E.00591
G1 X85.591 Y127.682 E.00573
;WIDTH:0.38292
G1 X85.77 Y126.672 E.02901
G1 X85.735 Y126.471 E.00576
G1 X85.006 Y125.301 E.039
G1 X84.208 Y123.376 E.05889
G1 X84.018 Y122.582 E.0231
G1 X84.046 Y122.434 E.00425
G1 X89.719 Y123.545 E.16342
;WIDTH:0.419576
G1 X89.917 Y123.502 E.00637
G1 X89.917 Y123.418 E.00264
;WIDTH:0.4
G1 X89.296 Y118.105 E.15882
;WIDTH:0.419576
G1 X89.277 Y118.023 E.00264
G1 X89.074 Y118.026 E.00634
;WIDTH:0.38292
G1 X83.786 Y120.437 E.1643
G1 X83.714 Y120.458 E.00213
G1 X83.65 Y120.325 E.00416
G1 X83.598 Y119.256 E.03026
G1 X83.821 Y117.775 E.04235
G1 X83.884 Y117.569 E.00609
G1 X84.398 Y116.535 E.03265
G1 X84.489 Y116.416 E.00423
G1 X84.518 Y116.214 E.00576
G1 X84.201 Y114.97 E.03629
G1 X84.244 Y114.788 E.0053
G1 X84.328 Y114.81 E.00245
G1 X89.074 Y116.973 E.14746
;WIDTH:0.419576
G1 X89.277 Y116.977 E.00637
G1 X89.296 Y116.895 E.00264
;WIDTH:0.4
G1 X89.917 Y111.582 E.15882
;WIDTH:0.419574
G1 X89.917 Y111.498 E.00264
G1 X89.719 Y111.455 E.00634
;WIDTH:0.38292
G1 X84.152 Y112.554 E.16044
G1 X84.099 Y112.559 E.00151
G1 X84.052 Y112.423 E.00408
G1 X84.201 Y110.637 E.05068
G1 X84.655 Y108.857 E.05193
G1 X84.715 Y108.692 E.00497
G1 X85.385 Y107.352 E.04235
G1 X85.619 Y107.085 E.01003
G1 X85.715 Y107.132 E.00303
G1 X89.962 Y110.43 E.15201
;WIDTH:0.419574
G1 X90.158 Y110.481 E.00637
G1 X90.196 Y110.406 E.00264
;WIDTH:0.4
G1 X92.026 Y105.379 E.15882
;WIDTH:0.419574
G1 X92.045 Y105.297 E.00264
G1 X91.862 Y105.21 E.00634
;WIDTH:0.38292
G1 X86.645 Y105.009 E.1476
G1 X86.607 Y104.897 E.00335
G1 X86.628 Y104.707 E.00541
G1 X87.114 Y102.682 E.05889
G1 X87.907 Y100.769 E.05855
G1 X88.522 Y99.78 E.03292
G1 X88.64 Y99.694 E.00412
G1 X88.692 Y99.744 E.00203
G1 X92.335 Y104.268 E.16422
;WIDTH:0.419576
M73 P1 R40
G1 X92.514 Y104.363 E.00637
G1 X92.568 Y104.299 E.00264
;WIDTH:0.4
G1 X95.508 Y99.83 E.15882
;WIDTH:0.419574
G1 X95.546 Y99.755 E.00264
G1 X95.388 Y99.627 E.00634
;WIDTH:0.38292
G1 X90.064 Y98.151 E.15618
G1 X89.975 Y98.106 E.00283
G1 X90.024 Y97.977 E.00392
G1 X90.265 Y97.792 E.00857
G1 X91.289 Y97.258 E.03265
G1 X91.432 Y97.216 E.00423
G1 X91.574 Y97.069 E.00576
G1 X92.092 Y95.791 E.039
G1 X93.173 Y94.024 E.05855
G1 X93.448 Y93.702 E.01197
G1 X93.583 Y93.638 E.00423
G1 X93.621 Y93.696 E.00195
G1 X96.064 Y98.82 E.16049
;WIDTH:0.419576
G1 X96.217 Y98.954 E.00637
G1 X96.285 Y98.903 E.00264
;WIDTH:0.400002
G1 X100.176 Y95.233 E.15882
;WIDTH:0.419574
G1 X100.23 Y95.168 E.00264
G1 X100.106 Y95.008 E.00634
;WIDTH:0.38292
G1 X95.006 Y92.2 E.16459
G1 X94.945 Y92.154 E.00216
G1 X95.014 Y92.024 E.00418
G1 X96.009 Y91.197 E.03656
G1 X96.155 Y91.099 E.00497
G1 X97.485 Y90.409 E.04235
G1 X97.688 Y90.338 E.00609
G1 X98.827 Y90.147 E.03265
G1 X98.977 Y90.151 E.00423
G1 X99.156 Y90.056 E.00575
G1 X99.699 Y89.407 E.02392
G1 X99.843 Y89.337 E.00452
G1 X99.884 Y89.431 E.00292
G1 X100.95 Y94.378 E.14307
;WIDTH:0.419574
G1 X101.068 Y94.544 E.00637
G1 X101.146 Y94.511 E.00264
;WIDTH:0.4
G1 X105.778 Y91.836 E.15882
;WIDTH:0.419576
G1 X105.846 Y91.786 E.00264
G1 X105.762 Y91.601 E.00634
;WIDTH:0.38292
G1 X101.576 Y87.81 E.15968
G1 X101.551 Y87.784 E.00102
G1 X101.624 Y87.649 E.00434
G1 X103.483 Y86.521 E.06147
G1 X105.189 Y85.841 E.05193
G1 X105.358 Y85.793 E.00497
G1 X106.697 Y85.571 E.03837
G1 X106.829 Y85.589 E.00376
G1 X106.841 Y85.673 E.00241
G1 X106.729 Y91.184 E.15581
;WIDTH:0.419576
G1 X106.806 Y91.372 E.00637
G1 X106.888 Y91.357 E.00264
;WIDTH:0.4
G1 X112.013 Y89.823 E.15882
;WIDTH:0.419576
G1 X112.09 Y89.79 E.00264
G1 X112.051 Y89.591 E.00634
;WIDTH:0.38292
G1 X109.165 Y85.385 E.14422
G1 X109.245 Y85.28 E.00373
G1 X109.706 Y84.999 E.01528
G1 X111.631 Y84.201 E.05889
G1 X113.645 Y83.719 E.05855
G1 X114.415 Y83.66 E.02185
G1 X114.553 Y83.705 E.00411
G1 X114.545 Y83.775 E.00199
G1 X113.088 Y89.407 E.16446
;WIDTH:0.419572
G1 X113.12 Y89.608 E.00637
G1 X113.204 Y89.613 E.00264
;WIDTH:0.400002
G1 X118.544 Y89.302 E.15882
;WIDTH:0.419572
G1 X118.627 Y89.287 E.00264
G1 X118.635 Y89.085 E.00634
;WIDTH:0.38292
G1 X116.623 Y83.889 E.15753
G1 X116.605 Y83.772 E.00333
G1 X116.757 Y83.743 E.00437
G1 X117.438 Y83.877 E.01964
G1 X118.472 Y84.391 E.03265
G1 X118.591 Y84.482 E.00423
G1 X118.793 Y84.511 E.00576
G1 X120.132 Y84.179 E.039
G1 X122.204 Y84.015 E.05876
G1 X122.347 Y84.087 E.00455
G1 X119.686 Y89.146 E.1616
;WIDTH:0.419576
G1 X119.67 Y89.348 E.00637
G1 X119.751 Y89.372 E.00264
;WIDTH:0.4
G1 X125.019 Y90.301 E.15882
;WIDTH:0.419574
G1 X125.103 Y90.306 E.00264
G1 X125.157 Y90.111 E.00634
;WIDTH:0.38292
G1 X124.361 Y84.328 E.16503
G1 X124.362 Y84.25 E.0022
G1 X124.509 Y84.23 E.0042
G1 X126.15 Y84.648 E.04787
G1 X126.315 Y84.708 E.00497
G1 X127.655 Y85.378 E.04235
G1 X127.832 Y85.501 E.00609
G1 X128.656 Y86.31 E.03265
G1 X128.741 Y86.433 E.00423
G1 X128.924 Y86.523 E.00576
G1 X129.312 Y86.548 E.01098
G1 X129.453 Y86.621 E.0045
G1 X129.401 Y86.713 E.00301
G1 X126.166 Y90.412 E.13891
;WIDTH:0.419576
G1 X126.104 Y90.606 E.00637
G1 X126.177 Y90.648 E.00264
;WIDTH:0.4
G1 X131.089 Y92.767 E.15882
;WIDTH:0.419574
G1 X131.169 Y92.791 E.00264
G1 X131.267 Y92.613 E.00634
;WIDTH:0.38292
G1 X131.807 Y87.038 E.15837
G1 X131.932 Y87.012 E.00361
G1 X132.325 Y87.107 E.01144
G1 X134.326 Y87.945 E.06134
G1 X135.879 Y88.926 E.05193
G1 X136.017 Y89.035 E.00497
G1 X136.718 Y89.725 E.02778
G1 X136.78 Y89.842 E.00375
G1 X136.721 Y89.901 E.00237
G1 X132.18 Y93.14 E.15769
;WIDTH:0.419574
G1 X132.075 Y93.313 E.00637
G1 X132.136 Y93.371 E.00264
;WIDTH:0.399998
G1 X136.426 Y96.565 E.15882
;WIDTH:0.419576
G1 X136.499 Y96.608 E.00264
G1 X136.636 Y96.458 E.00634
;WIDTH:0.38292
G1 X138.249 Y91.74 E.14096
M73 P1 R39
G1 X138.38 Y91.743 E.00373
G1 X139.216 Y92.085 E.02553
G1 X140.982 Y93.166 E.05855
G1 X142.566 Y94.519 E.05889
G1 X142.818 Y94.808 E.01082
G1 X142.862 Y94.946 E.0041
G1 X142.802 Y94.98 E.00196
G1 X137.402 Y97.18 E.16484
;WIDTH:0.419574
G1 X137.26 Y97.325 E.00637
G1 X137.306 Y97.395 E.00264
;WIDTH:0.4
G1 X140.744 Y101.493 E.15882
;WIDTH:0.419574
G1 X140.806 Y101.551 E.00264
G1 X140.973 Y101.436 E.00634
;WIDTH:0.38292
G1 X143.982 Y96.651 E.1598
G1 X144.066 Y96.567 E.00336
G1 X144.18 Y96.673 E.0044
G1 X144.598 Y97.478 E.02564
G1 X144.668 Y97.681 E.00609
G1 X144.86 Y98.82 E.03265
G1 X144.856 Y98.97 E.00423
G1 X144.952 Y99.15 E.00576
G1 X146.007 Y100.038 E.039
G1 X147.076 Y101.288 E.04652
G1 X147.118 Y101.437 E.00438
G1 X147.039 Y101.463 E.00236
G1 X141.552 Y102.316 E.15698
;WIDTH:0.41957
G1 X141.38 Y102.424 E.00637
G1 X141.409 Y102.503 E.00264
;WIDTH:0.399996
G1 X143.809 Y107.283 E.15882
;WIDTH:0.419574
G1 X143.856 Y107.354 E.00264
G1 X144.045 Y107.281 E.00634
;WIDTH:0.38292
G1 X148.201 Y103.196 E.16476
G1 X148.239 Y103.166 E.00136
G1 X148.348 Y103.237 E.00371
G1 X148.486 Y103.476 E.00779
G1 X149.165 Y105.182 E.05193
G1 X149.214 Y105.352 E.00497
G1 X149.459 Y106.829 E.04235
G1 X149.463 Y107.045 E.00609
G1 X149.293 Y108.187 E.03265
G1 X149.244 Y108.328 E.00423
G1 X149.27 Y108.632 E.00862
G1 X149.165 Y108.645 E.00297
G1 X144.406 Y108.27 E.13498
;WIDTH:0.419574
G1 X144.213 Y108.336 E.00637
G1 X144.223 Y108.42 E.00264
;WIDTH:0.400002
G1 X145.457 Y113.624 E.15882
;WIDTH:0.419576
G1 X145.485 Y113.704 E.00264
G1 X145.686 Y113.676 E.00634
;WIDTH:0.38292
G1 X150.414 Y110.82 E.15617
G1 X150.514 Y110.918 E.00395
G1 X150.806 Y111.624 E.02158
G1 X151.303 Y113.735 E.06134
G1 X151.422 Y115.568 E.05193
G1 X151.416 Y115.744 E.00497
G1 X151.325 Y116.346 E.0172
G1 X151.268 Y116.465 E.00374
G1 X151.186 Y116.452 E.00233
G1 X145.809 Y114.722 E.15968
;WIDTH:0.419576
G1 X145.607 Y114.742 E.00637
G1 X145.597 Y114.825 E.00264
;WIDTH:0.4
G1 X145.597 Y120.175 E.15882
;WIDTH:0.419576
G1 X145.607 Y120.258 E.00264
G1 X145.808 Y120.278 E.00634
;WIDTH:0.38292
G1 X150.45 Y118.789 E.13781
G1 X150.525 Y118.897 E.00372
G1 X150.828 Y120.125 E.03574
G1 X150.992 Y122.189 E.05855
G1 X150.83 Y124.245 E.0583
G1 X150.776 Y124.357 E.00352
G1 X150.688 Y124.349 E.00251
G1 X145.687 Y121.324 E.16524
;WIDTH:0.419576
G1 X145.485 Y121.296 E.00637
G1 X145.457 Y121.376 E.00264
;WIDTH:0.4
G1 X144.223 Y126.58 E.15882
;WIDTH:0.419574
G1 X144.213 Y126.664 E.00264
G1 X144.405 Y126.73 E.00634
;WIDTH:0.38292
G1 X150.126 Y126.279 E.16225
G1 X150.245 Y126.297 E.00339
G1 X150.227 Y126.453 E.00443
G1 X149.629 Y127.648 E.03779
G1 X149.506 Y127.825 E.00609
G1 X148.697 Y128.649 E.03265
G1 X148.574 Y128.734 E.00423
G1 X148.484 Y128.917 E.00576
G1 X148.386 Y130.293 E.039
G1 X148.103 Y131.475 E.03435
G1 X148.008 Y131.596 E.00436
G1 X147.941 Y131.548 E.00233
G1 X144.045 Y127.72 E.15441
;WIDTH:0.419572
G1 X143.856 Y127.646 E.00637
G1 X143.809 Y127.717 E.00264
;WIDTH:0.399996
G1 X141.409 Y132.497 E.15882
;WIDTH:0.41957
G1 X141.38 Y132.576 E.00264
G1 X141.551 Y132.684 E.00634
;WIDTH:0.38292
G1 X147.266 Y133.572 E.16349
G1 X147.313 Y133.584 E.0014
G1 X147.316 Y133.728 E.00406
G1 X147.062 Y134.319 E.0182
G1 X146.08 Y135.872 E.05193
G1 X145.972 Y136.011 E.00497
G1 X144.921 Y137.078 E.04235
G1 X144.75 Y137.208 E.00608
G1 X143.731 Y137.735 E.03242
G1 X143.639 Y137.763 E.00273
G1 X143.566 Y137.687 E.00298
G1 X140.973 Y133.564 E.13768
;WIDTH:0.419574
G1 X140.806 Y133.449 E.00637
G1 X140.744 Y133.507 E.00264
;WIDTH:0.399998
G1 X137.306 Y137.605 E.15882
;WIDTH:0.419574
G1 X137.26 Y137.675 E.00264
G1 X137.401 Y137.82 E.00634
;WIDTH:0.38292
G1 X142.448 Y139.879 E.15408
G1 X142.427 Y140.017 E.00395
G1 X141.834 Y140.985 E.03209
G1 X140.488 Y142.559 E.05855
G1 X139.005 Y143.803 E.05471
G1 X138.651 Y144.008 E.01156
G1 X138.521 Y144.032 E.00374
G1 X138.483 Y143.96 E.0023
G1 X136.636 Y138.543 E.1618
;WIDTH:0.419576
G1 X136.499 Y138.392 E.00637
G1 X136.426 Y138.435 E.00264
;WIDTH:0.4
G1 X132.136 Y141.629 E.15882
;WIDTH:0.419574
G1 X132.075 Y141.687 E.00264
G1 X132.179 Y141.86 E.00634
;WIDTH:0.38292
G1 X136.022 Y144.601 E.13346
;WIDTH:0.420013
G1 X136.081 Y144.693 E.00342
;WIDTH:0.457106
G1 X136.14 Y144.785 E.00376
G1 X135.998 Y144.865 E.00558
;WIDTH:0.420013
G1 X135.857 Y144.945 E.00508
;WIDTH:0.38292
G1 X134.969 Y146 E.039
M73 P2 R39
