; HEADER_BLOCK_START
; generated by OrcaSlicer 1.9.1 on 2024-04-13 at 14:24:15
; total layer number: 350
; filament_density: 1.24
; filament_diameter: 1.75
; max_z_height: 70.00
; HEADER_BLOCK_END

; THUMBNAIL_BLOCK_START

;
; THUMBNAIL_BLOCK_END

; external perimeters extrusion width = 0.40mm
; perimeters extrusion width = 0.45mm
; infill extrusion width = 0.45mm
; solid infill extrusion width = 0.40mm
; top infill extrusion width = 0.40mm
; support material extrusion width = 0.40mm
; first layer extrusion width = 0.50mm

; EXECUTABLE_BLOCK_START


; Pre-Processed for Cancel-Object support by preprocess_cancellation v0.2.0
; 1 known objects
EXCLUDE_OBJECT_DEFINE NAME=temperature_tower_stl_id_1944364203056_copy_0 CENTER=122.398,116.657 POLYGON=[[95.456,108.458],[95.456,126.542],[140.319,126.542],[140.319,108.458]]
M73 P0 R101
;TYPE:Custom
M104 S0 ; Stops OrcaSlicer from sending temp waits separately
M140 S0
print_start EXTRUDER=230 BED=35 CHAMBER=0
G90
G21
M83 ; use relative distances for extrusion
; filament start gcode
M106 S0
;LAYER_CHANGE
;Z:0.2
;HEIGHT:0.2
;BEFORE_LAYER_CHANGE
;0.2
G92 E0

G1 E-.8 F1800
;_SET_FAN_SPEED_CHANGING_LAYER
M104 S230 ; set nozzle temperature
SET_VELOCITY_LIMIT ACCEL=500 ACCEL_TO_DECEL=250
G1 Z.4 F15000
G1 X100.399 Y107.469
G1 Z.4
G1 Z.2
G1 E.8 F1800
;TYPE:Skirt
;WIDTH:0.5
G1 F2100.29
G1 X101.548 Y106.668 E.05321
G1 X103.132 Y106.022 E.06502
G1 X104.151 Y105.825 E.03946
G1 X104.86 Y105.775 E.02702
G1 X135.284 Y105.772 E1.15631
G1 X136.781 Y105.875 E.05702
G1 X138.113 Y106.17 E.05186
G1 X139.076 Y106.558 E.03946
G1 X140.264 Y107.298 E.05321
G1 X141.482 Y108.499 E.06502
G1 X142.065 Y109.358 E.03946
G1 X142.639 Y110.636 E.05321
G1 X142.901 Y111.706 E.04188
G1 X143.005 Y112.861 E.04408
G1 X143.005 Y122.139 E.35264
G1 X142.895 Y123.354 E.04635
G1 X142.396 Y124.99 E.06502
G1 X141.703 Y126.207 E.05321
G1 X140.55 Y127.47 E.06502
G1 X139.401 Y128.271 E.05321
G1 X138.377 Y128.734 E.04274
G1 X137.408 Y129.011 E.03828
G1 X135.386 Y129.226 E.07729
G1 X104.79 Y129.221 E1.16281
G1 X103.758 Y129.118 E.03946
G1 X102.751 Y128.863 E.03946
G1 X101.206 Y128.128 E.06502
G1 X100.373 Y127.509 E.03946
G1 X99.641 Y126.773 E.03946
G1 X98.84 Y125.625 E.05321
G1 X98.194 Y124.04 E.06502
G1 X97.966 Y122.729 E.05059
G1 X97.944 Y112.8 E.37737
G1 X98.001 Y111.945 E.03258
G1 X98.203 Y110.926 E.03946
G1 X98.553 Y109.949 E.03946
G1 X99.246 Y108.733 E.05321
G1 X100.372 Y107.499 E.0635
; printing object temperature_tower.stl id:1944364203056 copy 0
EXCLUDE_OBJECT_START NAME=temperature_tower_stl_id_1944364203056_copy_0
G1 E-.8 F1800
;WIPE_START
G1 F2100.29
G1 X101.189 Y106.921
;WIPE_END
G1 Z.6 F15000
G1 X102.215 Y109.448 Z.6
G1 Z.2
G1 E.8 F1800
;TYPE:Brim
G1 F900
G1 X102.232 Y109.433 E.00087
G1 X102.758 Y109.065 E.02439
G1 X103.333 Y108.78 E.02439
G1 X103.943 Y108.582 E.02439
G1 X104.579 Y108.476 E.02451
G1 X104.977 Y108.458 E.01514
G1 X135.28 Y108.458 E1.1517
G1 X135.815 Y108.476 E.02034
G1 X136.367 Y108.528 E.02107
G1 X136.779 Y108.593 E.01586
G1 X137.404 Y108.76 E.02458
G1 X137.993 Y109.015 E.02439
G1 X138.537 Y109.355 E.02439
G1 X139.026 Y109.77 E.02439
G1 X139.448 Y110.254 E.02439
G1 X139.795 Y110.794 E.02439
G1 X140.058 Y111.379 E.02439
G1 X140.231 Y111.994 E.02428
G1 X140.319 Y112.872 E.03354
G1 X140.319 Y122.131 E.35188
G1 X140.271 Y122.779 E.02471
G1 X140.13 Y123.405 E.02439
G1 X139.898 Y124.004 E.02439
G1 X139.58 Y124.561 E.02439
G1 X139.184 Y125.066 E.02439
G1 X138.717 Y125.507 E.02439
G1 X138.191 Y125.874 E.02439
G1 X137.62 Y126.158 E.02423
G1 X136.689 Y126.423 E.03681
G1 X135.951 Y126.514 E.02824
G1 X135.279 Y126.542 E.02556
G1 X104.981 Y126.542 E1.15154
G1 X104.332 Y126.494 E.02471
G1 X103.706 Y126.353 E.02439
G1 X103.108 Y126.121 E.02439
G1 X102.55 Y125.803 E.02439
G1 X102.045 Y125.407 E.02439
G1 X101.605 Y124.941 E.02439
G1 X101.238 Y124.414 E.02439
G1 X100.952 Y123.84 E.02439
G1 X100.754 Y123.229 E.02439
G1 X100.648 Y122.593 E.02451
G1 X100.63 Y122.195 E.01514
G1 X100.63 Y112.808 E.35674
G1 X100.678 Y112.16 E.02471
G1 X100.819 Y111.534 E.02439
G1 X101.051 Y110.936 E.02439
G1 X101.369 Y110.378 E.02439
G1 X101.765 Y109.873 E.02439
G1 X102.186 Y109.476 E.022
G1 X102.5 Y109.81 F15000
G1 F900
G1 X102.529 Y109.782 E.00153
G1 X102.983 Y109.465 E.02104
G1 X103.497 Y109.209 E.02181
G1 X104.062 Y109.026 E.02258
G1 X104.619 Y108.933 E.02149
G1 X104.991 Y108.915 E.01413
G1 X135.27 Y108.915 E1.1508
G1 X135.79 Y108.933 E.01977
G1 X136.314 Y108.982 E.02001
G1 X136.691 Y109.043 E.01451
G1 X137.243 Y109.191 E.02174
G1 X137.77 Y109.417 E.02181
G1 X138.258 Y109.719 E.02181
G1 X138.697 Y110.09 E.02181
G1 X139.087 Y110.537 E.02258
G1 X139.386 Y111.003 E.02104
G1 X139.623 Y111.526 E.02181
G1 X139.781 Y112.091 E.0223
G1 X139.862 Y112.902 E.03096
G1 X139.862 Y122.109 E.34992
G1 X139.815 Y122.722 E.02336
G1 X139.688 Y123.281 E.02181
G1 X139.488 Y123.797 E.02104
G1 X139.194 Y124.313 E.02258
G1 X138.852 Y124.749 E.02104
G1 X138.435 Y125.144 E.02181
G1 X137.966 Y125.474 E.02181
G1 X137.466 Y125.724 E.02125
G1 X136.587 Y125.975 E.03474
G1 X135.919 Y126.058 E.02556
G1 X135.267 Y126.085 E.02481
G1 X104.992 Y126.085 E1.15063
G1 X104.41 Y126.042 E.0222
G1 X103.85 Y125.917 E.02181
G1 X103.314 Y125.711 E.02181
G1 X102.815 Y125.428 E.02181
G1 X102.362 Y125.075 E.02181
G1 X101.967 Y124.659 E.02181
G1 X101.638 Y124.189 E.02181
G1 X101.381 Y123.676 E.02181
G1 X101.198 Y123.11 E.02258
G1 X101.105 Y122.553 E.02149
G1 X101.087 Y122.181 E.01413
G1 X101.087 Y112.83 E.35539
G1 X101.13 Y112.238 E.02259
G1 X101.261 Y111.658 E.02258
G1 X101.47 Y111.124 E.02181
G1 X101.755 Y110.626 E.02181
G1 X102.111 Y110.175 E.02181
G1 X102.471 Y109.837 E.01876
G1 X102.784 Y110.17 F15000
G1 F900
G1 X102.811 Y110.145 E.00141
G1 X103.209 Y109.865 E.01851
G1 X103.661 Y109.638 E.01922
G1 X104.18 Y109.469 E.02075
G1 X104.66 Y109.389 E.01849
G1 X105.005 Y109.372 E.01313
G1 X135.26 Y109.372 E1.14986
G1 X135.764 Y109.39 E.01919
G1 X136.251 Y109.436 E.0186
G1 X136.602 Y109.492 E.01349
G1 X137.102 Y109.628 E.01971
G1 X137.549 Y109.82 E.01849
G1 X137.98 Y110.085 E.01923
G1 X138.382 Y110.424 E.01998
G1 X138.726 Y110.821 E.01997
G1 X138.988 Y111.231 E.01848
G1 X139.188 Y111.674 E.01845
G1 X139.332 Y112.188 E.02031
G1 X139.405 Y112.932 E.02839
G1 X139.405 Y122.086 E.34794
G1 X139.36 Y122.663 E.02198
G1 X139.252 Y123.137 E.01849
G1 X139.077 Y123.591 E.01848
G1 X138.807 Y124.066 E.02077
G1 X138.505 Y124.447 E.01848
G1 X138.153 Y124.782 E.01849
G1 X137.739 Y125.074 E.01923
G1 X137.31 Y125.29 E.01825
G1 X136.485 Y125.527 E.03265
G1 X135.876 Y125.602 E.02331
G1 X135.255 Y125.628 E.02364
G1 X105.004 Y125.627 E1.1497
M73 P0 R100
G1 X104.487 Y125.589 E.01972
G1 X103.992 Y125.48 E.01925
G1 X103.519 Y125.3 E.01923
G1 X103.078 Y125.052 E.01923
G1 X102.678 Y124.742 E.01923
G1 X102.329 Y124.376 E.01923
G1 X102.037 Y123.962 E.01923
G1 X101.81 Y123.511 E.0192
G1 X101.641 Y122.992 E.02075
G1 X101.561 Y122.512 E.01849
G1 X101.544 Y122.167 E.01313
G1 X101.544 Y112.852 E.35402
G1 X101.583 Y112.315 E.02046
G1 X101.703 Y111.783 E.02075
G1 X101.889 Y111.313 E.0192
G1 X102.141 Y110.874 E.01923
G1 X102.456 Y110.478 E.01923
G1 X102.755 Y110.198 E.01556
G1 X103.067 Y110.533 F15000
G1 F900
G1 X103.108 Y110.495 E.00212
G1 X103.454 Y110.254 E.01601
G1 X103.845 Y110.058 E.01663
G1 X104.299 Y109.913 E.01811
G1 X104.702 Y109.846 E.01551
G1 X105.02 Y109.829 E.01212
G1 X135.249 Y109.829 E1.1489
G1 X135.742 Y109.847 E.01875
G1 X136.512 Y109.942 E.02948
G1 X136.961 Y110.064 E.01767
G1 X137.347 Y110.232 E.016
G1 X137.703 Y110.451 E.01588
G1 X138.052 Y110.744 E.01733
G1 X138.365 Y111.104 E.01813
G1 X138.579 Y111.441 E.01519
G1 X138.753 Y111.821 E.01586
G1 X138.882 Y112.285 E.01831
G1 X138.948 Y112.961 E.02582
G1 X138.948 Y122.063 E.34595
G1 X138.908 Y122.584 E.01985
G1 X138.816 Y122.994 E.01598
G1 X138.667 Y123.385 E.0159
G1 X138.42 Y123.818 E.01892
G1 X138.16 Y124.145 E.0159
G1 X137.869 Y124.421 E.01524
G1 X137.511 Y124.676 E.01668
G1 X137.155 Y124.857 E.01522
G1 X136.382 Y125.079 E.03054
G1 X135.833 Y125.146 E.02104
G1 X135.242 Y125.171 E.02247
G1 X105.016 Y125.17 E1.14878
G1 X104.563 Y125.136 E.01728
G1 X104.133 Y125.043 E.0167
G1 X103.723 Y124.889 E.01665
G1 X103.341 Y124.675 E.01665
G1 X102.994 Y124.408 E.01665
G1 X102.69 Y124.092 E.01665
G1 X102.425 Y123.717 E.01742
G1 X102.23 Y123.327 E.01659
G1 X102.085 Y122.873 E.01811
G1 X102.018 Y122.47 E.01551
G1 X102.001 Y122.152 E.01212
G1 X102.001 Y112.874 E.35263
G1 X102.036 Y112.393 E.01833
G1 X102.145 Y111.908 E.0189
G1 X102.306 Y111.503 E.01656
G1 X102.527 Y111.124 E.01665
G1 X102.801 Y110.782 E.01667
G1 X103.038 Y110.56 E.01235
G1 X103.35 Y110.896 F15000
G1 F900
G1 X103.404 Y110.845 E.00283
G1 X103.697 Y110.643 E.01351
G1 X104.028 Y110.48 E.01405
G1 X104.417 Y110.357 E.0155
G1 X104.744 Y110.302 E.0126
G1 X105.036 Y110.286 E.01111
G1 X135.239 Y110.286 E1.14791
G1 X135.712 Y110.303 E.01801
G1 X136.433 Y110.394 E.02762
G1 X136.818 Y110.5 E.01517
G1 X137.126 Y110.634 E.01278
G1 X137.426 Y110.817 E.01335
G1 X137.737 Y111.079 E.01546
G1 X138.003 Y111.387 E.01545
G1 X138.181 Y111.669 E.01267
G1 X138.317 Y111.968 E.01251
G1 X138.432 Y112.381 E.01628
G1 X138.491 Y112.99 E.02325
G1 X138.491 Y122.04 E.34398
G1 X138.455 Y122.506 E.01775
G1 X138.379 Y122.852 E.01348
G1 X138.256 Y123.18 E.01328
G1 X138.034 Y123.569 E.01703
G1 X137.828 Y123.828 E.01258
G1 X137.585 Y124.061 E.01279
G1 X137.282 Y124.278 E.01414
G1 X136.998 Y124.424 E.01216
G1 X136.28 Y124.631 E.02839
G1 X135.79 Y124.691 E.01876
G1 X135.23 Y124.714 E.02132
G1 X105.028 Y124.712 E1.14786
G1 X104.619 Y124.681 E.01559
G1 X104.254 Y124.6 E.01423
G1 X103.907 Y124.468 E.01408
G1 X103.585 Y124.286 E.01407
G1 X103.292 Y124.059 E.01407
G1 X103.037 Y123.791 E.01405
G1 X102.814 Y123.473 E.01478
G1 X102.652 Y123.144 E.01394
G1 X102.529 Y122.755 E.01549
G1 X102.474 Y122.428 E.0126
G1 X102.458 Y122.136 E.01111
G1 X102.458 Y112.895 E.35123
G1 X102.488 Y112.47 E.01619
G1 X102.587 Y112.034 E.01702
G1 X102.724 Y111.695 E.01388
G1 X102.911 Y111.375 E.01408
G1 X103.144 Y111.086 E.01411
G1 X103.32 Y110.923 E.00912
G1 X103.626 Y111.277 F15000
G1 F900
G1 X103.75 Y111.17 E.00624
G1 X104.091 Y110.971 E.01501
G1 X104.611 Y110.797 E.02083
G1 X104.949 Y110.747 E.01298
G1 X135.269 Y110.743 E1.15239
G1 X135.926 Y110.779 E.02498
G1 X136.279 Y110.83 E.01355
G1 X136.563 Y110.903 E.01116
G1 X137.122 Y111.176 E.02364
G1 X137.225 Y111.246 E.00474
G1 X137.421 Y111.416 E.00986
G1 X137.608 Y111.634 E.01092
G1 X137.751 Y111.869 E.01044
G1 X137.9 Y112.205 E.01397
G1 X138.014 Y112.699 E.01928
G1 X138.034 Y122.095 E.35709
G1 X137.936 Y122.704 E.02345
G1 X137.901 Y122.818 E.00452
G1 X137.746 Y123.157 E.01416
G1 X137.527 Y123.467 E.01444
G1 X137.309 Y123.68 E.01157
G1 X136.965 Y123.918 E.01589
G1 X136.704 Y124.044 E.01103
G1 X136.275 Y124.169 E.01698
G1 X135.817 Y124.231 E.01756
G1 X135.353 Y124.255 E.01763
G1 X105.017 Y124.257 E1.15296
G1 X104.295 Y124.126 E.0279
G1 X104.059 Y124.026 E.00975
G1 X103.864 Y123.917 E.00849
G1 X103.473 Y123.582 E.01955
G1 X103.398 Y123.497 E.00432
G1 X103.233 Y123.251 E.01127
G1 X103.083 Y122.942 E.01307
G1 X102.965 Y122.547 E.01566
G1 X102.925 Y122.31 E.00914
G1 X102.915 Y112.848 E.35959
G1 X103.008 Y112.273 E.02216
G1 X103.111 Y111.966 E.01229
G1 X103.259 Y111.686 E.01203
G1 X103.496 Y111.39 E.01443
G1 X103.595 Y111.304 E.005
G1 X103.88 Y111.653 F15000
G1 F900
G1 X104.044 Y111.52 E.00807
G1 X104.323 Y111.364 E.01214
G1 X104.753 Y111.231 E.0171
G1 X104.938 Y111.204 E.00711
G1 X135.273 Y111.2 E1.15292
G1 X135.862 Y111.232 E.02239
G1 X136.158 Y111.271 E.01135
G1 X136.463 Y111.349 E.01197
G1 X136.918 Y111.585 E.0195
G1 X137.128 Y111.767 E.01055
G1 X137.258 Y111.928 E.00785
G1 X137.33 Y112.046 E.00526
G1 X137.488 Y112.402 E.01482
G1 X137.569 Y112.802 E.01552
G1 X137.577 Y122.106 E.35361
G1 X137.484 Y122.632 E.02028
G1 X137.37 Y122.898 E.01101
G1 X137.215 Y123.132 E.01064
G1 X136.981 Y123.362 E.01248
G1 X136.708 Y123.54 E.01238
G1 X136.508 Y123.631 E.00836
G1 X136.146 Y123.73 E.01427
G1 X135.758 Y123.778 E.01487
G1 X135.328 Y123.799 E.01635
G1 X105.005 Y123.8 E1.15246
G1 X104.478 Y123.707 E.02034
G1 X104.289 Y123.631 E.00773
G1 X104.076 Y123.511 E.00929
G1 X103.775 Y123.239 E.01543
G1 X103.648 Y123.06 E.00836
G1 X103.489 Y122.732 E.01384
G1 X103.404 Y122.421 E.01226
G1 X103.376 Y122.234 E.00719
G1 X103.372 Y112.837 E.35713
G1 X103.46 Y112.343 E.01905
G1 X103.543 Y112.114 E.00929
G1 X103.662 Y111.902 E.00922
G1 X103.849 Y111.679 E.01107
G1 X104.188 Y111.985 F15000
G1 F900
G1 X104.196 Y111.976 E.00046
G1 X104.322 Y111.882 E.00598
G1 X104.549 Y111.761 E.00976
G1 X104.88 Y111.67 E.01306
G1 X104.995 Y111.657 E.00441
G1 X135.277 Y111.657 E1.15089
G1 X135.797 Y111.684 E.01977
G1 X136.106 Y111.725 E.01187
G1 X136.347 Y111.792 E.00951
G1 X136.628 Y111.937 E.01201
G1 X136.765 Y112.046 E.00666
G1 X136.908 Y112.222 E.00864
G1 X137.073 Y112.595 E.0155
G1 X137.12 Y112.885 E.01115
G1 X137.12 Y122.116 E.35085
G1 X137.063 Y122.456 E.01307
G1 X136.981 Y122.659 E.00834
G1 X136.89 Y122.812 E.00676
G1 X136.734 Y122.977 E.00864
G1 X136.51 Y123.129 E.01025
G1 X136.386 Y123.191 E.0053
G1 X136.101 Y123.275 E.0113
G1 X135.697 Y123.324 E.01544
G1 X135.305 Y123.342 E.01495
G1 X104.995 Y123.343 E1.15196
G1 X104.656 Y123.286 E.01307
G1 X104.452 Y123.204 E.00834
G1 X104.3 Y123.113 E.00673
G1 X104.148 Y122.976 E.00778
G1 X104.054 Y122.85 E.00598
G1 X103.933 Y122.623 E.00976
G1 X103.842 Y122.292 E.01306
G1 X103.829 Y122.177 E.00441
G1 X103.829 Y112.825 E.35542
G1 X103.91 Y112.425 E.01552
G1 X103.968 Y112.28 E.00592
G1 X104.059 Y112.128 E.00673
G1 X104.161 Y112.015 E.0058
G1 X104.458 Y112.351 F15000
G1 F900
G1 X104.604 Y112.242 E.00688
G1 X104.758 Y112.167 E.00652
G1 X104.988 Y112.114 E.00896
G1 X135.281 Y112.114 E1.15132
G1 X135.731 Y112.137 E.01715
G1 X136.056 Y112.18 E.01243
G1 X136.223 Y112.231 E.00665
G1 X136.333 Y112.287 E.00469
G1 X136.492 Y112.413 E.00773
G1 X136.624 Y112.676 E.01118
G1 X136.662 Y112.874 E.00766
G1 X136.662 Y122.128 E.3517
G1 X136.634 Y122.299 E.0066
G1 X136.593 Y122.416 E.0047
G1 X136.489 Y122.591 E.00773
G1 X136.246 Y122.756 E.01117
G1 X136.054 Y122.821 E.00769
G1 X135.682 Y122.868 E.01425
G1 X135.281 Y122.886 E.01526
M73 P1 R100
G1 X104.983 Y122.886 E1.15149
G1 X104.812 Y122.857 E.0066
G1 X104.695 Y122.817 E.0047
G1 X104.523 Y122.714 E.00764
G1 X104.415 Y122.568 E.00688
G1 X104.339 Y122.414 E.00652
G1 X104.286 Y122.184 E.00896
G1 X104.286 Y112.811 E.35623
G1 X104.355 Y112.523 E.01126
G1 X104.438 Y112.385 E.00612
G1 X104.792 Y112.659 F15000
G1 F900
G1 X104.972 Y112.571 E.00761
G1 X135.284 Y112.571 E1.15204
G1 X135.666 Y112.589 E.01454
G1 X136.007 Y112.634 E.01308
G1 X136.141 Y112.701 E.00567
G1 X136.205 Y112.861 E.00655
G1 X136.205 Y122.139 E.35264
G1 X136.157 Y122.28 E.00567
G1 X136.007 Y122.366 E.00655
G1 X135.666 Y122.411 E.01308
G1 X135.284 Y122.429 E.01454
G1 X104.972 Y122.429 E1.15204
G1 X104.831 Y122.38 E.00567
G1 X104.744 Y122.2 E.00761
G1 X104.744 Y112.8 E.35726
G1 X104.779 Y112.697 E.00415
G1 E-.8 F1800
;WIPE_START
G1 F900
G1 X104.972 Y112.571
G1 X105.742 Y112.571
;WIPE_END
G1 Z.6 F15000
G1 X135.727 Y113.089 Z.6
G1 Z.2
G1 E.8 F1800
;TYPE:Outer wall
;WIDTH:0.499999
G1 F900
G1 X135.727 Y113.524 E.01651
G1 X135.727 Y121.911 E.31876
G1 X135.274 Y121.95 E.01729
G1 X105.222 Y121.95 E1.14215
G1 X105.222 Y113.05 E.33826
G1 X135.253 Y113.05 E1.14137
G1 X135.687 Y113.086 E.01654
G1 X135.27 Y113.524 F15000
;TYPE:Inner wall
G1 F900
G1 X135.27 Y121.476 E.30225
G1 X135.254 Y121.493 E.00087
G1 X105.679 Y121.493 E1.12403
G1 X105.679 Y113.507 E.30351
G1 X135.237 Y113.507 E1.12337
G1 X135.124 Y114.584 F15000
;TYPE:Bottom surface
;WIDTH:0.502946
G1 F1200
G1 X134.399 Y113.859 E.03919
G1 X133.748 Y113.859 E.02489
G1 X134.918 Y115.028 E.06326
G1 X134.918 Y115.679 E.02489
G1 X133.098 Y113.859 E.09845
G1 X132.447 Y113.859 E.02489
G1 X134.918 Y116.33 E.13365
G1 X134.918 Y116.98 E.02489
G1 X131.797 Y113.859 E.16884
G1 X131.146 Y113.859 E.02489
G1 X134.918 Y117.631 E.20403
G1 X134.918 Y118.281 E.02489
G1 X130.496 Y113.859 E.23923
G1 X129.845 Y113.859 E.02489
G1 X134.918 Y118.932 E.27442
G1 X134.918 Y119.582 E.02489
