; HEADER_BLOCK_START
; generated by OrcaSlicer 1.9.0 on 2024-02-03 at 15:31:02
; total layer number: 4
; filament_density: 1.24,1.24,1.24
; filament_diameter: 1.75,1.75,1.75
; max_z_height: 0.85
; HEADER_BLOCK_END

; THUMBNAIL_BLOCK_START

;
; THUMBNAIL_BLOCK_END

; external perimeters extrusion width = 0.40mm
; perimeters extrusion width = 0.40mm
; infill extrusion width = 0.45mm
; solid infill extrusion width = 0.40mm
; top infill extrusion width = 0.40mm
; first layer extrusion width = 0.56mm

; EXECUTABLE_BLOCK_START
EXCLUDE_OBJECT_DEFINE NAME=Orca-PA-Calibration-Test CENTER=0,0 POLYGON=[[5,5],[345,5],[345,345],[5,345],[5,5]]
M73 P0 R6
M106 S0
M106 P2 S0
;TYPE:Custom
M104 S0 ; Stops OrcaSlicer from sending temp waits separately
M140 S0
print_start EXTRUDER=200 BED=60 CHAMBER=0
G90
G21
M83 ; use relative distances for extrusion
; filament start gcode
SET_PRESSURE_ADVANCE ADVANCE=0.02; Override pressure advance value
T0
M106 S0
M106 P2 S0
;LAYER_CHANGE
;Z:0.25
;HEIGHT:0.25
;BEFORE_LAYER_CHANGE
;0.25
G92 E0

G1 E-.8 F1800
;AFTER_LAYER_CHANGE
;0.25
;_SET_FAN_SPEED_CHANGING_LAYER
SET_VELOCITY_LIMIT ACCEL=500 ACCEL_TO_DECEL=250
SET_VELOCITY_LIMIT SQUARE_CORNER_VELOCITY=9
;CUSTOM_GCODE
; start pressure advance pattern for layer
G1 E-.8
G1 X130.461 Y149.507 F21000
G1 E.8 F1800
G1 Z.25 F21000
SET_PRESSURE_ADVANCE ADVANCE=0; Override pressure advance value
G1 E-.8 F1800
G1 X130.461 Y149.507 F21000
G1 E.8 F1800

G1 X130.461 Y191.933 E2.23286

G1 X214.539 Y191.933 E4.42497

M73 P1 R6
G1 X214.539 Y149.507 E2.23286

G1 X130.461 Y149.507 E4.42497
M73 P2 R6
G1 E-.8
G1 X130.967 Y150.013 F21000
G1 E.8 F1800

G1 X130.967 Y191.427 E2.17956

G1 X214.033 Y191.427 E4.37167

M73 P3 R6
G1 X214.033 Y150.013 E2.17956

G1 X130.967 Y150.013 E4.37167
M73 P4 R6
G1 E-.8
G1 X131.473 Y150.519 F21000
G1 E.8 F1800

G1 X131.473 Y190.921 E2.12626

M73 P5 R6
G1 X213.527 Y190.921 E4.31838

G1 X213.527 Y150.519 E2.12626

M73 P6 R6
G1 X131.473 Y150.519 E4.31838
G1 E-.8
G1 X130.461 Y192.44 F21000
G1 E.8 F1800

G1 X130.461 Y205.946 E.71082

M73 P7 R6
G1 X194.73 Y205.946 E3.38245

G1 X194.73 Y192.44 E.71082

G1 X130.461 Y192.44 E3.38245
M73 P8 R6
G1 E-.8
G1 X130.967 Y192.946 F21000
G1 E.8 F1800

G1 X130.967 Y205.44 E.65753

G1 X194.224 Y205.44 E3.32915

G1 X194.224 Y192.946 E.65753

M73 P9 R6
G1 X130.967 Y192.946 E3.32915
M73 P9 R5
G1 E-.8
G1 X131.473 Y193.452 F21000
G1 E.8 F1800

G1 X131.473 Y204.933 E.60423

G1 X193.718 Y204.933 E3.27586

M73 P10 R5
G1 X193.718 Y193.452 E.60423

G1 X131.473 Y193.452 E3.27586
G1 E-.8
G1 X131.847 Y193.826 F21000
G1 E.8 F1800
G1 E-.8
G1 X132.563 Y193.826 F21000
G1 E.8 F1800

M73 P11 R5
G1 X131.847 Y194.542 E.0533
G1 E-.8
G1 X131.847 Y195.258 F21000
G1 E.8 F1800

G1 X133.279 Y193.826 E.10659
G1 E-.8
G1 X133.995 Y193.826 F21000
G1 E.8 F1800

G1 X131.847 Y195.974 E.15989
G1 E-.8
G1 X131.847 Y196.69 F21000
G1 E.8 F1800

G1 X134.711 Y193.826 E.21319
G1 E-.8
G1 X135.427 Y193.826 F21000
G1 E.8 F1800

G1 X131.847 Y197.406 E.26649
G1 E-.8
G1 X131.847 Y198.122 F21000
G1 E.8 F1800

G1 X136.143 Y193.826 E.31978
G1 E-.8
G1 X136.859 Y193.826 F21000
G1 E.8 F1800

G1 X131.847 Y198.838 E.37308
G1 E-.8
G1 X131.847 Y199.554 F21000
G1 E.8 F1800

G1 X137.575 Y193.826 E.42638
G1 E-.8
G1 X138.291 Y193.826 F21000
G1 E.8 F1800

G1 X131.847 Y200.27 E.47968
G1 E-.8
G1 X131.847 Y200.986 F21000
G1 E.8 F1800

G1 X139.008 Y193.826 E.53297
G1 E-.8
G1 X139.724 Y193.826 F21000
G1 E.8 F1800

G1 X131.847 Y201.703 E.58627
M73 P12 R5
G1 E-.8
G1 X131.847 Y202.419 F21000
G1 E.8 F1800

G1 X140.44 Y193.826 E.63957
G1 E-.8
G1 X141.156 Y193.826 F21000
G1 E.8 F1800

G1 X131.847 Y203.135 E.69286
G1 E-.8
G1 X131.847 Y203.851 F21000
G1 E.8 F1800

G1 X141.872 Y193.826 E.74616
G1 E-.8
G1 X142.588 Y193.826 F21000
G1 E.8 F1800

G1 X131.854 Y204.56 E.79894
G1 E-.8
G1 X132.57 Y204.56 F21000
G1 E.8 F1800

G1 X143.304 Y193.826 E.79894
G1 E-.8
G1 X144.02 Y193.826 F21000
G1 E.8 F1800

G1 X133.286 Y204.56 E.79894
M73 P13 R5
G1 E-.8
G1 X134.002 Y204.56 F21000
G1 E.8 F1800

G1 X144.736 Y193.826 E.79894
G1 E-.8
G1 X145.452 Y193.826 F21000
G1 E.8 F1800

G1 X134.718 Y204.56 E.79894
G1 E-.8
G1 X135.434 Y204.56 F21000
G1 E.8 F1800

G1 X146.168 Y193.826 E.79894
G1 E-.8
G1 X146.885 Y193.826 F21000
G1 E.8 F1800

G1 X136.15 Y204.56 E.79894
G1 E-.8
G1 X136.866 Y204.56 F21000
G1 E.8 F1800

G1 X147.601 Y193.826 E.79894
G1 E-.8
G1 X148.317 Y193.826 F21000
G1 E.8 F1800

G1 X137.582 Y204.56 E.79894
M73 P14 R5
G1 E-.8
G1 X138.298 Y204.56 F21000
G1 E.8 F1800

G1 X149.033 Y193.826 E.79894
G1 E-.8
G1 X149.749 Y193.826 F21000
G1 E.8 F1800

G1 X139.015 Y204.56 E.79894
G1 E-.8
G1 X139.731 Y204.56 F21000
G1 E.8 F1800

G1 X150.465 Y193.826 E.79894
G1 E-.8
G1 X151.181 Y193.826 F21000
G1 E.8 F1800

G1 X140.447 Y204.56 E.79894
G1 E-.8
G1 X141.163 Y204.56 F21000
G1 E.8 F1800

G1 X151.897 Y193.826 E.79894
G1 E-.8
G1 X152.613 Y193.826 F21000
G1 E.8 F1800

G1 X141.879 Y204.56 E.79894
M73 P15 R5
G1 E-.8
G1 X142.595 Y204.56 F21000
G1 E.8 F1800

G1 X153.329 Y193.826 E.79894
G1 E-.8
G1 X154.045 Y193.826 F21000
G1 E.8 F1800

G1 X143.311 Y204.56 E.79894
G1 E-.8
G1 X144.027 Y204.56 F21000
G1 E.8 F1800

G1 X154.761 Y193.826 E.79894
G1 E-.8
G1 X155.478 Y193.826 F21000
G1 E.8 F1800

G1 X144.743 Y204.56 E.79894
G1 E-.8
G1 X145.459 Y204.56 F21000
G1 E.8 F1800

G1 X156.194 Y193.826 E.79894
G1 E-.8
G1 X156.91 Y193.826 F21000
G1 E.8 F1800

G1 X146.175 Y204.56 E.79894
M73 P16 R5
G1 E-.8
G1 X146.892 Y204.56 F21000
G1 E.8 F1800

G1 X157.626 Y193.826 E.79894
G1 E-.8
G1 X158.342 Y193.826 F21000
G1 E.8 F1800

G1 X147.608 Y204.56 E.79894
G1 E-.8
G1 X148.324 Y204.56 F21000
G1 E.8 F1800

G1 X159.058 Y193.826 E.79894
G1 E-.8
G1 X159.774 Y193.826 F21000
G1 E.8 F1800

G1 X149.04 Y204.56 E.79894
G1 E-.8
G1 X149.756 Y204.56 F21000
G1 E.8 F1800

G1 X160.49 Y193.826 E.79894
G1 E-.8
G1 X161.206 Y193.826 F21000
G1 E.8 F1800

M73 P17 R5
G1 X150.472 Y204.56 E.79894
G1 E-.8
G1 X151.188 Y204.56 F21000
G1 E.8 F1800

G1 X161.922 Y193.826 E.79894
G1 E-.8
G1 X162.638 Y193.826 F21000
G1 E.8 F1800

G1 X151.904 Y204.56 E.79894
G1 E-.8
G1 X152.62 Y204.56 F21000
G1 E.8 F1800

G1 X163.354 Y193.826 E.79894
G1 E-.8
G1 X164.071 Y193.826 F21000
G1 E.8 F1800

G1 X153.336 Y204.56 E.79894
G1 E-.8
G1 X154.052 Y204.56 F21000
G1 E.8 F1800

G1 X164.787 Y193.826 E.79894
M73 P18 R5
G1 E-.8
G1 X165.503 Y193.826 F21000
G1 E.8 F1800

G1 X154.768 Y204.56 E.79894
G1 E-.8
G1 X155.485 Y204.56 F21000
G1 E.8 F1800

G1 X166.219 Y193.826 E.79894
G1 E-.8
G1 X166.935 Y193.826 F21000
G1 E.8 F1800

G1 X156.201 Y204.56 E.79894
G1 E-.8
G1 X156.917 Y204.56 F21000
G1 E.8 F1800

G1 X167.651 Y193.826 E.79894
G1 E-.8
G1 X168.367 Y193.826 F21000
G1 E.8 F1800

G1 X157.633 Y204.56 E.79894
G1 E-.8
G1 X158.349 Y204.56 F21000
G1 E.8 F1800

G1 X169.083 Y193.826 E.79894
M73 P19 R5
G1 E-.8
G1 X169.799 Y193.826 F21000
G1 E.8 F1800

G1 X159.065 Y204.56 E.79894
G1 E-.8
G1 X159.781 Y204.56 F21000
G1 E.8 F1800

G1 X170.515 Y193.826 E.79894
G1 E-.8
G1 X171.231 Y193.826 F21000
G1 E.8 F1800

G1 X160.497 Y204.56 E.79894
G1 E-.8
G1 X161.213 Y204.56 F21000
G1 E.8 F1800

G1 X171.948 Y193.826 E.79894
G1 E-.8
G1 X172.664 Y193.826 F21000
G1 E.8 F1800

G1 X161.929 Y204.56 E.79894
G1 E-.8
G1 X162.645 Y204.56 F21000
G1 E.8 F1800

G1 X173.38 Y193.826 E.79894
M73 P20 R5
G1 E-.8
G1 X174.096 Y193.826 F21000
G1 E.8 F1800

G1 X163.362 Y204.56 E.79894
G1 E-.8
G1 X164.078 Y204.56 F21000
G1 E.8 F1800

G1 X174.812 Y193.826 E.79894
G1 E-.8
G1 X175.528 Y193.826 F21000
G1 E.8 F1800

G1 X164.794 Y204.56 E.79894
G1 E-.8
G1 X165.51 Y204.56 F21000
G1 E.8 F1800

G1 X176.244 Y193.826 E.79894
G1 E-.8
G1 X176.96 Y193.826 F21000
G1 E.8 F1800

G1 X166.226 Y204.56 E.79894
G1 E-.8
G1 X166.942 Y204.56 F21000
G1 E.8 F1800

G1 X177.676 Y193.826 E.79894
M73 P21 R5
G1 E-.8
G1 X178.392 Y193.826 F21000
G1 E.8 F1800

G1 X167.658 Y204.56 E.79894
G1 E-.8
G1 X168.374 Y204.56 F21000
G1 E.8 F1800

G1 X179.108 Y193.826 E.79894
G1 E-.8
G1 X179.824 Y193.826 F21000
G1 E.8 F1800

G1 X169.09 Y204.56 E.79894
G1 E-.8
G1 X169.806 Y204.56 F21000
G1 E.8 F1800

G1 X180.541 Y193.826 E.79894
G1 E-.8
G1 X181.257 Y193.826 F21000
G1 E.8 F1800

G1 X170.522 Y204.56 E.79894
G1 E-.8
G1 X171.238 Y204.56 F21000
G1 E.8 F1800

G1 X181.973 Y193.826 E.79894
M73 P22 R5
G1 E-.8
G1 X182.689 Y193.826 F21000
G1 E.8 F1800

G1 X171.955 Y204.56 E.79894
G1 E-.8
G1 X172.671 Y204.56 F21000
G1 E.8 F1800

G1 X183.405 Y193.826 E.79894
G1 E-.8
G1 X184.121 Y193.826 F21000
G1 E.8 F1800

G1 X173.387 Y204.56 E.79894
G1 E-.8
G1 X174.103 Y204.56 F21000
G1 E.8 F1800

G1 X184.837 Y193.826 E.79894
G1 E-.8
G1 X185.553 Y193.826 F21000
G1 E.8 F1800

G1 X174.819 Y204.56 E.79894
G1 E-.8
M73 P23 R5
G1 X175.535 Y204.56 F21000
G1 E.8 F1800

G1 X186.269 Y193.826 E.79894
G1 E-.8
G1 X186.985 Y193.826 F21000
G1 E.8 F1800

G1 X176.251 Y204.56 E.79894
G1 E-.8
G1 X176.967 Y204.56 F21000
G1 E.8 F1800

G1 X187.701 Y193.826 E.79894
G1 E-.8
G1 X188.418 Y193.826 F21000
G1 E.8 F1800

G1 X177.683 Y204.56 E.79894
G1 E-.8
G1 X178.399 Y204.56 F21000
G1 E.8 F1800

G1 X189.134 Y193.826 E.79894
G1 E-.8
G1 X189.85 Y193.826 F21000
G1 E.8 F1800

G1 X179.115 Y204.56 E.79894
M73 P24 R5
G1 E-.8
G1 X179.831 Y204.56 F21000
G1 E.8 F1800

G1 X190.566 Y193.826 E.79894
G1 E-.8
G1 X191.282 Y193.826 F21000
G1 E.8 F1800

G1 X180.548 Y204.56 E.79894
G1 E-.8
G1 X181.264 Y204.56 F21000
G1 E.8 F1800

G1 X191.998 Y193.826 E.79894
G1 E-.8
G1 X192.714 Y193.826 F21000
G1 E.8 F1800

G1 X181.98 Y204.56 E.79894
M73 P24 R4
G1 E-.8
G1 X182.696 Y204.56 F21000
G1 E.8 F1800

G1 X193.344 Y193.911 E.79256
G1 E-.8
G1 X193.344 Y194.627 F21000
G1 E.8 F1800

G1 X183.412 Y204.56 E.73926
M73 P25 R4
G1 E-.8
G1 X184.128 Y204.56 F21000
G1 E.8 F1800

G1 X193.344 Y195.343 E.68597
G1 E-.8
G1 X193.344 Y196.06 F21000
G1 E.8 F1800

G1 X184.844 Y204.56 E.63267
G1 E-.8
G1 X185.56 Y204.56 F21000
G1 E.8 F1800

G1 X193.344 Y196.776 E.57937
G1 E-.8
G1 X193.344 Y197.492 F21000
G1 E.8 F1800

G1 X186.276 Y204.56 E.52607
G1 E-.8
G1 X186.992 Y204.56 F21000
G1 E.8 F1800

G1 X193.344 Y198.208 E.47278
G1 E-.8
G1 X193.344 Y198.924 F21000
G1 E.8 F1800

G1 X187.708 Y204.56 E.41948
G1 E-.8
G1 X188.425 Y204.56 F21000
G1 E.8 F1800

G1 X193.344 Y199.64 E.36618
G1 E-.8
G1 X193.344 Y200.356 F21000
G1 E.8 F1800

G1 X189.141 Y204.56 E.31288
M73 P26 R4
G1 E-.8
G1 X189.857 Y204.56 F21000
G1 E.8 F1800

G1 X193.344 Y201.072 E.25959
G1 E-.8
G1 X193.344 Y201.788 F21000
G1 E.8 F1800

G1 X190.573 Y204.56 E.20629
G1 E-.8
G1 X191.289 Y204.56 F21000
G1 E.8 F1800

G1 X193.344 Y202.504 E.15299
G1 E-.8
G1 X193.344 Y203.22 F21000
G1 E.8 F1800

G1 X192.005 Y204.56 E.0997
G1 E-.8
G1 X192.721 Y204.56 F21000
G1 E.8 F1800

G1 X193.344 Y203.936 E.0464
G1 Z.45 F21000
G1 E-.8 F1800
G1 X134.419 Y150.893 F21000
G1 E.8 F1800
G1 Z.25 F21000
SET_PRESSURE_ADVANCE ADVANCE=0; Override pressure advance value
G1 F1800
G1 X154.247 Y170.72 E1.15512

G1 X134.419 Y190.547 E1.15512
M73 P27 R4
G1 Z.45 F21000
G1 E-.8 F1800
G1 X134.995 Y150.893 F21000
G1 E.8 F1800
G1 Z.25 F21000
G1 F1800
G1 X154.822 Y170.72 E1.15512

G1 X134.995 Y190.547 E1.15512
G1 Z.45 F21000
G1 E-.8 F1800
G1 X135.571 Y150.893 F21000
G1 E.8 F1800
G1 Z.25 F21000
G1 F1800
G1 X155.398 Y170.72 E1.15512

M73 P28 R4
G1 X135.571 Y190.547 E1.15512
G1 Z.45 F21000
G1 E-.8 F1800
G1 X138.021 Y150.893 F21000
G1 E.8 F1800
G1 Z.25 F21000
SET_PRESSURE_ADVANCE ADVANCE=0.005; Override pressure advance value
G1 F1800
G1 X157.848 Y170.72 E1.15512

G1 X138.021 Y190.547 E1.15512
M73 P29 R4
G1 Z.45 F21000
G1 E-.8 F1800
G1 X138.596 Y150.893 F21000
G1 E.8 F1800
G1 Z.25 F21000
G1 F1800
G1 X158.424 Y170.72 E1.15512

G1 X138.596 Y190.547 E1.15512
G1 Z.45 F21000
G1 E-.8 F1800
G1 X139.172 Y150.893 F21000
G1 E.8 F1800
G1 Z.25 F21000
G1 F1800
G1 X158.999 Y170.72 E1.15512

M73 P30 R4
G1 X139.172 Y190.547 E1.15512
G1 Z.45 F21000
G1 E-.8 F1800
G1 X141.622 Y150.893 F21000
G1 E.8 F1800
G1 Z.25 F21000
SET_PRESSURE_ADVANCE ADVANCE=0.01; Override pressure advance value
G1 F1800
G1 X161.449 Y170.72 E1.15512

G1 X141.622 Y190.547 E1.15512
M73 P31 R4
G1 Z.45 F21000
G1 E-.8 F1800
G1 X142.198 Y150.893 F21000
G1 E.8 F1800
G1 Z.25 F21000
G1 F1800
G1 X162.025 Y170.72 E1.15512

G1 X142.198 Y190.547 E1.15512
G1 Z.45 F21000
G1 E-.8 F1800
G1 X142.774 Y150.893 F21000
G1 E.8 F1800
G1 Z.25 F21000
G1 F1800
G1 X162.601 Y170.72 E1.15512

M73 P32 R4
G1 X142.774 Y190.547 E1.15512
G1 Z.45 F21000
G1 E-.8 F1800
G1 X145.224 Y150.893 F21000
G1 E.8 F1800
G1 Z.25 F21000
SET_PRESSURE_ADVANCE ADVANCE=0.015; Override pressure advance value
G1 F1800
G1 X165.051 Y170.72 E1.15512

G1 X145.224 Y190.547 E1.15512
M73 P33 R4
G1 Z.45 F21000
G1 E-.8 F1800
G1 X145.799 Y150.893 F21000
G1 E.8 F1800
G1 Z.25 F21000
G1 F1800
G1 X165.626 Y170.72 E1.15512

G1 X145.799 Y190.547 E1.15512
G1 Z.45 F21000
G1 E-.8 F1800
G1 X146.375 Y150.893 F21000
G1 E.8 F1800
G1 Z.25 F21000
G1 F1800
G1 X166.202 Y170.72 E1.15512

M73 P34 R4
G1 X146.375 Y190.547 E1.15512
G1 Z.45 F21000
G1 E-.8 F1800
G1 X148.825 Y150.893 F21000
G1 E.8 F1800
G1 Z.25 F21000
SET_PRESSURE_ADVANCE ADVANCE=0.02; Override pressure advance value
G1 F1800
G1 X168.652 Y170.72 E1.15512

G1 X148.825 Y190.547 E1.15512
M73 P35 R4
G1 Z.45 F21000
G1 E-.8 F1800
G1 X149.401 Y150.893 F21000
G1 E.8 F1800
G1 Z.25 F21000
G1 F1800
G1 X169.228 Y170.72 E1.15512

G1 X149.401 Y190.547 E1.15512
G1 Z.45 F21000
G1 E-.8 F1800
G1 X149.976 Y150.893 F21000
G1 E.8 F1800
G1 Z.25 F21000
G1 F1800
G1 X169.804 Y170.72 E1.15512

M73 P36 R4
G1 X149.976 Y190.547 E1.15512
G1 Z.45 F21000
G1 E-.8 F1800
G1 X152.426 Y150.893 F21000
G1 E.8 F1800
G1 Z.25 F21000
SET_PRESSURE_ADVANCE ADVANCE=0.025; Override pressure advance value
G1 F1800
G1 X172.254 Y170.72 E1.15512

G1 X152.426 Y190.547 E1.15512
M73 P37 R4
G1 Z.45 F21000
G1 E-.8 F1800
G1 X153.002 Y150.893 F21000
G1 E.8 F1800
G1 Z.25 F21000
G1 F1800
G1 X172.829 Y170.72 E1.15512

G1 X153.002 Y190.547 E1.15512
G1 Z.45 F21000
G1 E-.8 F1800
G1 X153.578 Y150.893 F21000
G1 E.8 F1800
G1 Z.25 F21000
G1 F1800
G1 X173.405 Y170.72 E1.15512

M73 P38 R4
G1 X153.578 Y190.547 E1.15512
G1 Z.45 F21000
G1 E-.8 F1800
G1 X156.028 Y150.893 F21000
G1 E.8 F1800
G1 Z.25 F21000
SET_PRESSURE_ADVANCE ADVANCE=0.03; Override pressure advance value
G1 F1800
G1 X175.855 Y170.72 E1.15512

G1 X156.028 Y190.547 E1.15512
G1 Z.45 F21000
G1 E-.8 F1800
M73 P39 R4
G1 X156.603 Y150.893 F21000
G1 E.8 F1800
G1 Z.25 F21000
G1 F1800
G1 X176.431 Y170.72 E1.15512

G1 X156.603 Y190.547 E1.15512
G1 Z.45 F21000
G1 E-.8 F1800
G1 X157.179 Y150.893 F21000
M73 P39 R3
G1 E.8 F1800
G1 Z.25 F21000
G1 F1800
G1 X177.006 Y170.72 E1.15512

M73 P40 R3
G1 X157.179 Y190.547 E1.15512
G1 Z.45 F21000
G1 E-.8 F1800
G1 X159.629 Y150.893 F21000
G1 E.8 F1800
G1 Z.25 F21000
SET_PRESSURE_ADVANCE ADVANCE=0.035; Override pressure advance value
G1 F1800
G1 X179.456 Y170.72 E1.15512

G1 X159.629 Y190.547 E1.15512
G1 Z.45 F21000
G1 E-.8 F1800
G1 X160.205 Y150.893 F21000
M73 P41 R3
G1 E.8 F1800
G1 Z.25 F21000
G1 F1800
G1 X180.032 Y170.72 E1.15512

G1 X160.205 Y190.547 E1.15512
G1 Z.45 F21000
G1 E-.8 F1800
G1 X160.781 Y150.893 F21000
G1 E.8 F1800
G1 Z.25 F21000
G1 F1800
G1 X180.608 Y170.72 E1.15512

M73 P42 R3
G1 X160.781 Y190.547 E1.15512
G1 Z.45 F21000
G1 E-.8 F1800
G1 X163.231 Y150.893 F21000
G1 E.8 F1800
G1 Z.25 F21000
SET_PRESSURE_ADVANCE ADVANCE=0.04; Override pressure advance value
G1 F1800
G1 X183.058 Y170.72 E1.15512

G1 X163.231 Y190.547 E1.15512
G1 Z.45 F21000
G1 E-.8 F1800
G1 X163.806 Y150.893 F21000
M73 P43 R3
G1 E.8 F1800
G1 Z.25 F21000
G1 F1800
G1 X183.633 Y170.72 E1.15512

G1 X163.806 Y190.547 E1.15512
G1 Z.45 F21000
G1 E-.8 F1800
G1 X164.382 Y150.893 F21000
G1 E.8 F1800
G1 Z.25 F21000
G1 F1800
G1 X184.209 Y170.72 E1.15512

M73 P44 R3
G1 X164.382 Y190.547 E1.15512
G1 Z.45 F21000
G1 E-.8 F1800
G1 X166.832 Y150.893 F21000
G1 E.8 F1800
G1 Z.25 F21000
SET_PRESSURE_ADVANCE ADVANCE=0.045; Override pressure advance value
G1 F1800
G1 X186.659 Y170.72 E1.15512

G1 X166.832 Y190.547 E1.15512
G1 Z.45 F21000
G1 E-.8 F1800
G1 X167.408 Y150.893 F21000
M73 P45 R3
G1 E.8 F1800
G1 Z.25 F21000
G1 F1800
G1 X187.235 Y170.72 E1.15512

G1 X167.408 Y190.547 E1.15512
G1 Z.45 F21000
G1 E-.8 F1800
G1 X167.983 Y150.893 F21000
G1 E.8 F1800
G1 Z.25 F21000
G1 F1800
