; HEADER_BLOCK_START
; generated by OrcaSlicer 1.9.1 on 2024-03-09 at 10:25:49
; total layer number: 24
; filament_density: 1.24,1.27,1.27,1.04
; filament_diameter: 1.75,1.75,1.75,1.75
; max_z_height: 4.80
; HEADER_BLOCK_END

; THUMBNAIL_BLOCK_START

;
; THUMBNAIL_BLOCK_END

; external perimeters extrusion width = 0.40mm
; perimeters extrusion width = 0.40mm
; infill extrusion width = 0.45mm
; solid infill extrusion width = 0.40mm
; top infill extrusion width = 0.40mm
; first layer extrusion width = 0.50mm

; EXECUTABLE_BLOCK_START
EXCLUDE_OBJECT_DEFINE NAME=Light_Holder_-_Hangar_Extension_1_.stl_id_0_copy_0 CENTER=175,175 POLYGON=[[54.1378,64.4615],[64.4615,54.1378],[78.6037,68.2799],[295.862,285.538],[285.538,295.862],[68.2799,78.6037],[54.1378,64.4615]]
M73 P0 R34
M106 S0
M106 P2 S0
;TYPE:Custom
M106 P2 S255 
M191 S40 ;set chamber_temperature and wait for it to be reached
M106 P2 S0 
M104 S0 ; Stops OrcaSlicer from sending temp waits separately
M140 S0
print_start EXTRUDER=265 BED=100 CHAMBER=40
G90
G21
M83 ; use relative distances for extrusion
T3
M104 S265 ; set nozzle temperature
; Filament gcode
FILTER_FAN_ON
SET_PRESSURE_ADVANCE ADVANCE=0.03; Override pressure advance value
M106 S0
M106 P2 S0
;LAYER_CHANGE
;Z:0.2
;HEIGHT:0.2
;BEFORE_LAYER_CHANGE
;0.2
G92 E0

;AFTER_LAYER_CHANGE
;0.2
;_SET_FAN_SPEED_CHANGING_LAYER
SET_VELOCITY_LIMIT ACCEL=500 ACCEL_TO_DECEL=250
SET_VELOCITY_LIMIT SQUARE_CORNER_VELOCITY=9
; printing object Light Holder - Hangar Extension (1).stl id:0 copy 0
G1 E-.8 F1800
EXCLUDE_OBJECT_START NAME=Light_Holder_-_Hangar_Extension_1_.stl_id_0_copy_0
G1 Z.4 F21000
G1 X289.643 Y279.42
G1 Z.4
G1 Z.2
G1 E.8 F1800
;TYPE:Brim
;WIDTH:0.5
G1 F3000
G1 X291.19 Y278.233 E.07042
G1 X293.205 Y277.398 E.07874
G1 X295.367 Y277.114 E.07874
G1 X297.529 Y277.398 E.07874
G1 X299.544 Y278.233 E.07874
G1 X301.274 Y279.561 E.07874
G1 X302.602 Y281.291 E.07874
G1 X303.437 Y283.306 E.07874
G1 X303.721 Y285.468 E.07874
G1 X303.437 Y287.63 E.07874
G1 X302.602 Y289.645 E.07874
G1 X301.274 Y291.375 E.07874
G1 X299.544 Y292.703 E.07874
G1 X297.529 Y293.537 E.07874
G1 X295.367 Y293.822 E.07874
G1 X294.027 Y293.645 E.04882
G1 X293.881 Y293.675 E.00538
G1 X293.784 Y293.789 E.00538
G1 X293.77 Y293.902 E.00411
G1 X293.963 Y295.367 E.05337
G1 X293.679 Y297.529 E.07874
G1 X292.844 Y299.544 E.07874
G1 X291.516 Y301.274 E.07874
G1 X289.786 Y302.602 E.07874
G1 X287.771 Y303.437 E.07874
G1 X285.609 Y303.721 E.07874
G1 X283.447 Y303.437 E.07874
G1 X281.432 Y302.602 E.07874
G1 X279.702 Y301.274 E.07874
G1 X278.374 Y299.544 E.07874
G1 X277.54 Y297.529 E.07874
G1 X277.255 Y295.367 E.07874
G1 X277.54 Y293.205 E.07874
G1 X278.374 Y291.19 E.07874
G1 X279.5 Y289.723 E.06678
G1 X285.306 Y295.529 E.29646
G1 X285.405 Y295.594 E.00429
G1 X285.579 Y295.614 E.00632
G1 X285.672 Y295.587 E.0035
G1 X285.771 Y295.529 E.00413
G1 X295.529 Y285.771 E.49826
G1 X295.594 Y285.671 E.00429
G1 X295.614 Y285.498 E.00632
G1 X295.587 Y285.405 E.0035
G1 X295.529 Y285.306 E.00413
G1 X289.671 Y279.449 E.2991
G1 X290.406 Y279.469 F21000
G1 F3000
G1 X290.459 Y279.37 E.00404
G1 X291.437 Y278.625 E.04441
G1 X293.342 Y277.841 E.07437
G1 X295.349 Y277.577 E.07309
G1 X297.392 Y277.841 E.07437
G1 X299.328 Y278.643 E.07565
G1 X300.959 Y279.901 E.07437
G1 X302.21 Y281.538 E.07437
G1 X302.994 Y283.443 E.07437
G1 X303.258 Y285.486 E.07437
G1 X302.984 Y287.527 E.07437
G1 X302.192 Y289.429 E.07437
G1 X300.934 Y291.06 E.07437
G1 X299.297 Y292.31 E.07437
G1 X297.392 Y293.094 E.07437
G1 X295.385 Y293.358 E.07309
G1 X294.098 Y293.194 E.04687
G1 X293.924 Y293.2 E.00627
G1 X293.803 Y293.224 E.00446
G1 X293.614 Y293.306 E.00741
G1 X293.527 Y293.386 E.00428
G1 X293.449 Y293.477 E.00434
G1 X293.328 Y293.754 E.0109
G1 X293.318 Y293.838 E.00307
G1 X293.318 Y293.97 E.00476
G1 X293.5 Y295.385 E.05152
G1 X293.236 Y297.392 E.07309
G1 X292.452 Y299.297 E.07437
G1 X291.201 Y300.934 E.07437
G1 X289.57 Y302.192 E.07437
G1 X287.669 Y302.984 E.07437
G1 X285.627 Y303.258 E.07437
G1 X283.584 Y302.994 E.07437
G1 X281.648 Y302.192 E.07565
G1 X280.042 Y300.959 E.07309
G1 X278.785 Y299.328 E.07437
G1 X277.983 Y297.392 E.07565
G1 X277.719 Y295.385 E.07309
G1 X277.983 Y293.342 E.07437
G1 X278.785 Y291.406 E.07565
G1 X279.45 Y290.539 E.03949
G1 X279.552 Y290.485 E.00413
G1 X279.656 Y290.525 E.00404
G1 X284.976 Y295.845 E.27161
G1 X285.145 Y295.969 E.00758
G1 X285.37 Y296.05 E.00865
G1 X285.514 Y296.066 E.00525
G1 X285.787 Y296.03 E.00992
G1 X285.999 Y295.924 E.00857
G1 X286.1 Y295.846 E.0046
G1 X295.845 Y286.101 E.49757
G1 X295.969 Y285.932 E.00758
G1 X296.05 Y285.707 E.00865
G1 X296.066 Y285.562 E.00525
G1 X296.05 Y285.364 E.0072
G1 X295.976 Y285.167 E.00759
G1 X295.843 Y284.974 E.00845
G1 X290.445 Y279.576 E.27563
G1 X290.419 Y279.506 E.00269
G1 X291.099 Y279.516 F21000
G1 F3000
G1 X291.152 Y279.417 E.00406
G1 X291.683 Y279.018 E.02397
G1 X293.479 Y278.284 E.07004
G1 X295.368 Y278.04 E.06876
G1 X297.255 Y278.285 E.06872
G1 X299.111 Y279.053 E.07254
G1 X300.644 Y280.241 E.06998
G1 X301.817 Y281.784 E.07001
G1 X302.55 Y283.579 E.07001
G1 X302.794 Y285.503 E.07001
G1 X302.532 Y287.424 E.07001
G1 X301.782 Y289.211 E.07001
G1 X300.595 Y290.744 E.07001
G1 X299.051 Y291.917 E.07001
G1 X297.256 Y292.651 E.07002
G1 X295.402 Y292.895 E.06751
G1 X294.165 Y292.741 E.04502
G1 X293.915 Y292.743 E.00902
G1 X293.72 Y292.775 E.00711
G1 X293.446 Y292.881 E.01063
G1 X293.219 Y293.048 E.01016
G1 X293.106 Y293.175 E.00612
G1 X293.026 Y293.303 E.00546
G1 X292.914 Y293.558 E.01005
G1 X292.865 Y293.781 E.00826
G1 X292.866 Y294.036 E.00922
G1 X293.037 Y295.402 E.04969
G1 X292.793 Y297.256 E.0675
G1 X292.059 Y299.051 E.07002
G1 X290.886 Y300.595 E.07001
G1 X289.353 Y301.782 E.07001
G1 X287.53 Y302.542 E.07129
G1 X285.608 Y302.795 E.07001
G1 X283.686 Y302.541 E.06999
G1 X281.865 Y301.782 E.07126
G1 X280.357 Y300.619 E.06874
G1 X279.195 Y299.111 E.06872
G1 X278.426 Y297.255 E.07255
G1 X278.182 Y295.367 E.06874
G1 X278.426 Y293.479 E.06872
G1 X279.195 Y291.623 E.07255
G1 X279.496 Y291.231 E.01785
G1 X279.597 Y291.177 E.00413
G1 X279.702 Y291.217 E.00404
G1 X284.646 Y296.162 E.25247
G1 X284.868 Y296.332 E.01012
G1 X284.999 Y296.402 E.00534
G1 X285.203 Y296.476 E.00786
G1 X285.459 Y296.52 E.00935
G1 X285.584 Y296.518 E.00453
G1 X285.837 Y296.484 E.00921
G1 X285.998 Y296.435 E.00609
G1 X286.287 Y296.279 E.01184
G1 X286.428 Y296.164 E.00658
G1 X296.162 Y286.431 E.49699
G1 X296.332 Y286.209 E.01012
G1 X296.402 Y286.078 E.00534
G1 X296.477 Y285.87 E.00801
G1 X296.504 Y285.753 E.00432
G1 X296.521 Y285.518 E.00851
G1 X296.473 Y285.194 E.01183
G1 X296.345 Y284.898 E.01165
G1 X296.159 Y284.644 E.01138
G1 X291.138 Y279.623 E.25636
G1 X291.113 Y279.553 E.00269
G1 X291.794 Y279.565 F21000
G1 F3000
G1 X291.849 Y279.466 E.00409
G1 X291.927 Y279.413 E.00341
G1 X293.58 Y278.737 E.06448
G1 X295.385 Y278.504 E.06572
G1 X297.153 Y278.737 E.06439
G1 X298.894 Y279.464 E.06812
G1 X300.327 Y280.579 E.06556
G1 X301.406 Y281.999 E.06436
G1 X302.098 Y283.68 E.06564
G1 X302.331 Y285.482 E.06564
G1 X302.09 Y287.284 E.06564
G1 X301.391 Y288.962 E.06564
G1 X300.281 Y290.402 E.06564
G1 X298.805 Y291.524 E.06692
G1 X297.12 Y292.208 E.06568
G1 X295.418 Y292.432 E.06199
G1 X294.23 Y292.289 E.04318
G1 X293.832 Y292.294 E.01437
G1 X293.545 Y292.353 E.01059
G1 X293.29 Y292.452 E.00989
G1 X293.169 Y292.518 E.00497
G1 X292.872 Y292.751 E.01364
G1 X292.715 Y292.939 E.00884
G1 X292.604 Y293.127 E.00788
G1 X292.5 Y293.364 E.00936
G1 X292.422 Y293.671 E.01142
G1 X292.414 Y294.103 E.01561
G1 X292.573 Y295.418 E.04783
G1 X292.349 Y297.12 E.06198
G1 X291.665 Y298.805 E.06568
G1 X290.569 Y300.256 E.06564
G1 X289.135 Y301.372 E.06561
G1 X287.427 Y302.089 E.06688
G1 X285.626 Y302.331 E.06562
G1 X283.789 Y302.089 E.06689
G1 X282.082 Y301.372 E.06687
G1 X280.697 Y300.304 E.06314
G1 X279.605 Y298.895 E.06436
G1 X278.878 Y297.153 E.06815
G1 X278.645 Y295.349 E.06567
G1 X278.869 Y293.616 E.0631
G1 X279.544 Y291.974 E.0641
G1 X279.628 Y291.896 E.00413
G1 X279.768 Y291.93 E.00519
G1 X284.317 Y296.479 E.2323
G1 X284.583 Y296.69 E.01225
G1 X284.779 Y296.802 E.00814
G1 X285.04 Y296.902 E.0101
G1 X285.374 Y296.968 E.01229
G1 X285.584 Y296.975 E.0076
G1 X285.89 Y296.938 E.01111
G1 X286.121 Y296.875 E.00866
G1 X286.584 Y296.626 E.01899
G1 X286.756 Y296.483 E.00806
G1 X296.478 Y286.761 E.49643
G1 X296.74 Y286.415 E.01565
G1 X296.834 Y286.226 E.00765
G1 X296.947 Y285.865 E.01366
G1 X296.976 Y285.561 E.01104
G1 X296.926 Y285.135 E.01547
G1 X296.77 Y284.729 E.01572
G1 X296.532 Y284.38 E.01524
G1 X291.834 Y279.672 E.24014
G1 X291.808 Y279.602 E.00269
G1 X292.592 Y279.717 F21000
G1 F3000
G1 X292.676 Y279.6 E.0052
G1 X293.681 Y279.189 E.03919
G1 X295.402 Y278.967 E.06266
G1 X297.05 Y279.189 E.06004
G1 X298.676 Y279.873 E.0637
G1 X300.01 Y280.918 E.06116
G1 X301.012 Y282.244 E.06003
G1 X301.654 Y283.816 E.0613
G1 X301.868 Y285.499 E.06127
G1 X301.638 Y287.181 E.06127
G1 X300.981 Y288.745 E.06127
G1 X299.942 Y290.086 E.06126
G1 X298.56 Y291.13 E.06251
G1 X296.985 Y291.765 E.06133
G1 X295.432 Y291.969 E.05654
G1 X294.216 Y291.832 E.04419
G1 X293.838 Y291.837 E.01365
G1 X293.461 Y291.904 E.01384
G1 X293.131 Y292.023 E.01267
G1 X292.958 Y292.112 E.00701
G1 X292.514 Y292.467 E.02052
G1 X292.317 Y292.715 E.01143
G1 X292.183 Y292.949 E.00973
G1 X292.055 Y293.26 E.01215
G1 X291.965 Y293.669 E.01514
G1 X291.961 Y294.167 E.01796
G1 X292.11 Y295.433 E.04603
G1 X291.906 Y296.985 E.05651
G1 X291.271 Y298.561 E.06136
G1 X290.252 Y299.918 E.06127
G1 X288.917 Y300.963 E.06122
G1 X287.323 Y301.637 E.06247
G1 X285.608 Y301.868 E.06251
G1 X283.893 Y301.637 E.06247
G1 X282.3 Y300.963 E.06247
G1 X281.012 Y299.964 E.05884
G1 X280.015 Y298.677 E.05877
G1 X279.331 Y297.051 E.06371
G1 X279.108 Y295.332 E.06258
G1 X279.312 Y293.752 E.05751
G1 X279.706 Y292.783 E.03777
G1 X279.79 Y292.705 E.00413
G1 X279.93 Y292.738 E.0052
G1 X283.988 Y296.796 E.20723
G1 X284.362 Y297.09 E.01716
G1 X284.622 Y297.231 E.01068
G1 X284.96 Y297.352 E.01296
G1 X285.368 Y297.425 E.01497
G1 X285.648 Y297.428 E.0101
G1 X285.936 Y297.393 E.01047
G1 X286.343 Y297.274 E.0153
G1 X286.886 Y296.969 E.02252
G1 X287.083 Y296.802 E.00931
G1 X296.794 Y287.091 E.49587
G1 X297.153 Y286.61 E.02166
G1 X297.273 Y286.354 E.01024
G1 X297.38 Y286.013 E.01287
G1 X297.429 Y285.613 E.01456
G1 X297.381 Y285.089 E.01899
G1 X297.35 Y284.965 E.00464
G1 X297.14 Y284.46 E.01973
G1 X296.848 Y284.049 E.01822
G1 X292.631 Y279.824 E.21552
G1 X292.605 Y279.754 E.00269
G1 E-.8 F1800
G1 Z.6 F21000
G1 X291.451 Y293.148 Z.6
G1 Z.2
G1 E.8 F1800
G1 F3000
G1 X291.552 Y293.203 E.00413
G1 X291.575 Y293.314 E.0041
G1 X291.521 Y293.557 E.009
G1 X291.508 Y294.23 E.02428
G1 X291.648 Y295.447 E.04423
G1 X291.463 Y296.85 E.05112
G1 X290.876 Y298.318 E.05705
G1 X289.908 Y299.606 E.05819
G1 X288.666 Y300.573 E.05684
G1 X287.219 Y301.185 E.05674
G1 X285.589 Y301.404 E.05935
G1 X283.998 Y301.185 E.05801
G1 X282.549 Y300.572 E.0568
G1 X281.351 Y299.649 E.0546
G1 X280.424 Y298.459 E.05446
G1 X279.783 Y296.948 E.05927
G1 X279.571 Y295.314 E.05947
G1 X279.756 Y293.887 E.05196
G1 X279.87 Y293.594 E.01135
G1 X279.953 Y293.516 E.00413
G1 X280.094 Y293.549 E.00522
G1 X283.659 Y297.114 E.18206
G1 X284.073 Y297.444 E.01909
G1 X284.396 Y297.628 E.01343
G1 X284.797 Y297.779 E.01549
G1 X285.279 Y297.874 E.01772
G1 X285.638 Y297.885 E.01296
G1 X285.981 Y297.848 E.01248
G1 X286.464 Y297.715 E.01808
G1 X286.572 Y297.669 E.00423
G1 X287.191 Y297.31 E.02586
G1 X287.41 Y297.122 E.01041
G1 X291.344 Y293.188 E.20089
G1 X291.414 Y293.162 E.00269
G1 E-.8 F1800
G1 Z.6 F21000
G1 X290.944 Y294.301 Z.6
G1 Z.2
G1 E.8 F1800
G1 F3000
G1 X291.044 Y294.357 E.00413
G1 X291.07 Y294.423 E.00255
G1 X291.185 Y295.46 E.03768
G1 X291.019 Y296.717 E.04579
G1 X290.463 Y298.106 E.05403
G1 X289.565 Y299.294 E.05378
G1 X288.416 Y300.183 E.05244
G1 X287.079 Y300.743 E.05235
G1 X285.572 Y300.94 E.05488
G1 X284.138 Y300.743 E.05225
G1 X282.798 Y300.181 E.05248
G1 X281.69 Y299.333 E.05037
G1 X280.832 Y298.24 E.05016
G1 X280.226 Y296.808 E.05612
G1 X280.034 Y295.296 E.05502
G1 X280.132 Y294.545 E.02735
G1 X280.192 Y294.448 E.00413
G1 X280.305 Y294.431 E.00413
G1 X280.365 Y294.466 E.00248
G1 X283.331 Y297.432 E.15147
G1 X283.781 Y297.795 E.02089
G1 X284.161 Y298.02 E.01593
G1 X284.628 Y298.204 E.0181
G1 X285.182 Y298.32 E.02047
M73 P0 R33
G1 X285.615 Y298.341 E.01564
G1 X286.112 Y298.286 E.01807
G1 X286.647 Y298.134 E.02006
G1 X286.807 Y298.062 E.00634
G1 X287.498 Y297.649 E.02907
G1 X287.736 Y297.442 E.0114
G1 X290.837 Y294.341 E.15831
G1 X290.907 Y294.315 E.00269
G1 E-.8 F1800
G1 Z.6 F21000
G1 X290.595 Y295.297 Z.6
G1 Z.2
G1 E.8 F1800
G1 F3000
G1 X290.695 Y295.353 E.00413
G1 X290.722 Y295.471 E.0044
G1 X290.576 Y296.583 E.04049
G1 X290.069 Y297.862 E.04968
G1 X289.223 Y298.981 E.05064
G1 X288.198 Y299.773 E.04676
G1 X286.976 Y300.291 E.04793
G1 X285.592 Y300.477 E.05042
G1 X284.243 Y300.291 E.04915
G1 X283.045 Y299.789 E.04691
G1 X282.027 Y299.015 E.04614
G1 X281.222 Y297.989 E.04712
G1 X280.679 Y296.706 E.0503
G1 X280.538 Y295.633 E.03907
G1 X280.572 Y295.523 E.00413
G1 X280.677 Y295.478 E.00413
G1 X280.771 Y295.518 E.00368
G1 X283.002 Y297.75 E.11395
G1 X283.556 Y298.193 E.02559
G1 X284.002 Y298.449 E.01858
G1 X284.544 Y298.653 E.0209
G1 X285.079 Y298.766 E.01973
G1 X285.584 Y298.797 E.01829
G1 X286.153 Y298.741 E.02065
G1 X286.764 Y298.575 E.02282
G1 X287.048 Y298.45 E.01125
G1 X287.723 Y298.047 E.02836
G1 X288.064 Y297.761 E.01607
G1 X290.487 Y295.337 E.12374
G1 X290.557 Y295.311 E.00269
G1 E-.8 F1800
G1 Z.6 F21000
G1 X289.852 Y296.687 Z.6
G1 Z.2
G1 E.8 F1800
G1 F3000
G1 X289.952 Y296.742 E.00413
G1 X289.969 Y296.874 E.0048
G1 X289.656 Y297.651 E.03026
G1 X288.906 Y298.642 E.04486
G1 X287.979 Y299.364 E.04242
G1 X286.871 Y299.839 E.04353
G1 X285.611 Y300.013 E.04593
G1 X284.382 Y299.849 E.04474
G1 X283.261 Y299.379 E.04389
G1 X282.34 Y298.673 E.04191
G1 X281.631 Y297.769 E.0415
G1 X281.35 Y297.117 E.02561
G1 X281.353 Y297.003 E.00413
G1 X281.442 Y296.931 E.00413
G1 X281.573 Y296.967 E.0049
G1 X282.674 Y298.068 E.0562
G1 X283.337 Y298.594 E.03056
G1 X283.85 Y298.88 E.02124
G1 X284.373 Y299.077 E.02016
G1 X285.06 Y299.222 E.02534
G1 X285.639 Y299.251 E.02096
G1 X286.188 Y299.197 E.0199
G1 X286.874 Y299.019 E.0256
G1 X287.29 Y298.838 E.01639
G1 X287.949 Y298.444 E.02769
G1 X288.354 Y298.114 E.01889
G1 X289.745 Y296.726 E.07093
G1 X289.815 Y296.7 E.00269
G1 E-.8 F1800
G1 Z.6 F21000
G1 X293.329 Y291.413 Z.6
G1 Z.2
G1 E.8 F1800
G1 F3000
G1 X293.281 Y291.309 E.00413
G1 X293.321 Y291.211 E.00382
G1 X297.166 Y287.357 E.1966
G1 X297.512 Y286.893 E.02088
G1 X297.684 Y286.555 E.0137
G1 X297.835 Y286.059 E.0187
G1 X297.883 Y285.558 E.01818
G1 X297.837 Y285.058 E.01814
G1 X297.768 Y284.779 E.01036
G1 X297.567 Y284.297 E.01885
G1 X297.225 Y283.792 E.02203
G1 X293.44 Y279.987 E.1938
G1 X293.4 Y279.88 E.00413
G1 X293.485 Y279.763 E.0052
G1 X293.817 Y279.633 E.01287
G1 X295.419 Y279.43 E.05831
G1 X296.946 Y279.641 E.05565
G1 X298.426 Y280.264 E.05798
G1 X299.692 Y281.255 E.05806
G1 X300.619 Y282.489 E.05571
G1 X301.211 Y283.951 E.05696
G1 X301.404 Y285.515 E.0569
G1 X301.196 Y287.041 E.05562
G1 X300.572 Y288.527 E.05818
G1 X299.603 Y289.769 E.05687
G1 X298.348 Y290.718 E.05681
G1 X296.85 Y291.321 E.05829
G1 X295.445 Y291.506 E.0512
G1 X294.202 Y291.375 E.0451
G1 X293.843 Y291.379 E.01299
G1 X293.439 Y291.443 E.01475
G1 X293.367 Y291.423 E.00269
G1 E-.8 F1800
G1 Z.6 F21000
G1 X294.443 Y290.893 Z.6
M73 P1 R33
G1 Z.2
G1 E.8 F1800
G1 F3000
G1 X294.423 Y290.78 E.00413
G1 X294.458 Y290.718 E.00258
G1 X297.538 Y287.623 E.15766
G1 X297.924 Y287.091 E.02374
G1 X298.124 Y286.677 E.01657
G1 X298.268 Y286.204 E.01787
G1 X298.337 Y285.613 E.02149
G1 X298.293 Y285.025 E.02129
G1 X298.187 Y284.595 E.01599
G1 X297.939 Y284.032 E.02222
G1 X297.541 Y283.461 E.02511
G1 X294.345 Y280.249 E.16359
G1 X294.306 Y280.142 E.00413
G1 X294.362 Y280.042 E.00413
G1 X294.425 Y280.017 E.00248
G1 X295.434 Y279.894 E.03669
G1 X296.84 Y280.093 E.05127
G1 X298.175 Y280.654 E.05229
G1 X299.348 Y281.566 E.05366
G1 X300.224 Y282.732 E.05264
G1 X300.758 Y284.05 E.05134
