; HEADER_BLOCK_START
; generated by OrcaSlicer 1.9.1 on 2024-03-01 at 08:51:55
; total layer number: 95
; filament_density: 1.24,1.27,1.27
; filament_diameter: 1.75,1.75,1.75
; max_z_height: 19.00
; HEADER_BLOCK_END

; THUMBNAIL_BLOCK_START

;
; THUMBNAIL_BLOCK_END

; external perimeters extrusion width = 0.40mm
; perimeters extrusion width = 0.40mm
; infill extrusion width = 0.45mm
; solid infill extrusion width = 0.40mm
; top infill extrusion width = 0.40mm
; support material extrusion width = 0.40mm
; first layer extrusion width = 0.50mm

; EXECUTABLE_BLOCK_START
EXCLUDE_OBJECT_DEFINE NAME=Part_Studio_1_-_Front_Support.stl_id_0_copy_0 CENTER=174.995,175.058 POLYGON=[[19.7642,316.03],[30.6188,299.105],[309.155,40.0268],[326.821,30.4241],[330.226,34.0852],[325.436,57.5309],[46.9001,316.609],[23.1695,319.691],[19.7642,316.03]]
M73 P0 R79
M106 S0
M106 P2 S0
;TYPE:Custom
M104 S0 ; Stops OrcaSlicer from sending temp waits separately
M140 S0
print_start EXTRUDER=230 BED=70 CHAMBER=35
G90
G21
M83 ; use relative distances for extrusion
T1
M104 S230 ; set nozzle temperature
; filament start gcode
SET_GCODE_OFFSET Z_ADJUST=+0.015 MOVE=1
SET_PRESSURE_ADVANCE ADVANCE=0.035; Override pressure advance value
M106 S0
M106 P2 S0
;LAYER_CHANGE
;Z:0.2
;HEIGHT:0.2
;BEFORE_LAYER_CHANGE
;0.2
G92 E0

G1 E-.4 F1800
;AFTER_LAYER_CHANGE
;0.2
;_SET_FAN_SPEED_CHANGING_LAYER
SET_VELOCITY_LIMIT ACCEL=500 ACCEL_TO_DECEL=250
SET_VELOCITY_LIMIT SQUARE_CORNER_VELOCITY=9
; printing object Part Studio 1 - Front Support.stl id:0 copy 0
EXCLUDE_OBJECT_START NAME=Part_Studio_1_-_Front_Support.stl_id_0_copy_0
G1 Z.4 F21000
G1 X320.05 Y51.303
G1 Z.4
G1 Z.2
G1 E.4 F1800
;TYPE:Brim
;WIDTH:0.5
G1 F3000
G1 X321.275 Y50.363 E.05577
G1 X323.29 Y49.529 E.07874
G1 X325.452 Y49.244 E.07874
G1 X327.615 Y49.529 E.07874
G1 X329.629 Y50.363 E.07874
G1 X331.36 Y51.691 E.07874
G1 X332.687 Y53.421 E.07874
G1 X333.522 Y55.436 E.07874
G1 X333.806 Y57.598 E.07874
G1 X333.522 Y59.76 E.07874
G1 X332.687 Y61.775 E.07874
G1 X331.36 Y63.505 E.07874
G1 X329.629 Y64.833 E.07874
G1 X327.615 Y65.667 E.07874
G1 X325.452 Y65.952 E.07874
G1 X323.29 Y65.667 E.07874
G1 X321.275 Y64.833 E.07874
G1 X319.545 Y63.505 E.07874
G1 X319.5 Y63.446 E.00267
G1 X325.608 Y57.765 E.30118
G1 X325.677 Y57.668 E.00429
G1 X325.703 Y57.495 E.00631
G1 X325.679 Y57.401 E.0035
G1 X325.625 Y57.301 E.00413
G1 X320.077 Y51.333 E.29421
G1 X320.793 Y51.362 F21000
G1 F3000
G1 X320.846 Y51.268 E.00388
G1 X321.523 Y50.755 E.03065
G1 X323.427 Y49.971 E.07437
G1 X325.434 Y49.707 E.07309
G1 X327.477 Y49.971 E.07437
G1 X329.413 Y50.773 E.07565
G1 X331.019 Y52.006 E.07309
G1 X332.277 Y53.637 E.07437
G1 X333.079 Y55.573 E.07565
G1 X333.343 Y57.58 E.07309
G1 X333.079 Y59.623 E.07437
G1 X332.277 Y61.559 E.07565
G1 X331.045 Y63.165 E.07309
G1 X329.413 Y64.422 E.07437
G1 X327.477 Y65.224 E.07565
G1 X325.47 Y65.488 E.07309
G1 X323.427 Y65.224 E.07437
G1 X321.523 Y64.44 E.07437
G1 X320.322 Y63.525 E.05452
G1 X320.268 Y63.424 E.00413
G1 X320.312 Y63.316 E.00421
G1 X325.912 Y58.107 E.27613
G1 X326.042 Y57.942 E.00757
G1 X326.131 Y57.72 E.00865
G1 X326.153 Y57.577 E.00525
G1 X326.143 Y57.377 E.0072
G1 X326.077 Y57.178 E.00759
G1 X325.951 Y56.981 E.00845
G1 X320.829 Y51.471 E.27162
G1 X320.806 Y51.4 E.00269
G1 X321.472 Y51.421 F21000
G1 F3000
G1 X321.526 Y51.327 E.0039
G1 X321.768 Y51.149 E.01086
G1 X323.564 Y50.415 E.07006
G1 X325.453 Y50.17 E.06876
G1 X327.34 Y50.415 E.06872
G1 X329.197 Y51.184 E.07255
G1 X330.705 Y52.346 E.06874
G1 X331.867 Y53.854 E.06872
G1 X332.636 Y55.71 E.07255
G1 X332.88 Y57.598 E.06874
G1 X332.636 Y59.486 E.06872
G1 X331.867 Y61.342 E.07255
G1 X330.704 Y62.85 E.06874
G1 X329.197 Y64.012 E.06872
G1 X327.34 Y64.781 E.07255
G1 X325.452 Y65.025 E.06874
G1 X323.564 Y64.781 E.06875
G1 X321.738 Y64.029 E.07129
G1 X321.031 Y63.49 E.03211
G1 X320.977 Y63.389 E.00413
G1 X321.02 Y63.281 E.00422
G1 X326.216 Y58.448 E.25622
G1 X326.395 Y58.232 E.01011
G1 X326.469 Y58.104 E.00534
G1 X326.55 Y57.902 E.00785
G1 X326.603 Y57.651 E.00925
G1 X326.6 Y57.368 E.01023
G1 X326.512 Y57.038 E.01232
G1 X326.459 Y56.927 E.00447
G1 X326.279 Y56.662 E.01156
G1 X321.508 Y51.529 E.253
G1 X321.485 Y51.459 E.00269
G1 X322.207 Y51.54 F21000
G1 F3000
G1 X322.292 Y51.428 E.00505
G1 X323.665 Y50.867 E.05358
G1 X325.47 Y50.634 E.06572
G1 X327.238 Y50.867 E.06439
G1 X328.949 Y51.576 E.06685
G1 X330.389 Y52.686 E.06567
G1 X331.475 Y54.101 E.06439
G1 X332.183 Y55.812 E.06685
G1 X332.417 Y57.616 E.06567
G1 X332.183 Y59.384 E.06439
G1 X331.475 Y61.095 E.06685
G1 X330.364 Y62.535 E.06567
G1 X328.949 Y63.62 E.06439
G1 X327.238 Y64.329 E.06685
G1 X325.434 Y64.562 E.06567
G1 X323.665 Y64.328 E.06443
G1 X321.984 Y63.636 E.06565
G1 X321.739 Y63.456 E.01099
G1 X321.685 Y63.355 E.00413
G1 X321.729 Y63.246 E.00422
G1 X326.573 Y58.733 E.23905
G1 X326.794 Y58.454 E.01286
G1 X326.971 Y58.083 E.01485
G1 X327.048 Y57.756 E.01214
G1 X327.057 Y57.369 E.01395
G1 X327.039 Y57.243 E.00459
G1 X326.92 Y56.834 E.01539
G1 X326.833 Y56.664 E.00691
G1 X326.607 Y56.344 E.01415
G1 X322.243 Y51.649 E.23144
G1 X322.22 Y51.578 E.00269
G1 X322.992 Y51.713 F21000
G1 F3000
G1 X323.076 Y51.601 E.00505
G1 X323.801 Y51.31 E.02818
G1 X325.487 Y51.097 E.06139
G1 X327.136 Y51.319 E.06005
G1 X328.701 Y51.968 E.06119
G1 X330.074 Y53.026 E.06258
G1 X331.082 Y54.349 E.06005
G1 X331.731 Y55.914 E.06119
G1 X331.953 Y57.633 E.06258
G1 X331.731 Y59.281 E.06005
G1 X331.082 Y60.847 E.06118
G1 X330.024 Y62.219 E.06258
G1 X328.702 Y63.228 E.06005
G1 X327.136 Y63.876 E.06119
G1 X325.417 Y64.099 E.06258
G1 X323.768 Y63.876 E.0601
G1 X322.547 Y63.374 E.04765
G1 X322.469 Y63.29 E.00413
G1 X322.506 Y63.147 E.00534
G1 X326.936 Y59.011 E.21884
M73 P0 R78
G1 X327.212 Y58.64 E.0167
G1 X327.418 Y58.177 E.01828
G1 X327.505 Y57.755 E.01557
G1 X327.508 Y57.3 E.01643
G1 X327.476 Y57.109 E.00696
G1 X327.322 Y56.615 E.01869
G1 X327.202 Y56.395 E.00904
G1 X326.936 Y56.026 E.01642
G1 X323.028 Y51.822 E.20727
G1 X323.005 Y51.751 E.00269
G1 X323.78 Y51.889 F21000
G1 F3000
G1 X323.839 Y51.791 E.00413
G1 X323.898 Y51.768 E.00228
G1 X325.503 Y51.56 E.05845
G1 X327.032 Y51.771 E.05572
G1 X328.453 Y52.36 E.05555
G1 X329.758 Y53.365 E.05947
G1 X330.69 Y54.595 E.05569
G1 X331.278 Y56.016 E.05555
G1 X331.49 Y57.65 E.05947
G1 X331.279 Y59.178 E.05569
G1 X330.69 Y60.599 E.05555
G1 X329.685 Y61.904 E.05947
G1 X328.455 Y62.835 E.05569
G1 X327.034 Y63.424 E.05555
G1 X325.401 Y63.635 E.05947
G1 X323.871 Y63.425 E.05576
G1 X323.379 Y63.222 E.01918
G1 X323.301 Y63.139 E.00413
G1 X323.338 Y62.995 E.00534
G1 X327.24 Y59.353 E.19273
G1 X327.632 Y58.82 E.02389
G1 X327.867 Y58.258 E.022
G1 X327.962 Y57.746 E.01879
G1 X327.965 Y57.314 E.01559
G1 X327.909 Y56.963 E.01283
G1 X327.761 Y56.489 E.01793
G1 X327.607 Y56.183 E.01239
G1 X327.312 Y55.765 E.01847
G1 X323.815 Y51.998 E.18558
G1 X323.792 Y51.927 E.00269
G1 X324.718 Y52.228 F21000
G1 F3000
G1 X324.777 Y52.13 E.00413
G1 X324.837 Y52.108 E.0023
G1 X325.52 Y52.024 E.02484
G1 X326.894 Y52.214 E.0501
G1 X328.206 Y52.752 E.05119
G1 X329.442 Y53.705 E.05635
G1 X330.279 Y54.81 E.05007
G1 X330.826 Y56.118 E.05119
G1 X331.026 Y57.666 E.05635
G1 X330.837 Y59.04 E.05007
G1 X330.298 Y60.351 E.05119
G1 X329.345 Y61.587 E.05635
G1 X328.24 Y62.425 E.05007
G1 X326.932 Y62.971 E.05119
G1 X325.384 Y63.172 E.05635
G1 X324.306 Y63.023 E.03931
G1 X324.209 Y62.962 E.00413
G1 X324.193 Y62.848 E.00413
G1 X324.231 Y62.787 E.0026
G1 X327.543 Y59.695 E.16361
G1 X327.996 Y59.096 E.02709
G1 X328.056 Y58.99 E.00441
G1 X328.319 Y58.329 E.0257
G1 X328.419 Y57.739 E.02158
G1 X328.415 Y57.234 E.01826
G1 X328.343 Y56.818 E.01523
G1 X328.2 Y56.362 E.01724
G1 X328.019 Y55.985 E.0151
G1 X327.64 Y55.448 E.02375
G1 X324.754 Y52.337 E.15322
G1 X324.731 Y52.266 E.00269
G1 E-.28 F1800
;WIPE_START
G1 F3000
G1 X324.777 Y52.13 E-.01725
G1 X324.837 Y52.108 E-.00764
G1 X325.52 Y52.024 E-.08256
G1 X325.623 Y52.038 E-.01255
;WIPE_END
G1 Z.6 F21000
G1 X325.74 Y52.658 Z.6
G1 Z.2
G1 E.4 F1800
G1 F3000
G1 X325.799 Y52.56 E.00413
G1 X325.895 Y52.537 E.00356
G1 X326.757 Y52.656 E.03141
G1 X327.99 Y53.163 E.04813
G1 X329.1 Y54.018 E.0506
G1 X329.869 Y55.026 E.04578
G1 X330.383 Y56.256 E.04813
G1 X330.563 Y57.646 E.0506
G1 X330.394 Y58.902 E.04578
G1 X329.887 Y60.135 E.04813
G1 X329.032 Y61.245 E.0506
G1 X328.024 Y62.015 E.04578
G1 X326.793 Y62.528 E.04817
G1 X325.355 Y62.702 E.05229
G1 X325.246 Y62.667 E.00413
G1 X325.202 Y62.561 E.00413
G1 X325.245 Y62.466 E.0038
G1 X327.915 Y59.961 E.13217
G1 X328.355 Y59.379 E.02634
G1 X328.484 Y59.15 E.0095
G1 X328.739 Y58.51 E.02488
G1 X328.868 Y57.825 E.02515
G1 X328.872 Y57.239 E.02117
G1 X328.795 Y56.748 E.01795
G1 X328.608 Y56.156 E.0224
G1 X328.387 Y55.714 E.01785
G1 X327.969 Y55.13 E.02592
G1 X325.776 Y52.766 E.11645
G1 X325.752 Y52.696 E.00269
G1 E-.28 F1800
;WIPE_START
G1 F3000
G1 X325.799 Y52.56 E-.01725
G1 X325.895 Y52.537 E-.01182
G1 X326.646 Y52.641 E-.09094
;WIPE_END
G1 Z.6 F21000
G1 X327.143 Y53.497 Z.6
G1 Z.2
G1 E.4 F1800
G1 F3000
G1 X327.203 Y53.4 E.00413
G1 X327.331 Y53.386 E.00468
G1 X327.742 Y53.555 E.01604
G1 X328.759 Y54.332 E.0462
G1 X329.477 Y55.273 E.04272
G1 X329.94 Y56.394 E.04379
G1 X330.099 Y57.663 E.04617
G1 X329.942 Y58.8 E.04144
G1 X329.495 Y59.888 E.04248
G1 X328.718 Y60.904 E.0462
G1 X327.777 Y61.622 E.04272
G1 X326.737 Y62.056 E.04069
G1 X326.623 Y62.052 E.00413
G1 X326.552 Y61.963 E.00413
G1 X326.591 Y61.83 E.00502
G1 X328.219 Y60.302 E.08063
G1 X328.714 Y59.662 E.02921
G1 X328.912 Y59.31 E.01456
G1 X329.159 Y58.69 E.02411
G1 X329.315 Y57.921 E.02833
G1 X329.322 Y57.158 E.02757
G1 X329.228 Y56.602 E.02033
G1 X329.013 Y55.943 E.02503
G1 X328.753 Y55.44 E.02044
G1 X328.346 Y54.871 E.02525
G1 X327.179 Y53.606 E.06216
G1 X327.156 Y53.535 E.00269
G1 E-.28 F1800
;WIPE_START
G1 F3000
G1 X327.203 Y53.4 E-.01725
G1 X327.331 Y53.386 E-.01556
G1 X327.742 Y53.555 E-.05331
G1 X327.967 Y53.727 E-.03388
;WIPE_END
G1 Z.6 F21000
G1 X315.908 Y44.905 Z.6
G1 Z.2
G1 E.4 F1800
G1 F3000
G1 X315.134 Y45.914 E.04592
G1 X315.078 Y45.957 E.00255
G1 X309.394 Y39.851 E.30119
G1 X309.297 Y39.782 E.00429
G1 X309.124 Y39.756 E.00632
G1 X309.03 Y39.78 E.0035
G1 X308.93 Y39.834 E.00413
G1 X302.934 Y45.411 E.29566
G1 X301.992 Y44.184 E.05587
G1 X301.157 Y42.169 E.07874
G1 X300.873 Y40.007 E.07874
G1 X301.157 Y37.845 E.07874
G1 X301.992 Y35.83 E.07874
G1 X303.32 Y34.1 E.07874
G1 X305.05 Y32.772 E.07874
G1 X307.065 Y31.937 E.07874
G1 X309.227 Y31.653 E.07874
G1 X311.389 Y31.937 E.07874
G1 X313.404 Y32.772 E.07874
G1 X315.134 Y34.1 E.07874
G1 X316.461 Y35.83 E.07874
G1 X317.296 Y37.845 E.07874
G1 X317.581 Y40.007 E.07874
G1 X317.296 Y42.169 E.07874
G1 X316.461 Y44.184 E.07874
G1 X315.932 Y44.873 E.03138
G1 X315.57 Y44.595 F21000
G1 F3000
G1 X315.155 Y45.135 E.02457
G1 X315.054 Y45.188 E.00413
G1 X314.946 Y45.145 E.0042
G1 X309.736 Y39.547 E.27612
G1 X309.571 Y39.417 E.00757
G1 X309.349 Y39.328 E.00865
G1 X309.205 Y39.306 E.00525
G1 X309.006 Y39.316 E.0072
G1 X308.807 Y39.382 E.00759
G1 X308.609 Y39.508 E.00845
G1 X303.101 Y44.632 E.27162
G1 X302.992 Y44.667 E.00413
G1 X302.899 Y44.615 E.00388
G1 X302.384 Y43.937 E.03073
G1 X301.61 Y42.066 E.07309
G1 X301.336 Y40.025 E.07437
G1 X301.6 Y37.982 E.07437
G1 X302.402 Y36.046 E.07565
G1 X303.66 Y34.415 E.07437
G1 X305.297 Y33.164 E.07437
G1 X307.202 Y32.38 E.07437
G1 X309.209 Y32.116 E.07309
G1 X311.252 Y32.38 E.07437
G1 X313.187 Y33.182 E.07565
G1 X314.819 Y34.44 E.07437
G1 X316.069 Y36.077 E.07437
G1 X316.853 Y37.982 E.07437
G1 X317.117 Y40.025 E.07437
G1 X316.844 Y42.066 E.07437
G1 X316.051 Y43.968 E.07437
G1 X315.594 Y44.563 E.02711
G1 X315.232 Y44.285 F21000
G1 F3000
G1 X315.122 Y44.428 E.00651
G1 X315.021 Y44.481 E.00413
G1 X314.913 Y44.438 E.0042
G1 X310.076 Y39.242 E.25629
G1 X309.861 Y39.064 E.01011
G1 X309.735 Y38.991 E.00523
G1 X309.407 Y38.875 E.01258
G1 X309.177 Y38.851 E.00833
G1 X308.848 Y38.887 E.01196
G1 X308.671 Y38.946 E.00676
G1 X308.555 Y39.001 E.00461
G1 X308.29 Y39.181 E.01156
G1 X303.16 Y43.953 E.253
G1 X303.051 Y43.989 E.00413
G1 X302.957 Y43.935 E.0039
G1 X302.777 Y43.691 E.01095
G1 X302.062 Y41.963 E.06753
G1 X301.799 Y40.041 E.07002
G1 X302.053 Y38.084 E.07127
G1 X302.812 Y36.263 E.07125
G1 X303.999 Y34.73 E.06998
G1 X305.543 Y33.557 E.07001
G1 X307.338 Y32.823 E.07002
G1 X309.227 Y32.579 E.06876
G1 X311.115 Y32.824 E.06872
G1 X312.971 Y33.592 E.07254
G1 X314.503 Y34.779 E.06998
G1 X315.676 Y36.323 E.07001
G1 X316.41 Y38.118 E.07001
G1 X316.654 Y40.041 E.07001
G1 X316.392 Y41.963 E.07001
G1 X315.641 Y43.751 E.07002
G1 X315.256 Y44.253 E.02286
G1 X314.999 Y43.768 F21000
G1 F3000
G1 X314.987 Y43.774 E.00051
G1 X314.879 Y43.731 E.0042
G1 X310.362 Y38.886 E.23918
G1 X310.083 Y38.665 E.01282
G1 X309.878 Y38.557 E.00838
G1 X309.571 Y38.448 E.01175
G1 X309.235 Y38.398 E.01229
G1 X308.808 Y38.432 E.01545
G1 X308.532 Y38.51 E.01035
G1 X308.291 Y38.628 E.00969
G1 X307.972 Y38.852 E.01409
G1 X303.277 Y43.219 E.23152
G1 X303.168 Y43.255 E.00413
G1 X303.057 Y43.172 E.00503
G1 X302.504 Y41.825 E.05255
G1 X302.263 Y40.022 E.06569
G1 X302.505 Y38.186 E.06685
G1 X303.222 Y36.48 E.06682
G1 X304.338 Y35.047 E.06559
G1 X305.789 Y33.951 E.06564
G1 X307.474 Y33.267 E.06567
G1 X309.245 Y33.043 E.06445
G1 X311.013 Y33.276 E.06439
G1 X312.754 Y34.002 E.06812
G1 X314.186 Y35.118 E.06556
G1 X315.283 Y36.569 E.06564
G1 X315.966 Y38.253 E.06564
G1 X316.19 Y40.057 E.06564
G1 X315.94 Y41.858 E.06564
G1 X315.25 Y43.503 E.06442
G1 X315.088 Y43.721 E.00979
G1 X315.035 Y43.749 E.00218
G1 X314.919 Y42.987 F21000
G1 F3000
G1 X314.776 Y42.95 E.00531
G1 X310.639 Y38.522 E.21882
G1 X310.288 Y38.257 E.01588
G1 X310.024 Y38.124 E.01067
G1 X309.628 Y37.995 E.01503
G1 X309.316 Y37.948 E.01138
G1 X308.782 Y37.976 E.01933
G1 X308.415 Y38.069 E.01367
G1 X308.099 Y38.213 E.01255
G1 X307.716 Y38.474 E.01673
G1 X303.449 Y42.435 E.21022
G1 X303.34 Y42.471 E.00413
G1 X303.229 Y42.387 E.00504
G1 X302.947 Y41.689 E.02719
G1 X302.726 Y40.003 E.06136
G1 X302.958 Y38.29 E.06243
G1 X303.631 Y36.699 E.06239
G1 X304.676 Y35.364 E.0612
G1 X306.033 Y34.345 E.06127
G1 X307.608 Y33.71 E.06131
G1 X309.261 Y33.506 E.06013
G1 X310.91 Y33.728 E.06006
G1 X312.536 Y34.412 E.0637
G1 X313.869 Y35.456 E.06114
G1 X314.871 Y36.782 E.05999
G1 X315.513 Y38.353 E.06127
G1 X315.727 Y40.036 E.06127
G1 X315.498 Y41.718 E.0613
G1 X315.003 Y42.91 E.04659
G1 X314.948 Y42.96 E.00269
G1 X314.769 Y42.157 F21000
G1 F3000
G1 X314.626 Y42.12 E.00532
G1 X310.906 Y38.151 E.19641
G1 X310.484 Y37.844 E.01886
G1 X310.158 Y37.687 E.01306
G1 X309.688 Y37.542 E.01777
G1 X309.281 Y37.492 E.01479
G1 X308.77 Y37.518 E.01847
G1 X308.311 Y37.624 E.01699
G1 X307.918 Y37.794 E.01549
G1 X307.466 Y38.091 E.01951
G1 X303.624 Y41.649 E.18907
G1 X303.516 Y41.684 E.00413
G1 X303.418 Y41.625 E.00413
G1 X303.395 Y41.566 E.00228
G1 X303.19 Y39.986 E.05753
G1 X303.409 Y38.395 E.05801
G1 X304.04 Y36.918 E.05795
G1 X305.013 Y35.683 E.0568
G1 X306.276 Y34.74 E.05691
G1 X307.741 Y34.155 E.05696
G1 X309.276 Y33.969 E.05582
G1 X310.805 Y34.18 E.05573
G1 X312.285 Y34.803 E.05798
G1 X313.526 Y35.768 E.05678
G1 X314.46 Y36.996 E.05567
G1 X315.061 Y38.453 E.05692
G1 X315.264 Y40.016 E.0569
G1 X315.056 Y41.58 E.05697
G1 X314.853 Y42.079 E.01945
G1 X314.798 Y42.13 E.00269
G1 X314.59 Y41.248 F21000
G1 F3000
G1 X314.477 Y41.265 E.00413
G1 X314.416 Y41.227 E.00261
G1 X311.165 Y37.775 E.17122
G1 X310.762 Y37.481 E.018
G1 X310.363 Y37.279 E.01616
G1 X309.832 Y37.108 E.02013
G1 X309.346 Y37.04 E.01772
G1 X308.757 Y37.062 E.0213
G1 X308.219 Y37.176 E.01984
G1 X307.746 Y37.37 E.01847
G1 X307.223 Y37.704 E.02237
G1 X303.963 Y40.712 E.16017
G1 X303.854 Y40.747 E.00413
G1 X303.757 Y40.688 E.00413
G1 X303.734 Y40.629 E.00228
G1 X303.654 Y39.97 E.02397
G1 X303.861 Y38.501 E.05356
G1 X304.429 Y37.17 E.05223
G1 X305.324 Y36.027 E.05242
G1 X306.518 Y35.135 E.05382
G1 X307.873 Y34.599 E.05261
G1 X309.29 Y34.432 E.0515
G1 X310.7 Y34.632 E.05142
G1 X312.036 Y35.193 E.05232
G1 X313.209 Y36.107 E.0537
G1 X314.067 Y37.241 E.05135
G1 X314.608 Y38.555 E.0513
G1 X314.8 Y40.033 E.05382
G1 X314.652 Y41.151 E.04073
G1 X314.612 Y41.214 E.00269
G1 E-.28 F1800
