; HEADER_BLOCK_START
; generated by OrcaSlicer 1.9.0 on 2024-02-03 at 19:34:30
; total layer number: 1
; filament_density: 1.24,1.27,1.27
; filament_diameter: 1.75,1.75,1.75
; max_z_height: 0.20
; HEADER_BLOCK_END

; THUMBNAIL_BLOCK_START

;
; THUMBNAIL_BLOCK_END

; external perimeters extrusion width = 0.40mm
; perimeters extrusion width = 0.40mm
; infill extrusion width = 0.45mm
; solid infill extrusion width = 0.40mm
; top infill extrusion width = 0.40mm
; first layer extrusion width = 0.50mm

; EXECUTABLE_BLOCK_START
EXCLUDE_OBJECT_DEFINE NAME=Shapes_-_Circle.stl_id_0_copy_0 CENTER=175,175 POLYGON=[[125,175],[125.048,172.819],[125.19,170.642],[125.428,168.474],[125.76,166.318],[126.185,164.178],[126.704,162.059],[127.314,159.965],[128.015,157.899],[128.806,155.866],[129.685,153.869],[130.649,151.913],[131.699,150],[132.83,148.135],[134.042,146.321],[135.332,144.562],[136.698,142.861],[138.136,141.22],[139.645,139.645],[141.22,138.136],[142.861,136.698],[144.562,135.332],[146.321,134.042],[148.135,132.83],[150,131.699],[151.913,130.649],[153.869,129.685],[155.866,128.806],[157.899,128.015],[159.965,127.314],[162.059,126.704],[164.178,126.185],[166.318,125.76],[168.474,125.428],[170.642,125.19],[172.819,125.048],[175,125],[177.181,125.048],[179.358,125.19],[181.526,125.428],[183.682,125.76],[185.822,126.185],[187.941,126.704],[190.035,127.314],[192.101,128.015],[194.134,128.806],[196.131,129.685],[198.087,130.649],[200,131.699],[201.865,132.83],[203.679,134.042],[205.438,135.332],[207.139,136.698],[208.78,138.136],[210.355,139.645],[211.864,141.22],[213.302,142.861],[214.668,144.562],[215.958,146.321],[217.17,148.135],[218.301,150],[219.351,151.913],[220.315,153.869],[221.194,155.866],[221.985,157.899],[222.686,159.965],[223.296,162.059],[223.815,164.178],[224.24,166.318],[224.572,168.474],[224.81,170.642],[224.952,172.819],[225,175],[224.952,177.181],[224.81,179.358],[224.572,181.526],[224.24,183.682],[223.815,185.822],[223.296,187.941],[222.686,190.035],[221.985,192.101],[221.194,194.134],[220.315,196.131],[219.351,198.087],[218.301,200],[217.17,201.865],[215.958,203.679],[214.668,205.438],[213.302,207.139],[211.864,208.78],[210.355,210.355],[208.78,211.864],[207.139,213.302],[205.438,214.668],[203.679,215.958],[201.865,217.17],[200,218.301],[198.087,219.351],[196.131,220.315],[194.134,221.194],[192.101,221.985],[190.035,222.686],[187.941,223.296],[185.822,223.815],[183.682,224.24],[181.526,224.572],[179.358,224.81],[177.181,224.952],[175,225],[172.819,224.952],[170.642,224.81],[168.474,224.572],[166.318,224.24],[164.178,223.815],[162.059,223.296],[159.965,222.686],[157.899,221.985],[155.866,221.194],[153.869,220.315],[151.913,219.351],[150,218.301],[148.135,217.17],[146.321,215.958],[144.562,214.668],[142.861,213.302],[141.22,211.864],[139.645,210.355],[138.136,208.78],[136.698,207.139],[135.332,205.438],[134.042,203.679],[132.83,201.865],[131.699,200],[130.649,198.087],[129.685,196.131],[128.806,194.134],[128.015,192.101],[127.314,190.035],[126.704,187.941],[126.185,185.822],[125.76,183.682],[125.428,181.526],[125.19,179.358],[125.048,177.181],[125,175]]
M73 P0 R3
M106 S0
M106 P2 S0
;TYPE:Custom
M104 S0 ; Stops OrcaSlicer from sending temp waits separately
M140 S0
print_start EXTRUDER=230 BED=70 CHAMBER=0
G90
G21
M83 ; use relative distances for extrusion
T1
M104 S230 ; set nozzle temperature
; filament start gcode
SET_GCODE_OFFSET Z_ADJUST=+0.015 MOVE=1
SET_PRESSURE_ADVANCE ADVANCE=0.035; Override pressure advance value
M106 S0
M106 P2 S0
;LAYER_CHANGE
;Z:0.2
;HEIGHT:0.2
;BEFORE_LAYER_CHANGE
;0.2
G92 E0

G1 E-.4 F1800
;AFTER_LAYER_CHANGE
;0.2
;_SET_FAN_SPEED_CHANGING_LAYER
SET_VELOCITY_LIMIT ACCEL=500 ACCEL_TO_DECEL=250
SET_VELOCITY_LIMIT SQUARE_CORNER_VELOCITY=9
; printing object Shapes - Circle.stl id:0 copy 0
EXCLUDE_OBJECT_START NAME=Shapes_-_Circle.stl_id_0_copy_0
G1 Z.4 F21000
G1 X189.685 Y221.575
G1 Z.4
G1 Z.2
G1 E.4 F1800
;TYPE:Inner wall
;WIDTH:0.499999
G1 F3000
G1 X187.64 Y222.172 E.08098
G1 X185.57 Y222.678 E.08098
G1 X183.48 Y223.094 E.08098
G1 X181.374 Y223.418 E.08098
G1 X179.256 Y223.65 E.08098
G1 X177.13 Y223.789 E.08098
G1 X175 Y223.836 E.08098
G1 X172.87 Y223.789 E.08098
G1 X170.744 Y223.65 E.08098
G1 X168.626 Y223.418 E.08098
G1 X166.52 Y223.094 E.08098
G1 X164.43 Y222.678 E.08098
G1 X162.36 Y222.172 E.08098
M73 P1 R3
G1 X160.315 Y221.575 E.08098
G1 X158.297 Y220.89 E.08098
G1 X156.311 Y220.118 E.08098
G1 X154.361 Y219.26 E.08098
G1 X152.45 Y218.318 E.08098
G1 X150.582 Y217.293 E.08098
G1 X148.761 Y216.187 E.08098
G1 X146.989 Y215.004 E.08098
G1 X145.271 Y213.744 E.08098
G1 X143.609 Y212.41 E.08098
G1 X142.007 Y211.005 E.08098
G1 X140.468 Y209.532 E.08098
G1 X138.995 Y207.993 E.08098
G1 X137.59 Y206.391 E.08098
G1 X136.256 Y204.729 E.08098
G1 X134.996 Y203.011 E.08098
G1 X133.813 Y201.239 E.08098
G1 X132.707 Y199.418 E.08098
G1 X131.682 Y197.55 E.08098
G1 X130.74 Y195.639 E.08098
G1 X129.882 Y193.689 E.08098
G1 X129.11 Y191.703 E.08098
G1 X128.425 Y189.685 E.08098
G1 X127.828 Y187.64 E.08098
G1 X127.322 Y185.57 E.08098
G1 X126.906 Y183.48 E.08098
G1 X126.582 Y181.374 E.08098
G1 X126.35 Y179.256 E.08098
G1 X126.211 Y177.13 E.08098
G1 X126.164 Y175 E.08098
G1 X126.211 Y172.87 E.08098
G1 X126.35 Y170.744 E.08098
G1 X126.582 Y168.626 E.08098
G1 X126.906 Y166.52 E.08098
G1 X127.322 Y164.43 E.08098
G1 X127.828 Y162.36 E.08098
G1 X128.425 Y160.315 E.08098
G1 X129.11 Y158.297 E.08098
G1 X129.882 Y156.311 E.08098
G1 X130.74 Y154.361 E.08098
G1 X131.682 Y152.45 E.08098
G1 X132.707 Y150.582 E.08098
G1 X133.813 Y148.761 E.08098
G1 X134.996 Y146.989 E.08098
G1 X136.256 Y145.271 E.08098
G1 X137.59 Y143.609 E.08098
G1 X138.995 Y142.007 E.08098
G1 X140.468 Y140.468 E.08098
G1 X142.007 Y138.995 E.08098
G1 X143.609 Y137.59 E.08098
G1 X145.271 Y136.256 E.08098
G1 X146.989 Y134.996 E.08098
M73 P2 R3
G1 X148.761 Y133.813 E.08098
G1 X150.582 Y132.707 E.08098
G1 X152.45 Y131.682 E.08098
G1 X154.361 Y130.74 E.08098
G1 X156.311 Y129.882 E.08098
G1 X158.297 Y129.11 E.08098
G1 X160.315 Y128.425 E.08098
G1 X162.36 Y127.828 E.08098
G1 X164.43 Y127.322 E.08098
G1 X166.52 Y126.906 E.08098
G1 X168.626 Y126.582 E.08098
G1 X170.744 Y126.35 E.08098
G1 X172.87 Y126.211 E.08098
G1 X175 Y126.164 E.08098
G1 X177.13 Y126.211 E.08098
G1 X179.256 Y126.35 E.08098
G1 X181.374 Y126.582 E.08098
G1 X183.48 Y126.906 E.08098
G1 X185.57 Y127.322 E.08098
G1 X187.64 Y127.828 E.08098
G1 X189.685 Y128.425 E.08098
G1 X191.703 Y129.11 E.08098
G1 X193.689 Y129.882 E.08098
G1 X195.639 Y130.74 E.08098
G1 X197.55 Y131.682 E.08098
G1 X199.418 Y132.707 E.08098
G1 X201.239 Y133.813 E.08098
G1 X203.011 Y134.996 E.08098
G1 X204.729 Y136.256 E.08098
G1 X206.391 Y137.59 E.08098
G1 X207.993 Y138.995 E.08098
G1 X209.532 Y140.468 E.08098
G1 X211.005 Y142.007 E.08098
G1 X212.41 Y143.609 E.08098
G1 X213.744 Y145.271 E.08098
G1 X215.004 Y146.989 E.08098
G1 X216.187 Y148.761 E.08098
G1 X217.293 Y150.582 E.08098
G1 X218.318 Y152.45 E.08098
G1 X219.26 Y154.361 E.08098
G1 X220.118 Y156.311 E.08098
G1 X220.89 Y158.297 E.08098
G1 X221.575 Y160.315 E.08098
G1 X222.172 Y162.36 E.08098
G1 X222.678 Y164.43 E.08098
G1 X223.094 Y166.52 E.08098
G1 X223.418 Y168.626 E.08098
G1 X223.65 Y170.744 E.08098
G1 X223.789 Y172.87 E.08098
G1 X223.836 Y175 E.08098
G1 X223.812 Y176.065 E.04049
G1 X223.789 Y177.13 E.04049
G1 X223.65 Y179.256 E.08098
M73 P3 R3
G1 X223.418 Y181.374 E.08098
G1 X223.094 Y183.48 E.08098
G1 X222.678 Y185.57 E.08098
G1 X222.172 Y187.64 E.08098
G1 X221.575 Y189.685 E.08098
G1 X220.89 Y191.703 E.08098
G1 X220.118 Y193.689 E.08098
G1 X219.26 Y195.639 E.08098
G1 X218.318 Y197.55 E.08098
G1 X217.293 Y199.418 E.08098
G1 X216.187 Y201.239 E.08098
G1 X215.004 Y203.011 E.08098
G1 X213.744 Y204.729 E.08098
G1 X212.41 Y206.391 E.08098
G1 X211.005 Y207.993 E.08098
G1 X209.532 Y209.532 E.08098
G1 X207.993 Y211.005 E.08098
G1 X206.391 Y212.41 E.08098
G1 X204.729 Y213.744 E.08098
G1 X203.011 Y215.004 E.08098
G1 X201.239 Y216.187 E.08098
G1 X199.418 Y217.293 E.08098
G1 X197.55 Y218.318 E.08098
G1 X195.639 Y219.26 E.08098
G1 X193.689 Y220.118 E.08098
G1 X191.703 Y220.89 E.08098
G1 X189.723 Y221.562 E.07946
G1 X189.823 Y222.011 F21000
G1 F3000
G1 X187.758 Y222.613 E.08174
G1 X185.669 Y223.124 E.08174
G1 X183.56 Y223.544 E.08174
G1 X181.434 Y223.871 E.08174
G1 X179.296 Y224.105 E.08174
G1 X177.15 Y224.246 E.08174
G1 X175 Y224.293 E.08174
G1 X172.85 Y224.246 E.08174
G1 X170.704 Y224.105 E.08174
G1 X168.566 Y223.871 E.08174
G1 X166.44 Y223.544 E.08174
G1 X164.331 Y223.124 E.08174
G1 X162.242 Y222.613 E.08174
G1 X160.177 Y222.011 E.08174
G1 X158.141 Y221.32 E.08174
G1 X156.136 Y220.541 E.08173
G1 X154.168 Y219.674 E.08174
G1 X152.239 Y218.723 E.08174
G1 X150.354 Y217.689 E.08174
G1 X148.515 Y216.573 E.08174
G1 X146.727 Y215.378 E.08174
G1 X144.992 Y214.107 E.08174
G1 X143.315 Y212.76 E.08174
M73 P4 R3
G1 X141.698 Y211.342 E.08174
G1 X140.145 Y209.855 E.08174
G1 X138.658 Y208.302 E.08174
G1 X137.24 Y206.685 E.08174
G1 X135.893 Y205.008 E.08174
G1 X134.622 Y203.273 E.08174
G1 X133.427 Y201.485 E.08174
G1 X132.311 Y199.646 E.08174
G1 X131.277 Y197.761 E.08174
G1 X130.326 Y195.832 E.08174
G1 X129.459 Y193.864 E.08174
G1 X128.68 Y191.859 E.08173
G1 X127.989 Y189.823 E.08174
G1 X127.387 Y187.758 E.08174
G1 X126.876 Y185.669 E.08174
G1 X126.456 Y183.56 E.08174
G1 X126.129 Y181.434 E.08174
G1 X125.895 Y179.296 E.08174
G1 X125.754 Y177.15 E.08174
G1 X125.707 Y175 E.08174
G1 X125.754 Y172.85 E.08174
G1 X125.895 Y170.704 E.08174
G1 X126.129 Y168.566 E.08174
G1 X126.456 Y166.44 E.08174
G1 X126.876 Y164.331 E.08174
G1 X127.387 Y162.242 E.08174
G1 X127.989 Y160.177 E.08174
G1 X128.68 Y158.141 E.08174
G1 X129.459 Y156.136 E.08173
G1 X130.326 Y154.168 E.08174
G1 X131.277 Y152.239 E.08174
G1 X132.311 Y150.354 E.08174
G1 X133.427 Y148.515 E.08174
G1 X134.622 Y146.727 E.08174
G1 X135.893 Y144.992 E.08174
G1 X137.24 Y143.315 E.08174
G1 X138.658 Y141.698 E.08174
G1 X140.145 Y140.145 E.08174
G1 X141.698 Y138.658 E.08174
G1 X143.315 Y137.24 E.08174
G1 X144.992 Y135.893 E.08174
G1 X146.727 Y134.622 E.08174
G1 X148.515 Y133.427 E.08174
G1 X150.354 Y132.311 E.08174
G1 X152.239 Y131.277 E.08174
G1 X154.168 Y130.326 E.08174
G1 X156.136 Y129.459 E.08174
G1 X158.141 Y128.68 E.08174
G1 X160.177 Y127.989 E.08174
G1 X162.242 Y127.387 E.08174
G1 X164.331 Y126.876 E.08174
G1 X166.44 Y126.456 E.08174
M73 P5 R3
G1 X168.566 Y126.129 E.08174
G1 X170.704 Y125.895 E.08174
G1 X172.85 Y125.754 E.08174
G1 X175 Y125.707 E.08174
G1 X177.15 Y125.754 E.08174
G1 X179.296 Y125.895 E.08174
G1 X181.434 Y126.129 E.08174
G1 X183.56 Y126.456 E.08174
G1 X185.669 Y126.876 E.08174
G1 X187.758 Y127.387 E.08174
G1 X189.823 Y127.989 E.08174
G1 X191.859 Y128.68 E.08174
G1 X193.864 Y129.459 E.08174
G1 X195.832 Y130.326 E.08174
G1 X197.761 Y131.277 E.08174
G1 X199.646 Y132.311 E.08174
G1 X201.485 Y133.427 E.08174
G1 X203.273 Y134.622 E.08174
G1 X205.008 Y135.893 E.08174
G1 X206.685 Y137.24 E.08174
G1 X208.302 Y138.658 E.08174
G1 X209.855 Y140.145 E.08174
G1 X211.342 Y141.698 E.08174
G1 X212.76 Y143.315 E.08174
G1 X214.107 Y144.992 E.08174
G1 X215.378 Y146.727 E.08174
G1 X216.573 Y148.515 E.08174
G1 X217.689 Y150.354 E.08174
G1 X218.723 Y152.239 E.08174
G1 X219.674 Y154.168 E.08174
G1 X220.541 Y156.136 E.08174
G1 X221.32 Y158.141 E.08173
G1 X222.011 Y160.177 E.08174
G1 X222.613 Y162.242 E.08174
G1 X223.124 Y164.331 E.08174
G1 X223.544 Y166.44 E.08174
G1 X223.871 Y168.566 E.08174
G1 X224.105 Y170.704 E.08174
G1 X224.246 Y172.85 E.08174
G1 X224.293 Y175 E.08174
G1 X224.269 Y176.075 E.04087
G1 X224.246 Y177.15 E.04087
G1 X224.105 Y179.296 E.08174
G1 X223.871 Y181.434 E.08174
G1 X223.544 Y183.56 E.08174
G1 X223.124 Y185.669 E.08174
G1 X222.613 Y187.758 E.08174
G1 X222.011 Y189.823 E.08174
G1 X221.32 Y191.859 E.08174
G1 X220.541 Y193.864 E.08173
G1 X219.674 Y195.832 E.08174
G1 X218.723 Y197.761 E.08174
G1 X217.689 Y199.646 E.08174
M73 P6 R3
G1 X216.573 Y201.485 E.08174
G1 X215.378 Y203.273 E.08174
G1 X214.107 Y205.008 E.08174
G1 X212.76 Y206.685 E.08174
G1 X211.342 Y208.302 E.08174
G1 X209.855 Y209.855 E.08174
G1 X208.302 Y211.342 E.08174
G1 X206.685 Y212.76 E.08174
G1 X205.008 Y214.107 E.08174
G1 X203.273 Y215.378 E.08174
G1 X201.485 Y216.573 E.08174
G1 X199.646 Y217.689 E.08174
G1 X197.761 Y218.723 E.08174
G1 X195.832 Y219.674 E.08174
G1 X193.864 Y220.541 E.08174
G1 X191.859 Y221.32 E.08173
G1 X189.86 Y221.998 E.08022
G1 X189.96 Y222.447 F21000
;TYPE:Outer wall
G1 F3000
G1 X187.876 Y223.055 E.08249
G1 X185.768 Y223.571 E.0825
G1 X183.639 Y223.994 E.08249
G1 X181.494 Y224.324 E.0825
G1 X179.336 Y224.561 E.0825
G1 X177.17 Y224.703 E.0825
G1 X175 Y224.75 E.08249
G1 X172.83 Y224.703 E.08249
G1 X170.664 Y224.561 E.0825
G1 X168.506 Y224.324 E.0825
G1 X166.361 Y223.994 E.0825
G1 X164.232 Y223.571 E.08249
G1 X162.124 Y223.055 E.0825
G1 X160.04 Y222.447 E.08249
G1 X157.984 Y221.75 E.0825
G1 X155.962 Y220.963 E.08249
G1 X153.975 Y220.089 E.0825
G1 X152.028 Y219.129 E.0825
G1 X150.125 Y218.085 E.08249
G1 X148.269 Y216.959 E.0825
G1 X146.465 Y215.753 E.0825
G1 X144.714 Y214.469 E.0825
G1 X143.021 Y213.111 E.0825
G1 X141.389 Y211.68 E.0825
G1 X139.821 Y210.179 E.0825
G1 X138.32 Y208.611 E.0825
G1 X136.889 Y206.979 E.0825
G1 X135.531 Y205.286 E.0825
G1 X134.247 Y203.535 E.0825
G1 X133.041 Y201.731 E.0825
G1 X131.915 Y199.875 E.0825
G1 X130.871 Y197.972 E.0825
M73 P7 R3
G1 X129.911 Y196.025 E.0825
G1 X129.037 Y194.038 E.0825
G1 X128.25 Y192.016 E.08249
G1 X127.553 Y189.96 E.0825
G1 X126.945 Y187.876 E.08249
G1 X126.429 Y185.768 E.0825
G1 X126.006 Y183.639 E.08249
G1 X125.676 Y181.494 E.0825
G1 X125.439 Y179.336 E.0825
G1 X125.297 Y177.17 E.0825
G1 X125.25 Y175 E.08249
G1 X125.297 Y172.83 E.08249
G1 X125.439 Y170.664 E.0825
G1 X125.676 Y168.506 E.0825
G1 X126.006 Y166.361 E.0825
G1 X126.429 Y164.232 E.08249
G1 X126.945 Y162.124 E.0825
G1 X127.553 Y160.04 E.08249
G1 X128.25 Y157.984 E.0825
G1 X129.037 Y155.962 E.08249
G1 X129.911 Y153.975 E.0825
G1 X130.871 Y152.028 E.0825
G1 X131.915 Y150.125 E.0825
G1 X133.041 Y148.269 E.0825
G1 X134.247 Y146.465 E.0825
G1 X135.531 Y144.714 E.0825
G1 X136.889 Y143.021 E.0825
G1 X138.32 Y141.389 E.0825
G1 X139.821 Y139.821 E.0825
G1 X141.389 Y138.32 E.0825
G1 X143.021 Y136.889 E.0825
G1 X144.714 Y135.531 E.08249
G1 X146.465 Y134.247 E.0825
G1 X148.269 Y133.041 E.0825
G1 X150.125 Y131.915 E.0825
G1 X152.028 Y130.871 E.08249
G1 X153.975 Y129.911 E.0825
G1 X155.962 Y129.037 E.08249
G1 X157.984 Y128.25 E.08249
G1 X160.04 Y127.553 E.0825
G1 X162.124 Y126.945 E.08249
G1 X164.232 Y126.429 E.0825
G1 X166.361 Y126.006 E.08249
G1 X168.506 Y125.676 E.0825
G1 X170.664 Y125.439 E.0825
G1 X172.83 Y125.297 E.0825
G1 X175 Y125.25 E.0825
G1 X177.17 Y125.297 E.0825
G1 X179.336 Y125.439 E.0825
G1 X181.494 Y125.676 E.0825
G1 X183.639 Y126.006 E.0825
M73 P8 R3
G1 X185.768 Y126.429 E.08249
G1 X187.876 Y126.945 E.0825
G1 X189.96 Y127.553 E.08249
G1 X192.016 Y128.25 E.0825
G1 X194.038 Y129.037 E.08249
G1 X196.025 Y129.911 E.08249
G1 X197.972 Y130.871 E.0825
G1 X199.875 Y131.915 E.08249
G1 X201.731 Y133.041 E.0825
G1 X203.535 Y134.247 E.0825
G1 X205.286 Y135.531 E.0825
G1 X206.979 Y136.889 E.08249
G1 X208.611 Y138.32 E.0825
G1 X210.179 Y139.821 E.0825
G1 X211.68 Y141.389 E.0825
G1 X213.111 Y143.021 E.0825
G1 X214.469 Y144.714 E.0825
G1 X215.753 Y146.465 E.0825
G1 X216.959 Y148.269 E.0825
G1 X218.085 Y150.125 E.0825
G1 X219.129 Y152.028 E.0825
G1 X220.089 Y153.975 E.0825
G1 X220.963 Y155.962 E.0825
G1 X221.75 Y157.984 E.08249
G1 X222.447 Y160.04 E.0825
G1 X223.055 Y162.124 E.08249
G1 X223.571 Y164.232 E.0825
G1 X223.994 Y166.361 E.08249
G1 X224.324 Y168.506 E.0825
G1 X224.561 Y170.664 E.0825
G1 X224.703 Y172.83 E.0825
G1 X224.75 Y175 E.08249
G1 X224.726 Y176.085 E.04125
G1 X224.703 Y177.17 E.04125
G1 X224.561 Y179.336 E.0825
G1 X224.324 Y181.494 E.0825
G1 X223.994 Y183.639 E.0825
G1 X223.571 Y185.768 E.08249
G1 X223.055 Y187.876 E.0825
G1 X222.447 Y189.96 E.08249
G1 X221.75 Y192.016 E.0825
G1 X220.963 Y194.038 E.08249
G1 X220.089 Y196.025 E.0825
G1 X219.129 Y197.972 E.0825
G1 X218.085 Y199.875 E.0825
G1 X216.959 Y201.731 E.0825
