; HEADER_BLOCK_START
; generated by OrcaSlicer 1.9.0 on 2024-02-03 at 16:31:06
; total layer number: 250
; filament_density: 1.24,1.27,1.27
; filament_diameter: 1.75,1.75,1.75
; max_z_height: 50.00
; HEADER_BLOCK_END

; THUMBNAIL_BLOCK_START

;
; THUMBNAIL_BLOCK_END

; external perimeters extrusion width = 0.40mm
; perimeters extrusion width = 0.40mm
; infill extrusion width = 0.45mm
; solid infill extrusion width = 0.40mm
; top infill extrusion width = 0.40mm
; first layer extrusion width = 0.50mm

; EXECUTABLE_BLOCK_START
EXCLUDE_OBJECT_DEFINE NAME=temperature_tower.stl_id_0_copy_0 CENTER=175,175 POLYGON=[[152.756,170],[192.785,170],[192.995,170.006],[193.145,170.016],[193.154,170.016],[193.208,170.021],[193.251,170.025],[193.285,170.029],[193.336,170.035],[193.473,170.053],[193.503,170.057],[193.535,170.062],[193.627,170.078],[193.792,170.11],[193.857,170.124],[194.04,170.17],[194.133,170.195],[194.309,170.25],[194.361,170.267],[194.444,170.296],[194.511,170.321],[194.55,170.336],[194.663,170.381],[194.684,170.389],[194.752,170.418],[194.762,170.423],[194.785,170.433],[194.943,170.507],[194.987,170.529],[195.246,170.668],[195.375,170.745],[195.517,170.836],[195.746,170.998],[196.063,171.257],[196.334,171.516],[196.508,171.704],[196.566,171.772],[196.708,171.947],[196.76,172.017],[196.877,172.18],[196.916,172.238],[197.009,172.383],[197.036,172.427],[197.11,172.555],[197.125,172.582],[197.185,172.694],[197.19,172.704],[197.23,172.783],[197.244,172.811],[197.242,177.192],[197.237,177.204],[197.22,177.237],[197.197,177.282],[197.166,177.342],[197.124,177.42],[197.074,177.508],[197.021,177.597],[196.943,177.72],[196.895,177.794],[196.777,177.962],[196.744,178.006],[196.575,178.218],[196.565,178.231],[196.353,178.465],[196.334,178.484],[196.055,178.75],[195.877,178.9],[195.738,179.008],[195.382,179.25],[195.369,179.258],[195.135,179.394],[194.939,179.495],[194.891,179.518],[194.785,179.567],[194.762,179.577],[194.752,179.582],[194.684,179.611],[194.663,179.619],[194.55,179.664],[194.519,179.676],[194.458,179.699],[194.444,179.704],[194.361,179.733],[194.32,179.746],[194.273,179.762],[194.112,179.811],[194.04,179.83],[193.857,179.876],[193.792,179.89],[193.627,179.922],[193.535,179.938],[193.503,179.943],[193.473,179.947],[193.336,179.965],[193.285,179.971],[193.251,179.975],[193.208,179.979],[193.154,179.984],[193.145,179.984],[192.995,179.994],[192.785,180],[152.756,180],[152.756,170]]
M73 P0 R43
M106 S0
M106 P2 S0
;TYPE:Custom
M104 S0 ; Stops OrcaSlicer from sending temp waits separately
M140 S0
print_start EXTRUDER=235 BED=70 CHAMBER=0
G90
G21
M83 ; use relative distances for extrusion
T1
M104 S235 ; set nozzle temperature
; filament start gcode
SET_PRESSURE_ADVANCE ADVANCE=0.035; Override pressure advance value
M106 S0
M106 P2 S0
;LAYER_CHANGE
;Z:0.2
;HEIGHT:0.2
;BEFORE_LAYER_CHANGE
;0.2
G92 E0

G1 E-.4 F1800
;AFTER_LAYER_CHANGE
;0.2
;_SET_FAN_SPEED_CHANGING_LAYER
M104 S235 ; set nozzle temperature
SET_VELOCITY_LIMIT ACCEL=500 ACCEL_TO_DECEL=250
SET_VELOCITY_LIMIT SQUARE_CORNER_VELOCITY=9
; printing object temperature_tower.stl id:0 copy 0
EXCLUDE_OBJECT_START NAME=temperature_tower.stl_id_0_copy_0
G1 Z.4 F21000
G1 X159.265 Y167.373
G1 Z.4
G1 Z.2
G1 E.4 F1800
;TYPE:Brim
;WIDTH:0.5
G1 F3000
G1 X159.732 Y166.933 E.02439
G1 X160.258 Y166.565 E.02439
G1 X160.833 Y166.28 E.02439
G1 X161.443 Y166.082 E.02439
G1 X162.079 Y165.976 E.02451
G1 X162.477 Y165.958 E.01514
G1 X192.906 Y165.96 E1.15647
G1 X193.644 Y166.003 E.0281
G1 X194.19 Y166.077 E.02096
G1 X194.905 Y166.261 E.02804
G1 X195.493 Y166.516 E.02435
G1 X196.038 Y166.855 E.02439
G1 X196.526 Y167.27 E.02439
G1 X196.949 Y167.754 E.02439
G1 X197.295 Y168.294 E.02439
G1 X197.558 Y168.879 E.02439
G1 X197.731 Y169.494 E.02428
G1 X197.819 Y170.372 E.03354
G1 X197.819 Y179.631 E.35188
G1 X197.771 Y180.279 E.02471
G1 X197.63 Y180.905 E.02439
G1 X197.398 Y181.504 E.02439
G1 X197.08 Y182.061 E.02439
G1 X196.684 Y182.566 E.02439
G1 X196.217 Y183.007 E.02439
G1 X195.691 Y183.374 E.02439
G1 X195.12 Y183.658 E.02423
G1 X194.189 Y183.923 E.03681
G1 X193.451 Y184.014 E.02823
G1 X192.779 Y184.042 E.02557
G1 X162.481 Y184.042 E1.15154
G1 X161.832 Y183.994 E.02471
G1 X161.206 Y183.853 E.02439
G1 X160.608 Y183.621 E.02439
G1 X160.05 Y183.303 E.02439
G1 X159.545 Y182.907 E.02439
G1 X159.105 Y182.441 E.02439
G1 X158.738 Y181.914 E.02439
G1 X158.452 Y181.34 E.02439
G1 X158.254 Y180.729 E.02439
G1 X158.148 Y180.093 E.02451
G1 X158.13 Y179.695 E.01514
G1 X158.13 Y170.308 E.35674
G1 X158.178 Y169.66 E.02471
G1 X158.319 Y169.034 E.02439
G1 X158.551 Y168.436 E.02439
G1 X158.869 Y167.878 E.02439
G1 X159.24 Y167.405 E.02287
G1 X159.6 Y167.689 F21000
G1 F3000
G1 X159.611 Y167.675 E.00066
G1 X160.029 Y167.282 E.02181
G1 X160.483 Y166.965 E.02104
G1 X160.997 Y166.709 E.02181
G1 X161.562 Y166.526 E.02258
G1 X162.119 Y166.433 E.02149
G1 X162.491 Y166.415 E.01413
G1 X192.888 Y166.417 E1.1553
G1 X193.595 Y166.458 E.02689
G1 X194.095 Y166.525 E.01917
G1 X194.746 Y166.692 E.02554
G1 X195.271 Y166.917 E.02172
G1 X195.759 Y167.219 E.02181
G1 X196.211 Y167.604 E.02258
G1 X196.588 Y168.038 E.02181
G1 X196.896 Y168.521 E.02181
G1 X197.123 Y169.026 E.02104
G1 X197.281 Y169.592 E.0223
G1 X197.362 Y170.402 E.03096
G1 X197.362 Y179.609 E.34991
G1 X197.315 Y180.222 E.02336
G1 X197.188 Y180.781 E.02181
G1 X196.988 Y181.297 E.02104
G1 X196.694 Y181.813 E.02258
G1 X196.352 Y182.249 E.02104
G1 X195.935 Y182.644 E.02181
G1 X195.466 Y182.974 E.02181
G1 X194.966 Y183.224 E.02125
G1 X194.087 Y183.475 E.03473
G1 X193.419 Y183.558 E.02556
G1 X192.767 Y183.585 E.02482
G1 X162.492 Y183.585 E1.15063
G1 X161.91 Y183.542 E.0222
G1 X161.35 Y183.417 E.02181
G1 X160.814 Y183.211 E.02181
G1 X160.315 Y182.928 E.02181
G1 X159.862 Y182.575 E.02181
G1 X159.467 Y182.159 E.02181
G1 X159.138 Y181.689 E.02181
G1 X158.881 Y181.176 E.02181
G1 X158.698 Y180.61 E.02258
G1 X158.605 Y180.053 E.02149
G1 X158.587 Y179.681 E.01413
G1 X158.587 Y170.33 E.35539
G1 X158.63 Y169.738 E.02259
G1 X158.761 Y169.158 E.02258
G1 X158.97 Y168.624 E.02181
G1 X159.255 Y168.126 E.02181
G1 X159.576 Y167.72 E.01963
G1 X159.935 Y168.006 F21000
G1 F3000
G1 X159.956 Y167.978 E.00133
G1 X160.311 Y167.645 E.01849
G1 X160.709 Y167.365 E.01851
G1 X161.161 Y167.138 E.01922
G1 X161.68 Y166.969 E.02075
G1 X162.16 Y166.889 E.01849
G1 X162.505 Y166.872 E.01313
G1 X192.871 Y166.874 E1.15409
G1 X193.546 Y166.913 E.02569
G1 X193.999 Y166.974 E.01739
G1 X194.588 Y167.123 E.02307
G1 X195.05 Y167.32 E.01909
G1 X195.48 Y167.585 E.0192
G1 X195.881 Y167.923 E.01995
G1 X196.226 Y168.32 E.01998
G1 X196.487 Y168.731 E.01849
G1 X196.688 Y169.173 E.01847
G1 X196.832 Y169.688 E.02032
G1 X196.905 Y170.432 E.02838
G1 X196.905 Y179.586 E.34794
G1 X196.86 Y180.163 E.02198
G1 X196.752 Y180.637 E.01849
G1 X196.577 Y181.091 E.01848
G1 X196.307 Y181.566 E.02077
G1 X196.005 Y181.947 E.01848
G1 X195.653 Y182.282 E.01849
G1 X195.239 Y182.574 E.01923
G1 X194.81 Y182.79 E.01825
G1 X193.985 Y183.027 E.03264
G1 X193.376 Y183.102 E.02331
G1 X192.755 Y183.128 E.02364
G1 X162.504 Y183.127 E1.1497
G1 X161.987 Y183.089 E.01972
G1 X161.492 Y182.98 E.01925
G1 X161.019 Y182.8 E.01923
G1 X160.578 Y182.552 E.01923
G1 X160.178 Y182.242 E.01923
G1 X159.829 Y181.876 E.01923
G1 X159.537 Y181.462 E.01923
G1 X159.31 Y181.011 E.0192
G1 X159.141 Y180.492 E.02075
G1 X159.061 Y180.012 E.01849
G1 X159.044 Y179.667 E.01313
G1 X159.044 Y170.352 E.35402
G1 X159.083 Y169.815 E.02046
G1 X159.203 Y169.283 E.02075
G1 X159.389 Y168.813 E.0192
G1 X159.641 Y168.374 E.01923
G1 X159.91 Y168.037 E.01639
G1 X160.268 Y168.323 F21000
G1 F3000
G1 X160.301 Y168.282 E.00202
G1 X160.608 Y167.995 E.01598
G1 X160.954 Y167.754 E.01601
G1 X161.345 Y167.558 E.01663
G1 X161.799 Y167.413 E.01811
G1 X162.202 Y167.346 E.01551
G1 X162.52 Y167.329 E.01212
G1 X192.854 Y167.331 E1.15287
G1 X193.497 Y167.368 E.02449
G1 X193.904 Y167.422 E.01562
G1 X194.431 Y167.555 E.02062
G1 X194.83 Y167.723 E.01646
G1 X195.202 Y167.95 E.01659
G1 X195.566 Y168.258 E.01809
G1 X195.864 Y168.603 E.01734
G1 X196.079 Y168.941 E.01521
G1 X196.253 Y169.32 E.01587
G1 X196.382 Y169.785 E.01832
G1 X196.448 Y170.461 E.02581
G1 X196.448 Y179.563 E.34595
G1 X196.408 Y180.084 E.01985
G1 X196.316 Y180.494 E.01598
G1 X196.167 Y180.885 E.0159
G1 X195.92 Y181.318 E.01892
G1 X195.66 Y181.645 E.0159
G1 X195.369 Y181.921 E.01524
G1 X195.011 Y182.176 E.01668
G1 X194.655 Y182.357 E.01522
G1 X193.883 Y182.579 E.03053
G1 X193.333 Y182.646 E.02104
G1 X192.742 Y182.671 E.02248
G1 X162.516 Y182.67 E1.14878
G1 X162.063 Y182.636 E.01728
G1 X161.633 Y182.543 E.0167
G1 X161.223 Y182.389 E.01665
G1 X160.841 Y182.175 E.01665
G1 X160.494 Y181.908 E.01665
G1 X160.19 Y181.592 E.01665
G1 X159.925 Y181.217 E.01742
G1 X159.73 Y180.827 E.01659
G1 X159.585 Y180.373 E.01811
G1 X159.518 Y179.97 E.01551
G1 X159.501 Y179.652 E.01212
G1 X159.501 Y170.374 E.35263
G1 X159.536 Y169.893 E.01833
G1 X159.645 Y169.408 E.0189
G1 X159.806 Y169.003 E.01656
G1 X160.027 Y168.624 E.01665
G1 X160.243 Y168.354 E.01313
G1 X160.599 Y168.642 F21000
G1 F3000
G1 X160.644 Y168.586 E.00272
G1 X160.904 Y168.345 E.01347
G1 X161.197 Y168.143 E.01351
G1 X161.528 Y167.98 E.01405
G1 X161.917 Y167.857 E.0155
G1 X162.244 Y167.802 E.0126
G1 X162.536 Y167.786 E.01111
G1 X192.836 Y167.788 E1.15163
G1 X193.449 Y167.823 E.0233
G1 X193.81 Y167.871 E.01387
G1 X194.275 Y167.987 E.0182
G1 X194.611 Y168.127 E.01385
G1 X194.925 Y168.317 E.01393
G1 X195.235 Y168.577 E.01538
G1 X195.502 Y168.885 E.0155
G1 X195.681 Y169.168 E.01272
G1 X195.817 Y169.468 E.01252
G1 X195.932 Y169.881 E.01629
G1 X195.991 Y170.49 E.02325
G1 X195.991 Y179.54 E.34398
G1 X195.955 Y180.006 E.01775
G1 X195.879 Y180.352 E.01348
G1 X195.756 Y180.68 E.01328
G1 X195.534 Y181.069 E.01703
G1 X195.315 Y181.342 E.01331
G1 X195.07 Y181.573 E.0128
G1 X194.765 Y181.788 E.01417
G1 X194.474 Y181.934 E.01238
G1 X193.78 Y182.131 E.0274
G1 X193.29 Y182.191 E.01876
G1 X192.73 Y182.214 E.02132
G1 X162.528 Y182.212 E1.14786
G1 X162.119 Y182.181 E.01559
G1 X161.754 Y182.1 E.01423
G1 X161.407 Y181.968 E.01408
G1 X161.085 Y181.786 E.01407
G1 X160.792 Y181.559 E.01407
G1 X160.537 Y181.291 E.01405
G1 X160.314 Y180.973 E.01478
G1 X160.152 Y180.644 E.01394
G1 X160.029 Y180.255 E.01549
G1 X159.974 Y179.928 E.0126
G1 X159.958 Y179.636 E.01111
G1 X159.958 Y170.395 E.35123
G1 X159.988 Y169.97 E.01619
G1 X160.087 Y169.534 E.01702
G1 X160.224 Y169.195 E.01388
G1 X160.411 Y168.875 E.01408
G1 X160.574 Y168.673 E.00987
G1 X160.937 Y168.963 F21000
G1 F3000
G1 X160.996 Y168.89 E.00356
G1 X161.25 Y168.67 E.01276
G1 X161.591 Y168.471 E.01501
G1 X162.108 Y168.298 E.02074
G1 X162.513 Y168.243 E.01553
G1 X192.77 Y168.243 E1.14993
G1 X193.426 Y168.279 E.02498
G1 X193.779 Y168.33 E.01355
G1 X194.063 Y168.403 E.01116
G1 X194.622 Y168.676 E.02364
G1 X194.725 Y168.746 E.00474
G1 X194.921 Y168.916 E.00986
G1 X195.108 Y169.134 E.01092
G1 X195.251 Y169.369 E.01044
G1 X195.4 Y169.705 E.01397
G1 X195.514 Y170.199 E.01928
G1 X195.534 Y179.595 E.35709
G1 X195.436 Y180.204 E.02345
G1 X195.401 Y180.318 E.00452
G1 X195.246 Y180.657 E.01416
G1 X195.027 Y180.967 E.01444
G1 X194.809 Y181.18 E.01157
G1 X194.465 Y181.418 E.01589
G1 X194.204 Y181.544 E.01103
G1 X193.775 Y181.669 E.01698
G1 X193.317 Y181.731 E.01756
G1 X192.853 Y181.755 E.01763
G1 X162.517 Y181.757 E1.15296
G1 X161.795 Y181.626 E.0279
G1 X161.559 Y181.526 E.00975
G1 X161.364 Y181.417 E.00849
G1 X160.973 Y181.082 E.01955
G1 X160.898 Y180.997 E.00432
G1 X160.733 Y180.751 E.01127
G1 X160.583 Y180.442 E.01307
G1 X160.465 Y180.047 E.01566
G1 X160.425 Y179.81 E.00914
G1 X160.415 Y170.348 E.35959
G1 X160.508 Y169.773 E.02216
G1 X160.611 Y169.466 E.01229
G1 X160.759 Y169.186 E.01203
G1 X160.913 Y168.994 E.00935
G1 X161.26 Y169.286 F21000
G1 F3000
G1 X161.352 Y169.176 E.00543
G1 X161.544 Y169.02 E.00944
G1 X161.823 Y168.864 E.01214
G1 X162.252 Y168.732 E.01704
G1 X162.504 Y168.7 E.00965
G1 X192.773 Y168.7 E1.15042
G1 X193.362 Y168.732 E.02239
G1 X193.658 Y168.771 E.01135
G1 X193.963 Y168.849 E.01197
G1 X194.418 Y169.085 E.0195
G1 X194.628 Y169.267 E.01055
G1 X194.758 Y169.428 E.00785
G1 X194.83 Y169.546 E.00526
G1 X194.988 Y169.902 E.01482
G1 X195.069 Y170.302 E.01552
G1 X195.077 Y179.606 E.35361
G1 X194.984 Y180.132 E.02028
G1 X194.87 Y180.398 E.01101
G1 X194.715 Y180.632 E.01064
G1 X194.481 Y180.862 E.01248
G1 X194.208 Y181.04 E.01238
G1 X194.008 Y181.131 E.00836
G1 X193.646 Y181.23 E.01427
G1 X193.258 Y181.278 E.01487
G1 X192.828 Y181.299 E.01635
G1 X162.505 Y181.3 E1.15246
G1 X161.978 Y181.207 E.02034
G1 X161.789 Y181.131 E.00773
G1 X161.576 Y181.011 E.00929
G1 X161.275 Y180.739 E.01543
G1 X161.148 Y180.56 E.00836
G1 X160.989 Y180.232 E.01384
G1 X160.904 Y179.921 E.01226
G1 X160.876 Y179.734 E.00719
G1 X160.872 Y170.337 E.35713
G1 X160.96 Y169.843 E.01905
G1 X161.043 Y169.614 E.00929
G1 X161.162 Y169.402 E.00922
G1 X161.234 Y169.316 E.00426
G1 X161.568 Y169.618 F21000
G1 F3000
G1 X161.696 Y169.476 E.00726
G1 X161.822 Y169.382 E.00598
G1 X162.049 Y169.261 E.00976
G1 X162.38 Y169.17 E.01306
G1 X162.495 Y169.157 E.00441
G1 X192.777 Y169.157 E1.15089
G1 X193.297 Y169.184 E.01977
G1 X193.606 Y169.225 E.01187
G1 X193.847 Y169.292 E.00951
G1 X194.128 Y169.437 E.01201
G1 X194.265 Y169.546 E.00666
G1 X194.408 Y169.722 E.00864
G1 X194.573 Y170.095 E.0155
G1 X194.62 Y170.385 E.01115
G1 X194.62 Y179.616 E.35085
G1 X194.563 Y179.956 E.01307
G1 X194.481 Y180.159 E.00834
G1 X194.39 Y180.312 E.00676
G1 X194.234 Y180.477 E.00864
G1 X194.01 Y180.629 E.01025
G1 X193.886 Y180.691 E.00529
G1 X193.601 Y180.775 E.0113
G1 X193.197 Y180.824 E.01544
G1 X192.805 Y180.842 E.01495
G1 X162.495 Y180.843 E1.15196
G1 X162.156 Y180.786 E.01307
G1 X161.952 Y180.704 E.00834
G1 X161.8 Y180.613 E.00673
G1 X161.648 Y180.476 E.00778
G1 X161.554 Y180.35 E.00598
G1 X161.433 Y180.123 E.00976
G1 X161.342 Y179.792 E.01306
G1 X161.329 Y179.677 E.00441
G1 X161.329 Y170.325 E.35542
G1 X161.41 Y169.925 E.01552
G1 X161.468 Y169.78 E.00592
G1 X161.546 Y169.651 E.00574
G1 X161.938 Y169.885 F21000
G1 F3000
G1 X161.958 Y169.851 E.00151
G1 X162.104 Y169.742 E.00688
G1 X162.258 Y169.667 E.00652
G1 X162.488 Y169.614 E.00896
G1 X192.781 Y169.614 E1.15132
G1 X193.231 Y169.637 E.01716
G1 X193.556 Y169.68 E.01243
G1 X193.723 Y169.731 E.00665
G1 X193.833 Y169.787 E.00469
G1 X193.992 Y169.913 E.00773
G1 X194.124 Y170.176 E.01118
G1 X194.162 Y170.374 E.00766
G1 X194.162 Y179.628 E.3517
G1 X194.134 Y179.799 E.0066
G1 X194.093 Y179.916 E.0047
G1 X193.989 Y180.091 E.00773
G1 X193.746 Y180.256 E.01117
G1 X193.554 Y180.32 E.00769
G1 X193.182 Y180.368 E.01425
G1 X192.781 Y180.386 E.01526
G1 X162.484 Y180.386 E1.15149
G1 X162.312 Y180.357 E.0066
G1 X162.195 Y180.317 E.0047
G1 X162.023 Y180.214 E.00764
G1 X161.915 Y180.068 E.00688
G1 X161.839 Y179.914 E.00652
G1 X161.786 Y179.684 E.00896
G1 X161.786 Y170.311 E.35623
G1 X161.855 Y170.023 E.01126
G1 X161.918 Y169.919 E.00461
G1 X162.292 Y170.159 F21000
G1 F3000
G1 X162.472 Y170.071 E.00761
G1 X192.784 Y170.071 E1.15204
G1 X193.166 Y170.089 E.01454
G1 X193.507 Y170.134 E.01308
G1 X193.641 Y170.201 E.00567
G1 X193.705 Y170.361 E.00655
G1 X193.705 Y179.639 E.35264
G1 X193.657 Y179.78 E.00567
G1 X193.507 Y179.866 E.00655
G1 X193.166 Y179.911 E.01308
G1 X192.784 Y179.929 E.01454
G1 X162.472 Y179.929 E1.15204
G1 X162.331 Y179.88 E.00567
G1 X162.244 Y179.7 E.00761
G1 X162.244 Y170.3 E.35726
G1 X162.279 Y170.197 E.00415
G1 E-.28 F1800
;WIPE_START
G1 F3000
G1 X162.472 Y170.071 E-.02762
G1 X163.242 Y170.071 E-.09238
;WIPE_END
G1 Z.6 F21000
G1 X192.313 Y178.536 Z.6
G1 Z.2
G1 E.4 F1800
;TYPE:Inner wall
;WIDTH:0.499999
G1 F3000
G1 X163.636 Y178.536 E1.08989
G1 X163.636 Y171.464 E.26876
G1 X192.313 Y171.468 E1.08989
G1 X192.313 Y178.496 E.2671
G1 X192.77 Y178.976 F21000
G1 F3000
G1 X192.754 Y178.993 E.00087
G1 X163.179 Y178.993 E1.12403
G1 X163.179 Y171.007 E.30351
M73 P1 R43
G1 X192.77 Y171.011 E1.12463
G1 X192.77 Y178.936 E.30121
G1 X193.227 Y179.411 F21000
;TYPE:Outer wall
G1 F3000
G1 X192.774 Y179.45 E.01729
G1 X162.722 Y179.45 E1.14215
G1 X162.722 Y170.55 E.33826
G1 X192.895 Y170.554 E1.14676
