; HEADER_BLOCK_START
; generated by OrcaSlicer 1.9.1 on 2024-02-24 at 17:55:21
; total layer number: 30
; filament_density: 1.24,1.27,1.27
; filament_diameter: 1.75,1.75,1.75
; max_z_height: 6.00
; HEADER_BLOCK_END

; THUMBNAIL_BLOCK_START

;
; THUMBNAIL_BLOCK_END

; external perimeters extrusion width = 0.40mm
; perimeters extrusion width = 0.40mm
; infill extrusion width = 0.45mm
; solid infill extrusion width = 0.40mm
; top infill extrusion width = 0.40mm
; first layer extrusion width = 0.50mm

; EXECUTABLE_BLOCK_START
EXCLUDE_OBJECT_DEFINE NAME=Turtle_Fence_-_Test_Post_Side.stl_id_0_copy_0 CENTER=175,175 POLYGON=[[149.75,150.75],[149.753,150.619],[149.761,150.489],[149.776,150.358],[149.796,150.229],[149.821,150.101],[149.852,149.974],[149.889,149.848],[149.931,149.724],[149.978,149.602],[150.031,149.482],[150.089,149.365],[150.152,149.25],[150.22,149.138],[150.293,149.029],[150.37,148.924],[150.452,148.822],[150.538,148.723],[150.629,148.629],[150.723,148.538],[150.822,148.452],[150.924,148.37],[151.029,148.293],[151.138,148.22],[151.25,148.152],[151.365,148.089],[151.482,148.031],[151.602,147.978],[151.724,147.931],[151.848,147.889],[151.974,147.852],[152.101,147.821],[152.229,147.796],[152.358,147.776],[152.489,147.761],[152.619,147.753],[152.75,147.75],[161.75,147.75],[161.881,147.753],[162.011,147.761],[162.142,147.776],[162.271,147.796],[162.399,147.821],[162.526,147.852],[162.652,147.889],[162.776,147.931],[162.898,147.978],[163.018,148.031],[163.135,148.089],[163.25,148.152],[163.362,148.22],[163.471,148.293],[163.576,148.37],[163.678,148.452],[199.536,178.568],[199.601,178.625],[199.664,178.686],[199.725,178.749],[199.782,178.814],[199.837,178.882],[199.888,178.953],[199.937,179.025],[199.982,179.1],[200.024,179.177],[200.063,179.255],[200.098,179.335],[200.129,179.416],[200.157,179.499],[200.182,179.582],[200.203,179.667],[200.22,179.753],[200.233,179.839],[200.242,179.926],[200.248,180.013],[200.25,180.1],[200.25,199.25],[189.931,202.25],[149.75,202.25],[149.75,150.75]]
M73 P0 R8
M106 S0
M106 P2 S0
;TYPE:Custom
M104 S0 ; Stops OrcaSlicer from sending temp waits separately
M140 S0
print_start EXTRUDER=230 BED=70 CHAMBER=35
G90
G21
M83 ; use relative distances for extrusion
T1
M104 S230 ; set nozzle temperature
; filament start gcode
SET_GCODE_OFFSET Z_ADJUST=+0.015 MOVE=1
SET_PRESSURE_ADVANCE ADVANCE=0.035; Override pressure advance value
M106 S0
M106 P2 S0
;LAYER_CHANGE
;Z:0.2
;HEIGHT:0.2
;BEFORE_LAYER_CHANGE
;0.2
G92 E0

G1 E-.4 F1800
;AFTER_LAYER_CHANGE
;0.2
;_SET_FAN_SPEED_CHANGING_LAYER
SET_VELOCITY_LIMIT ACCEL=500 ACCEL_TO_DECEL=250
SET_VELOCITY_LIMIT SQUARE_CORNER_VELOCITY=9
; printing object Turtle Fence - Test Post Side.stl id:0 copy 0
EXCLUDE_OBJECT_START NAME=Turtle_Fence_-_Test_Post_Side.stl_id_0_copy_0
G1 Z.4 F21000
G1 X158.619 Y152.563
G1 Z.4
G1 Z.2
G1 E.4 F1800
;TYPE:Inner wall
;WIDTH:0.499999
G1 F3000
G1 X158.586 Y152.729 E.00642
G1 X158.586 Y197.271 E1.69291
G1 X158.674 Y197.711 E.01703
G1 X158.814 Y197.957 E.01077
G1 X159.043 Y198.186 E.01228
G1 X159.358 Y198.352 E.01355
G1 X159.729 Y198.414 E.01428
G1 X194.771 Y198.414 E1.33185
G1 X194.896 Y198.407 E.00474
G1 X195.263 Y198.303 E.01448
G1 X195.647 Y198.005 E.01849
G1 X195.857 Y197.628 E.01641
G1 X195.914 Y197.271 E.01372
G1 X195.914 Y182.979 E.54322
G1 X195.852 Y182.606 E.01434
G1 X195.684 Y182.29 E.0136
G1 X195.455 Y182.063 E.01225
G1 X195.141 Y181.897 E.01351
G1 X194.772 Y181.836 E.01422
G1 X193.232 Y181.836 E.05851
G1 X191.059 Y179.663 E.11678
G1 X191.09 Y179.602 E.00258
G1 X191.371 Y179.37 E.01388
G1 X191.8 Y179.264 E.0168
G1 X198.204 Y179.266 E.24336
G1 X198.556 Y179.328 E.01361
G1 X198.838 Y179.512 E.0128
G1 X199.028 Y179.815 E.01357
G1 X199.078 Y180.099 E.01098
G1 X199.085 Y198.376 E.69464
G1 X189.765 Y201.086 E.36889
G1 X150.914 Y201.086 E1.47659
M73 P1 R8
G1 X150.914 Y150.923 E1.90652
G1 X150.967 Y150.329 E.02264
G1 X151.119 Y149.915 E.01677
G1 X151.384 Y149.534 E.01765
G1 X151.729 Y149.238 E.01727
G1 X152.209 Y148.999 E.0204
G1 X152.801 Y148.914 E.0227
G1 X161.689 Y148.917 E.3378
G1 X162.248 Y148.987 E.02144
G1 X162.667 Y149.162 E.01723
G1 X163.046 Y149.454 E.01819
G1 X163.331 Y149.823 E.01771
G1 X163.492 Y150.218 E.01623
G1 X163.586 Y150.788 E.02196
G1 X163.586 Y151.586 E.03032
G1 X159.729 Y151.586 E.1466
G1 X159.358 Y151.648 E.01428
G1 X159.043 Y151.814 E.01355
G1 X158.814 Y152.043 E.01228
G1 X158.674 Y152.289 E.01077
G1 X158.627 Y152.524 E.00909
G1 X159.059 Y152.646 F21000
G1 F3000
G1 X159.043 Y152.729 E.00321
G1 X159.043 Y197.25 E1.69209
G1 X159.096 Y197.535 E.01102
G1 X159.317 Y197.82 E.01371
G1 X159.506 Y197.92 E.00813
G1 X159.729 Y197.957 E.00857
G1 X194.771 Y197.957 E1.33185
G1 X194.963 Y197.93 E.00735
G1 X195.297 Y197.712 E.01516
G1 X195.423 Y197.485 E.00985
G1 X195.457 Y197.271 E.00823
G1 X195.457 Y182.979 E.54322
G1 X195.42 Y182.755 E.00861
G1 X195.319 Y182.566 E.00816
G1 X195.182 Y182.429 E.00735
G1 X194.993 Y182.33 E.0081
G1 X194.772 Y182.293 E.00853
G1 X193.043 Y182.293 E.0657
G1 X190.541 Y179.791 E.13447
G1 X190.521 Y179.726 E.0026
G1 X190.753 Y179.289 E.01881
G1 X191.159 Y178.959 E.01987
G1 X191.447 Y178.862 E.01157
G1 X191.781 Y178.807 E.01285
G1 X198.204 Y178.809 E.24411
G1 X198.529 Y178.84 E.01243
G1 X198.995 Y179.047 E.01937
G1 X199.307 Y179.36 E.01678
G1 X199.496 Y179.766 E.01703
G1 X199.535 Y180.099 E.01274
G1 X199.543 Y198.719 E.70768
M73 P2 R8
G1 X189.83 Y201.543 E.38441
G1 X150.457 Y201.543 E1.49643
G1 X150.457 Y150.788 E1.929
G1 X150.517 Y150.24 E.02096
G1 X150.653 Y149.838 E.01614
G1 X150.936 Y149.351 E.02139
G1 X151.231 Y149.041 E.01627
G1 X151.693 Y148.718 E.02139
G1 X152.205 Y148.529 E.02077
G1 X152.781 Y148.457 E.02204
G1 X161.689 Y148.46 E.33856
G1 X162.204 Y148.518 E.01969
G1 X162.627 Y148.633 E.01666
G1 X163.145 Y148.932 E.02273
G1 X163.568 Y149.355 E.02273
G1 X163.834 Y149.821 E.02038
G1 X163.994 Y150.349 E.021
G1 X164.043 Y150.773 E.01621
G1 X164.043 Y152.043 E.04826
G1 X159.61 Y152.053 E.16847
G1 X159.317 Y152.18 E.01214
G1 X159.096 Y152.465 E.01371
G1 X159.067 Y152.606 E.00549
G1 X159.5 Y152.729 F21000
;TYPE:Outer wall
G1 F3000
G1 X159.5 Y197.25 E1.69209
G1 X159.504 Y197.313 E.00239
G1 X159.591 Y197.454 E.00633
G1 X159.729 Y197.5 E.00549
G1 X194.796 Y197.499 E1.3328
G1 X194.947 Y197.418 E.00648
G1 X195 Y197.271 E.00594
G1 X195 Y182.979 E.54322
G1 X194.988 Y182.904 E.00287
G1 X194.908 Y182.795 E.00511
M73 P3 R8
G1 X194.772 Y182.75 E.00547
G1 X192.854 Y182.75 E.0729
G1 X190.021 Y179.918 E.15224
G1 X190.071 Y179.644 E.01057
G1 X190.271 Y179.195 E.01868
G1 X190.512 Y178.866 E.0155
G1 X190.946 Y178.549 E.02042
G1 X191.455 Y178.377 E.02043
G1 X191.761 Y178.35 E.01167
G1 X198.204 Y178.352 E.24487
G1 X198.629 Y178.392 E.01622
G1 X199.079 Y178.572 E.01843
G1 X199.487 Y178.863 E.01905
G1 X199.757 Y179.226 E.01718
G1 X199.939 Y179.647 E.01746
G1 X199.992 Y180.099 E.01728
G1 X200 Y199.062 E.72073
G1 X189.896 Y202 E.39993
G1 X150 Y202 E1.51628
G1 X150 Y150.763 E1.94732
G1 X150.067 Y150.15 E.02343
G1 X150.235 Y149.653 E.01993
G1 X150.569 Y149.076 E.02536
G1 X150.93 Y148.697 E.01988
G1 X151.481 Y148.312 E.02555
G1 X152.097 Y148.085 E.02493
G1 X152.761 Y148 E.02546
G1 X161.689 Y148.003 E.33933
G1 X162.273 Y148.066 E.02233
G1 X162.802 Y148.21 E.02084
G1 X163.304 Y148.489 E.02184
G1 X163.694 Y148.806 E.01909
G1 X164.04 Y149.24 E.0211
G1 X164.332 Y149.808 E.02427
G1 X164.438 Y150.241 E.01694
G1 X164.5 Y150.758 E.01981
G1 X164.5 Y152.5 E.0662
G1 X159.729 Y152.5 E.18135
G1 X159.689 Y152.503 E.0015
G1 X159.546 Y152.591 E.0064
G1 X159.513 Y152.691 E.00397
G1 E-.28 F1800
;WIPE_START
G1 F3000
G1 X159.512 Y153.691 E-.12
;WIPE_END
G1 Z.6 F21000
G1 X163.402 Y150.43 Z.6
G1 Z.2
G1 E.4 F1800
;TYPE:Bottom surface
;WIDTH:0.503934
G1 F6300
G1 X162.371 Y149.399 E.05593
G1 X162.167 Y149.322 E.00836
G1 X161.764 Y149.26 E.01561
G1 X161.58 Y149.26 E.00707
G1 X163.235 Y150.915 E.08971
G1 X163.241 Y151.243 E.01259
G1 X162.911 Y151.243 E.01264
G1 X160.928 Y149.259 E.10753
G1 X160.276 Y149.259 E.025
G1 X162.259 Y151.243 E.10754
G1 X161.607 Y151.243 E.02499
G1 X159.623 Y149.259 E.10755
G1 X158.971 Y149.259 E.025
G1 X160.955 Y151.243 E.10756
M73 P4 R8
G1 X160.303 Y151.243 E.02499
G1 X158.319 Y149.259 E.10758
G1 X157.667 Y149.258 E.025
G1 X159.657 Y151.249 E.1079
G1 X159.473 Y151.265 E.0071
G1 X159.242 Y151.324 E.00912
G1 X159.136 Y151.38 E.00459
G1 X157.015 Y149.258 E.11503
G1 X156.362 Y149.258 E.025
G1 X158.74 Y151.636 E.12889
G1 X158.54 Y151.836 E.01085
G1 X158.448 Y151.996 E.00707
G1 X155.71 Y149.258 E.14844
G1 X155.058 Y149.258 E.025
G1 X158.266 Y152.466 E.17393
G1 X158.243 Y152.723 E.00991
G1 X158.243 Y153.095 E.01423
G1 X154.406 Y149.257 E.20801
G1 X153.754 Y149.257 E.025
G1 X158.243 Y153.747 E.24337
G1 X158.243 Y154.399 E.02499
G1 X153.102 Y149.257 E.27873
G1 X152.479 Y149.287 E.02389
G1 X158.243 Y155.05 E.31247
G1 X158.243 Y155.702 E.02499
G1 X152.007 Y149.467 E.33806
G1 X151.831 Y149.579 E.00802
G1 X151.645 Y149.756 E.00984
G1 X158.243 Y156.354 E.35771
G1 X158.243 Y157.006 E.02499
G1 X151.389 Y150.152 E.37158
G1 X151.305 Y150.396 E.0099
G1 X151.273 Y150.688 E.01125
G1 X158.243 Y157.658 E.37787
G1 X158.243 Y158.31 E.02499
G1 X151.257 Y151.324 E.37873
G1 X151.257 Y151.976 E.02499
G1 X158.243 Y158.962 E.37873
G1 X158.243 Y159.614 E.02499
G1 X151.257 Y152.628 E.37873
G1 X151.257 Y153.28 E.02499
G1 X158.243 Y160.266 E.37873
G1 X158.243 Y160.918 E.02499
G1 X151.257 Y153.932 E.37873
G1 X151.257 Y154.584 E.02499
G1 X158.243 Y161.57 E.37873
G1 X158.243 Y162.222 E.02499
M73 P5 R8
G1 X151.257 Y155.236 E.37873
G1 X151.257 Y155.888 E.02499
G1 X158.243 Y162.874 E.37873
G1 X158.243 Y163.526 E.02499
G1 X151.257 Y156.54 E.37873
G1 X151.257 Y157.192 E.02499
G1 X158.243 Y164.178 E.37873
G1 X158.243 Y164.83 E.02499
G1 X151.257 Y157.844 E.37873
G1 X151.257 Y158.496 E.02499
G1 X158.243 Y165.482 E.37873
G1 X158.243 Y166.134 E.02499
G1 X151.257 Y159.148 E.37873
G1 X151.257 Y159.8 E.02499
G1 X158.243 Y166.786 E.37873
G1 X158.243 Y167.438 E.02499
G1 X151.257 Y160.452 E.37873
G1 X151.257 Y161.104 E.02499
G1 X158.243 Y168.09 E.37873
G1 X158.243 Y168.742 E.02499
G1 X151.257 Y161.756 E.37873
G1 X151.257 Y162.408 E.02499
G1 X158.243 Y169.394 E.37873
G1 X158.243 Y170.046 E.02499
G1 X151.257 Y163.06 E.37873
G1 X151.257 Y163.712 E.02499
G1 X158.243 Y170.698 E.37873
G1 X158.243 Y171.35 E.02499
G1 X151.257 Y164.364 E.37873
G1 X151.257 Y165.016 E.02499
G1 X158.243 Y172.002 E.37873
G1 X158.243 Y172.654 E.02499
G1 X151.257 Y165.668 E.37873
G1 X151.257 Y166.32 E.02499
G1 X158.243 Y173.306 E.37873
M73 P6 R8
G1 X158.243 Y173.958 E.02499
G1 X151.257 Y166.972 E.37873
G1 X151.257 Y167.624 E.02499
G1 X158.243 Y174.61 E.37873
G1 X158.243 Y175.262 E.02499
G1 X151.257 Y168.276 E.37873
G1 X151.257 Y168.928 E.02499
G1 X158.243 Y175.914 E.37873
G1 X158.243 Y176.566 E.02499
G1 X151.257 Y169.579 E.37873
G1 X151.257 Y170.231 E.02499
G1 X158.243 Y177.218 E.37873
G1 X158.243 Y177.87 E.02499
G1 X151.257 Y170.883 E.37873
G1 X151.257 Y171.535 E.02499
G1 X158.243 Y178.521 E.37873
G1 X158.243 Y179.173 E.02499
G1 X151.257 Y172.187 E.37873
G1 X151.257 Y172.839 E.02499
G1 X158.243 Y179.825 E.37873
G1 X158.243 Y180.477 E.02499
G1 X151.257 Y173.491 E.37873
G1 X151.257 Y174.143 E.02499
G1 X158.243 Y181.129 E.37873
G1 X158.243 Y181.781 E.02499
G1 X151.257 Y174.795 E.37873
G1 X151.257 Y175.447 E.02499
G1 X158.243 Y182.433 E.37873
M73 P6 R7
G1 X158.243 Y183.085 E.02499
G1 X151.257 Y176.099 E.37873
G1 X151.257 Y176.751 E.02499
G1 X158.243 Y183.737 E.37873
G1 X158.243 Y184.389 E.02499
G1 X151.257 Y177.403 E.37873
G1 X151.257 Y178.055 E.02499
M73 P7 R7
G1 X158.243 Y185.041 E.37873
G1 X158.243 Y185.693 E.02499
G1 X151.257 Y178.707 E.37873
G1 X151.257 Y179.359 E.02499
G1 X158.243 Y186.345 E.37873
G1 X158.243 Y186.997 E.02499
G1 X151.257 Y180.011 E.37873
G1 X151.257 Y180.663 E.02499
G1 X158.243 Y187.649 E.37873
G1 X158.243 Y188.301 E.02499
G1 X151.257 Y181.315 E.37873
G1 X151.257 Y181.967 E.02499
G1 X158.243 Y188.953 E.37873
G1 X158.243 Y189.605 E.02499
G1 X151.257 Y182.619 E.37873
G1 X151.257 Y183.271 E.02499
G1 X158.243 Y190.257 E.37873
G1 X158.243 Y190.909 E.02499
G1 X151.257 Y183.923 E.37873
G1 X151.257 Y184.575 E.02499
G1 X158.243 Y191.561 E.37873
G1 X158.243 Y192.213 E.02499
G1 X151.257 Y185.227 E.37873
G1 X151.257 Y185.879 E.02499
G1 X158.243 Y192.865 E.37873
G1 X158.243 Y193.517 E.02499
G1 X151.257 Y186.531 E.37873
G1 X151.257 Y187.183 E.02499
G1 X158.243 Y194.169 E.37873
G1 X158.243 Y194.821 E.02499
G1 X151.257 Y187.835 E.37873
G1 X151.257 Y188.487 E.02499
G1 X158.243 Y195.473 E.37873
G1 X158.243 Y196.125 E.02499
G1 X151.257 Y189.139 E.37873
M73 P8 R7
G1 X151.257 Y189.791 E.02499
G1 X158.449 Y196.982 E.38988
G1 E-.28 F1800
;WIPE_START
G1 F6300
G1 X157.742 Y196.275 E-.12
;WIPE_END
G1 Z.6 F21000
G1 X197.591 Y179.403 Z.6
G1 Z.2
G1 E.4 F1800
G1 F6300
G1 X198.736 Y180.548 E.06206
G1 X198.736 Y181.2 E.025
G1 X197.144 Y179.609 E.08628
G1 X196.492 Y179.608 E.025
G1 X198.736 Y181.852 E.12164
G1 X198.736 Y182.504 E.025
G1 X195.84 Y179.608 E.15701
G1 X195.188 Y179.608 E.025
G1 X198.737 Y183.157 E.19238
G1 X198.737 Y183.809 E.025
G1 X194.536 Y179.608 E.22775
G1 X193.884 Y179.608 E.025
G1 X198.737 Y184.461 E.26312
G1 X198.737 Y185.113 E.025
G1 X193.232 Y179.607 E.29849
G1 X192.579 Y179.607 E.025
G1 X194.465 Y181.493 E.10223
G1 X193.813 Y181.493 E.02499
G1 X191.728 Y179.408 E.11303
G1 E-.28 F1800
;WIPE_START
G1 F6300
G1 X192.435 Y180.115 E-.12
;WIPE_END
G1 Z.6 F21000
G1 X196.051 Y183.079 Z.6
G1 Z.2
G1 E.4 F1800
G1 F6300
G1 X198.738 Y185.766 E.14564
G1 X198.738 Y186.418 E.025
G1 X196.257 Y183.937 E.1345
G1 X196.257 Y184.589 E.02499
G1 X198.738 Y187.07 E.13451
G1 X198.738 Y187.722 E.025
G1 X196.257 Y185.241 E.13453
G1 X196.257 Y185.893 E.02499
G1 X198.739 Y188.374 E.13454
G1 X198.739 Y189.027 E.025
G1 X196.257 Y186.545 E.13456
G1 X196.257 Y187.197 E.02499
G1 X198.739 Y189.679 E.13457
G1 X198.74 Y190.331 E.025
G1 X196.257 Y187.849 E.13458
G1 X196.257 Y188.501 E.02499
G1 X198.74 Y190.983 E.1346
G1 X198.74 Y191.636 E.025
M73 P9 R7
G1 X196.257 Y189.153 E.13461
G1 X196.257 Y189.805 E.02499
G1 X198.74 Y192.288 E.13463
G1 X198.741 Y192.94 E.025
G1 X196.257 Y190.457 E.13464
G1 X196.257 Y191.108 E.02499
G1 X198.741 Y193.592 E.13465
G1 X198.741 Y194.245 E.025
G1 X196.257 Y191.76 E.13467
G1 X196.257 Y192.412 E.02499
G1 X198.741 Y194.897 E.13468
G1 X198.742 Y195.549 E.025
G1 X196.257 Y193.064 E.13469
G1 X196.257 Y193.716 E.02499
G1 X198.742 Y196.201 E.13471
G1 X198.742 Y196.853 E.025
G1 X196.257 Y194.368 E.13472
G1 X196.257 Y195.02 E.02499
G1 X198.742 Y197.506 E.13474
G1 X198.743 Y198.119 E.02351
G1 X198.712 Y198.128 E.00121
G1 X196.257 Y195.672 E.13311
G1 X196.257 Y196.324 E.02499
G1 X198.207 Y198.275 E.10573
G1 X197.702 Y198.421 E.02016
G1 X196.257 Y196.976 E.07834
G1 X196.257 Y197.281 E.01166
G1 X196.209 Y197.58 E.01164
G1 X197.197 Y198.568 E.05356
G1 X196.692 Y198.715 E.02016
G1 X196.016 Y198.039 E.03664
G1 X195.911 Y198.228 E.00828
G1 X195.709 Y198.384 E.00979
G1 X196.187 Y198.862 E.02589
G1 X195.682 Y199.009 E.02016
G1 X195.32 Y198.647 E.0196
G1 X195.186 Y198.698 E.0055
G1 X194.935 Y198.748 E.00979
G1 X194.778 Y198.757 E.00605
G1 X195.177 Y199.156 E.02162
G1 X194.671 Y199.303 E.02016
G1 X194.126 Y198.757 E.02957
G1 X193.474 Y198.757 E.02499
G1 X194.166 Y199.449 E.03754
G1 X193.661 Y199.596 E.02016
G1 X192.822 Y198.757 E.0455
G1 X192.17 Y198.757 E.02499
G1 X193.156 Y199.743 E.05346
G1 X192.651 Y199.89 E.02016
G1 X191.518 Y198.757 E.06142
G1 X190.866 Y198.757 E.02499
G1 X192.146 Y200.037 E.06938
G1 X191.641 Y200.184 E.02016
G1 X190.214 Y198.757 E.07734
G1 X189.562 Y198.757 E.02499
G1 X191.136 Y200.33 E.0853
G1 X190.63 Y200.477 E.02016
G1 X188.91 Y198.757 E.09326
G1 X188.258 Y198.757 E.02499
G1 X190.125 Y200.624 E.10122
G1 X189.717 Y200.743 E.01632
G1 X189.592 Y200.743 E.00477
G1 X187.606 Y198.757 E.10767
G1 X186.954 Y198.757 E.02499
G1 X188.94 Y200.743 E.10767
G1 X188.288 Y200.743 E.02499
G1 X186.302 Y198.757 E.10767
G1 X185.65 Y198.757 E.02499
G1 X187.636 Y200.743 E.10767
G1 X186.984 Y200.743 E.02499
G1 X184.998 Y198.757 E.10767
G1 X184.346 Y198.757 E.02499
G1 X186.332 Y200.743 E.10767
